; generated by Slic3r 1.2.9 on 2018-05-14 at 15:26:02

; external perimeters extrusion width = 0.30mm
; perimeters extrusion width = 0.40mm
; infill extrusion width = 0.40mm
; solid infill extrusion width = 0.40mm
; top infill extrusion width = 0.40mm

M107
M190 S65 ; set bed temperature
M104 S205 ; set temperature
G28 ; home all axes
G1 Z5 F5000 ; lift nozzle

M109 S205 ; wait for temperature to be reached
G21 ; set units to millimeters
G90 ; use absolute coordinates
M82 ; use absolute distances for extrusion
G92 E0
G1 Z0.300 F7800.000
G1 E-2.00000 F2400.00000
G92 E0
G1 X73.004 Y45.787 F7800.000
G1 E2.00000 F2400.00000
G1 X74.753 Y44.328 E2.15217 F1800.000
G1 X78.000 Y43.464 E2.37660
G1 X122.000 Y43.464 E5.31604
G1 X124.243 Y43.861 E5.46821
G1 X126.213 Y45.004 E5.62038 F1800.000
G1 X127.672 Y46.753 E5.77255
G1 X128.536 Y50.000 E5.99698
G1 X128.536 Y150.000 E12.67752
G1 X128.139 Y152.243 E12.82969
G1 X126.996 Y154.213 E12.98186
G1 X125.247 Y155.672 E13.13404
G1 X122.000 Y156.536 E13.35847
G1 X78.000 Y156.536 E16.29790
G1 X75.757 Y156.139 E16.45007
G1 X73.787 Y154.996 E16.60225
G1 X72.328 Y153.247 E16.75442
G1 X71.464 Y150.000 E16.97885
G1 X71.464 Y50.000 E23.65939
G1 X71.861 Y47.757 E23.81156
G1 X72.981 Y45.825 E23.96072
G1 E21.96072 F2400.00000
G92 E0
G1 X85.500 Y141.700 F7800.000
G1 E2.00000 F2400.00000
G1 X85.500 Y143.300 E2.10689 F1800.000
G1 X78.700 Y143.300 E2.56117
G1 X78.700 Y141.700 E2.66805
G1 X85.455 Y141.700 E3.11932
G1 X85.800 Y141.700 F7800.000
G1 E1.11932 F2400.00000
G92 E0
G1 X85.500 Y114.967 F7800.000
G1 E2.00000 F2400.00000
G1 X78.700 Y114.967 E2.45428 F1800.000
G1 X78.700 Y113.367 E2.56117
G1 X85.500 Y113.367 E3.01544
G1 X85.500 Y114.922 E3.11933
G1 X85.500 Y115.267 F7800.000
G1 E1.11933 F2400.00000
G92 E0
G1 X85.500 Y86.633 F7800.000
G1 E2.00000 F2400.00000
G1 X78.700 Y86.633 E2.45428 F1800.000
G1 X78.700 Y85.033 E2.56117
G1 X85.500 Y85.033 E3.01544
G1 X85.500 Y86.588 E3.11932
G1 X85.500 Y86.933 F7800.000
G1 E1.11932 F2400.00000
G92 E0
G1 X85.500 Y58.300 F7800.000
G1 E2.00000 F2400.00000
G1 X78.700 Y58.300 E2.45428 F1800.000
G1 X78.700 Y56.700 E2.56117
G1 X85.500 Y56.700 E3.01544
G1 X85.500 Y58.255 E3.11932
G1 X85.500 Y58.600 F7800.000
G1 E1.11932 F2400.00000
G92 E0
G1 X83.294 Y129.870 F7800.000
G1 E2.00000 F2400.00000
G1 X84.306 Y130.008 E2.06822 F1800.000
G1 X85.195 Y130.461 E2.13483
G1 X85.889 Y131.155 E2.20043
G1 X86.335 Y132.030 E2.26602
G1 X86.488 Y133.000 E2.33162
G1 X86.335 Y133.970 E2.39721
G1 X85.889 Y134.845 E2.46281
G1 X85.195 Y135.539 E2.52840
G1 X84.320 Y135.985 E2.59400
G1 X83.350 Y136.138 E2.65959
G1 X82.380 Y135.985 E2.72519
G1 X81.505 Y135.539 E2.79079
G1 X80.811 Y134.845 E2.85638
G1 X80.365 Y133.970 E2.92197
G1 X80.212 Y133.000 E2.98757
G1 X80.365 Y132.030 E3.05317
G1 X80.811 Y131.155 E3.11876
G1 X81.505 Y130.461 E3.18435
G1 X82.380 Y130.015 E3.24996
G1 X83.250 Y129.878 E3.30879 F1800.000
G1 X83.300 Y130.412 F7800.000
G1 X84.144 Y130.527 E3.36567 F1800.000
G1 X84.876 Y130.900 E3.42055
G1 X85.450 Y131.474 E3.47481
G1 X85.819 Y132.198 E3.52907
G1 X85.946 Y133.000 E3.58333
G1 X85.819 Y133.802 E3.63759
G1 X85.450 Y134.526 E3.69185
G1 X84.876 Y135.100 E3.74611
G1 X84.152 Y135.469 E3.80038
G1 X83.350 Y135.596 E3.85464
G1 X82.548 Y135.469 E3.90889
G1 X81.824 Y135.100 E3.96316
G1 X81.250 Y134.526 E4.01742
G1 X80.881 Y133.802 E4.07168
G1 X80.754 Y133.000 E4.12594
G1 X80.881 Y132.198 E4.18020
G1 X81.250 Y131.474 E4.23446
G1 X81.824 Y130.900 E4.28872
G1 X82.548 Y130.531 E4.34299
G1 X83.256 Y130.419 E4.39088 F1800.000
G1 X83.306 Y130.953 F7800.000
G1 X83.982 Y131.045 E4.43642 F1800.000
G1 X84.557 Y131.338 E4.47957
G1 X85.012 Y131.793 E4.52250
G1 X85.303 Y132.365 E4.56542
G1 X85.404 Y133.000 E4.60835
G1 X85.303 Y133.635 E4.65128
G1 X85.012 Y134.207 E4.69420
G1 X84.557 Y134.662 E4.73713
G1 X83.985 Y134.953 E4.78006
G1 X83.350 Y135.054 E4.82298
G1 X82.715 Y134.953 E4.86591
G1 X82.143 Y134.662 E4.90883
G1 X81.688 Y134.207 E4.95176
G1 X81.397 Y133.635 E4.99468
G1 X81.296 Y133.000 E5.03761
G1 X81.397 Y132.365 E5.08054
G1 X81.688 Y131.793 E5.12346
G1 X82.143 Y131.338 E5.16639
G1 X82.715 Y131.047 E5.20932
G1 X83.262 Y130.960 E5.24627 F1800.000
G1 X83.466 Y130.699 F7800.000
G1 X91.334 Y132.225 F7800.000
G1 X91.365 Y132.030 E5.25948 F1800.000
G1 X91.811 Y131.155 E5.32507
G1 X92.505 Y130.461 E5.39066
G1 X93.380 Y130.015 E5.45626
G1 X94.294 Y129.870 E5.51810 F1800.000
G1 X95.306 Y130.008 E5.58632
G1 X96.195 Y130.461 E5.65293
G1 X96.889 Y131.155 E5.71853
G1 X97.335 Y132.030 E5.78412
G1 X97.488 Y133.000 E5.84972
G1 X97.335 Y133.970 E5.91531
G1 X96.889 Y134.845 E5.98090
G1 X96.195 Y135.539 E6.04650
G1 X95.320 Y135.985 E6.11210
G1 X94.350 Y136.138 E6.17769
G1 X93.380 Y135.985 E6.24329
G1 X92.505 Y135.539 E6.30889
G1 X91.811 Y134.845 E6.37449
G1 X91.365 Y133.970 E6.44007
G1 X91.212 Y133.000 E6.50567
G1 X91.327 Y132.270 E6.55506
G1 X91.863 Y132.309 F7800.000
G1 X91.881 Y132.198 E6.56260 F1800.000
G1 X92.250 Y131.474 E6.61685
G1 X92.824 Y130.900 E6.67112
G1 X93.548 Y130.531 E6.72538
G1 X94.300 Y130.412 E6.77628 F1800.000
G1 X95.144 Y130.527 E6.83316
G1 X95.876 Y130.900 E6.88804
G1 X96.450 Y131.474 E6.94231
G1 X96.819 Y132.198 E6.99656
G1 X96.946 Y133.000 E7.05082
G1 X96.819 Y133.802 E7.10508
G1 X96.450 Y134.526 E7.15934
G1 X95.876 Y135.100 E7.21360
G1 X95.152 Y135.469 E7.26786
G1 X94.350 Y135.596 E7.32213
G1 X93.548 Y135.469 E7.37639
G1 X92.824 Y135.100 E7.43065
G1 X92.250 Y134.526 E7.48491
G1 X91.881 Y133.802 E7.53917
G1 X91.754 Y133.000 E7.59343
G1 X91.856 Y132.354 E7.63714
G1 X92.392 Y132.393 F7800.000
G1 X92.688 Y131.793 E7.68185 F1800.000
G1 X93.143 Y131.338 E7.72478
G1 X93.715 Y131.047 E7.76771
G1 X94.306 Y130.953 E7.80767 F1800.000
G1 X94.982 Y131.045 E7.85322
G1 X95.557 Y131.338 E7.89636
G1 X96.012 Y131.793 E7.93929
G1 X96.303 Y132.365 E7.98221
G1 X96.404 Y133.000 E8.02514
G1 X96.303 Y133.635 E8.06807
G1 X96.012 Y134.207 E8.11099
G1 X95.557 Y134.662 E8.15392
G1 X94.985 Y134.953 E8.19684
G1 X94.350 Y135.054 E8.23977
G1 X93.715 Y134.953 E8.28270
G1 X93.143 Y134.662 E8.32562
G1 X92.688 Y134.207 E8.36855
G1 X92.397 Y133.635 E8.41147
G1 X92.296 Y133.000 E8.45440
G1 X92.385 Y132.438 E8.49244
G1 X92.202 Y132.162 F7800.000
G1 E6.49244 F2400.00000
G92 E0
G1 X102.212 Y133.000 F7800.000
G1 E2.00000 F2400.00000
G1 X102.365 Y132.030 E2.06560 F1800.000
G1 X102.811 Y131.155 E2.13119
G1 X103.505 Y130.461 E2.19679
G1 X104.380 Y130.015 E2.26238
G1 X105.294 Y129.870 E2.32422 F1800.000
G1 X106.306 Y130.008 E2.39244
G1 X107.195 Y130.461 E2.45906
G1 X107.889 Y131.155 E2.52465
G1 X108.335 Y132.030 E2.59024
G1 X108.488 Y133.000 E2.65584
G1 X108.335 Y133.970 E2.72144
G1 X107.889 Y134.845 E2.78702
G1 X107.195 Y135.539 E2.85262
G1 X106.320 Y135.985 E2.91822
G1 X105.350 Y136.138 E2.98382
G1 X104.380 Y135.985 E3.04941
G1 X103.505 Y135.539 E3.11501
G1 X102.811 Y134.845 E3.18060
G1 X102.365 Y133.970 E3.24620
G1 X102.219 Y133.044 E3.30879
G1 X102.754 Y133.000 F7800.000
G1 X102.881 Y132.198 E3.36305 F1800.000
G1 X103.250 Y131.474 E3.41731
G1 X103.824 Y130.900 E3.47157
G1 X104.548 Y130.531 E3.52583
G1 X105.300 Y130.412 E3.57673 F1800.000
G1 X106.144 Y130.527 E3.63361
G1 X106.876 Y130.900 E3.68850
G1 X107.450 Y131.474 E3.74276
G1 X107.819 Y132.198 E3.79701
G1 X107.946 Y133.000 E3.85128
G1 X107.819 Y133.802 E3.90554
G1 X107.450 Y134.526 E3.95979
G1 X106.876 Y135.100 E4.01406
G1 X106.152 Y135.469 E4.06832
G1 X105.350 Y135.596 E4.12258
G1 X104.548 Y135.469 E4.17684
G1 X103.824 Y135.100 E4.23110
G1 X103.250 Y134.526 E4.28536
G1 X102.881 Y133.802 E4.33962
G1 X102.761 Y133.044 E4.39088
G1 X103.296 Y133.000 F7800.000
G1 X103.397 Y132.365 E4.43381 F1800.000
G1 X103.688 Y131.793 E4.47673
G1 X104.143 Y131.338 E4.51966
G1 X104.715 Y131.047 E4.56258
G1 X105.306 Y130.953 E4.60255 F1800.000
G1 X105.982 Y131.045 E4.64809
G1 X106.557 Y131.338 E4.69124
G1 X107.012 Y131.793 E4.73417
G1 X107.303 Y132.365 E4.77709
G1 X107.404 Y133.000 E4.82002
G1 X107.303 Y133.635 E4.86295
G1 X107.012 Y134.207 E4.90587
G1 X106.557 Y134.662 E4.94880
G1 X105.985 Y134.953 E4.99172
G1 X105.350 Y135.054 E5.03465
G1 X104.715 Y134.953 E5.07757
G1 X104.143 Y134.662 E5.12050
G1 X103.688 Y134.207 E5.16343
G1 X103.397 Y133.635 E5.20635
G1 X103.303 Y133.044 E5.24627
G1 X103.045 Y132.837 F7800.000
G1 E3.24627 F2400.00000
G92 E0
G1 X113.212 Y133.000 F7800.000
G1 E2.00000 F2400.00000
G1 X113.365 Y132.030 E2.06560 F1800.000
G1 X113.811 Y131.155 E2.13119
G1 X114.505 Y130.461 E2.19679
G1 X115.380 Y130.015 E2.26238
G1 X116.294 Y129.870 E2.32422 F1800.000
G1 X117.306 Y130.008 E2.39244
G1 X118.195 Y130.461 E2.45906
G1 X118.889 Y131.155 E2.52465
G1 X119.335 Y132.030 E2.59024
G1 X119.488 Y133.000 E2.65584
G1 X119.335 Y133.970 E2.72144
G1 X118.889 Y134.845 E2.78702
G1 X118.195 Y135.539 E2.85262
G1 X117.320 Y135.985 E2.91822
G1 X116.350 Y136.138 E2.98382
G1 X115.380 Y135.985 E3.04941
G1 X114.505 Y135.539 E3.11501
G1 X113.811 Y134.845 E3.18060
G1 X113.365 Y133.970 E3.24620
G1 X113.219 Y133.044 E3.30879
G1 X113.754 Y133.000 F7800.000
G1 X113.881 Y132.198 E3.36305 F1800.000
G1 X114.250 Y131.474 E3.41731
G1 X114.824 Y130.900 E3.47157
G1 X115.548 Y130.531 E3.52583
G1 X116.300 Y130.412 E3.57673 F1800.000
G1 X117.144 Y130.527 E3.63361
G1 X117.876 Y130.900 E3.68850
G1 X118.450 Y131.474 E3.74276
G1 X118.819 Y132.198 E3.79701
G1 X118.946 Y133.000 E3.85128
G1 X118.819 Y133.802 E3.90554
G1 X118.450 Y134.526 E3.95979
G1 X117.876 Y135.100 E4.01406
G1 X117.152 Y135.469 E4.06832
G1 X116.350 Y135.596 E4.12258
G1 X115.548 Y135.469 E4.17684
G1 X114.824 Y135.100 E4.23110
G1 X114.250 Y134.526 E4.28536
G1 X113.881 Y133.802 E4.33962
G1 X113.761 Y133.044 E4.39088
G1 X114.296 Y133.000 F7800.000
G1 X114.397 Y132.365 E4.43381 F1800.000
G1 X114.688 Y131.793 E4.47673
G1 X115.143 Y131.338 E4.51966
G1 X115.715 Y131.047 E4.56258
G1 X116.306 Y130.953 E4.60255 F1800.000
G1 X116.982 Y131.045 E4.64809
G1 X117.557 Y131.338 E4.69124
G1 X118.012 Y131.793 E4.73417
G1 X118.303 Y132.365 E4.77709
G1 X118.404 Y133.000 E4.82002
G1 X118.303 Y133.635 E4.86295
G1 X118.012 Y134.207 E4.90587
G1 X117.557 Y134.662 E4.94880
G1 X116.985 Y134.953 E4.99172
G1 X116.350 Y135.054 E5.03465
G1 X115.715 Y134.953 E5.07757
G1 X115.143 Y134.662 E5.12050
G1 X114.688 Y134.207 E5.16343
G1 X114.397 Y133.635 E5.20635
G1 X114.303 Y133.044 E5.24627
G1 X114.045 Y132.837 F7800.000
G1 E3.24627 F2400.00000
G92 E0
G1 X116.350 Y70.138 F7800.000
G1 E2.00000 F2400.00000
G1 X115.380 Y69.985 E2.06560 F1800.000
G1 X114.505 Y69.539 E2.13118
G1 X113.811 Y68.845 E2.19678
G1 X113.365 Y67.970 E2.26238
G1 X113.212 Y67.000 E2.32798
G1 X113.365 Y66.030 E2.39357
G1 X113.811 Y65.155 E2.45917
G1 X114.505 Y64.461 E2.52477
G1 X115.380 Y64.015 E2.59036
G1 X116.294 Y63.870 E2.65220 F1800.000
G1 X117.306 Y64.008 E2.72042
G1 X118.195 Y64.461 E2.78702
G1 X118.889 Y65.155 E2.85263
G1 X119.335 Y66.030 E2.91821
G1 X119.488 Y67.000 E2.98381
G1 X119.332 Y67.985 E3.05043
G1 X118.849 Y68.884 E3.11863
G1 X118.195 Y69.539 E3.18048
G1 X117.320 Y69.985 E3.24607
G1 X116.394 Y70.131 E3.30866
G1 X116.350 Y69.596 F7800.000
G1 X115.548 Y69.469 E3.36292 F1800.000
G1 X114.824 Y69.100 E3.41718
G1 X114.250 Y68.526 E3.47144
G1 X113.881 Y67.802 E3.52570
G1 X113.754 Y67.000 E3.57996
G1 X113.881 Y66.198 E3.63423
G1 X114.250 Y65.474 E3.68849
G1 X114.824 Y64.900 E3.74275
G1 X115.548 Y64.531 E3.79701
G1 X116.300 Y64.412 E3.84791 F1800.000
G1 X117.144 Y64.527 E3.90479
G1 X117.876 Y64.900 E3.95966
G1 X118.450 Y65.474 E4.01393
G1 X118.819 Y66.198 E4.06819
G1 X118.946 Y67.000 E4.12245
G1 X118.817 Y67.811 E4.17733
G1 X118.415 Y68.561 E4.23421
G1 X117.876 Y69.100 E4.28511
G1 X117.152 Y69.469 E4.33937
G1 X116.394 Y69.589 E4.39062
G1 X116.350 Y69.054 F7800.000
G1 X115.715 Y68.953 E4.43355 F1800.000
G1 X115.143 Y68.662 E4.47647
G1 X114.688 Y68.207 E4.51940
G1 X114.397 Y67.635 E4.56233
G1 X114.296 Y67.000 E4.60525
G1 X114.397 Y66.365 E4.64818
G1 X114.688 Y65.793 E4.69110
G1 X115.143 Y65.338 E4.73403
G1 X115.715 Y65.047 E4.77696
G1 X116.306 Y64.953 E4.81692 F1800.000
G1 X116.982 Y65.045 E4.86246
G1 X117.557 Y65.338 E4.90561
G1 X118.012 Y65.793 E4.94854
G1 X118.303 Y66.365 E4.99146
G1 X118.404 Y67.000 E5.03439
G1 X118.303 Y67.638 E5.07754
G1 X117.980 Y68.239 E5.12308
G1 X117.557 Y68.662 E5.16304
G1 X116.985 Y68.953 E5.20596
G1 X116.394 Y69.047 E5.24589
G1 X116.187 Y69.305 F7800.000
G1 X108.363 Y67.788 F7800.000
G1 X108.332 Y67.985 E5.25919 F1800.000
G1 X107.849 Y68.884 E5.32740
G1 X107.195 Y69.539 E5.38925
G1 X106.320 Y69.985 E5.45484
G1 X105.350 Y70.138 E5.52043
G1 X104.380 Y69.985 E5.58603
G1 X103.505 Y69.539 E5.65162
G1 X102.811 Y68.845 E5.71722
G1 X102.365 Y67.970 E5.78282
G1 X102.212 Y67.000 E5.84841
G1 X102.365 Y66.030 E5.91401
G1 X102.811 Y65.155 E5.97960
G1 X103.505 Y64.461 E6.04520
G1 X104.380 Y64.015 E6.11079
G1 X105.294 Y63.870 E6.17263 F1800.000
G1 X106.306 Y64.008 E6.24085
G1 X107.195 Y64.461 E6.30745
G1 X107.889 Y65.155 E6.37306
G1 X108.335 Y66.030 E6.43865
G1 X108.488 Y67.000 E6.50424
G1 X108.370 Y67.744 E6.55455
G1 X107.834 Y67.704 F7800.000
G1 X107.817 Y67.811 E6.56179 F1800.000
G1 X107.415 Y68.561 E6.61867
G1 X106.876 Y69.100 E6.66957
G1 X106.152 Y69.469 E6.72383
G1 X105.350 Y69.596 E6.77809
G1 X104.548 Y69.469 E6.83235
G1 X103.824 Y69.100 E6.88661
G1 X103.250 Y68.526 E6.94087
G1 X102.881 Y67.802 E6.99513
G1 X102.754 Y67.000 E7.04939
G1 X102.881 Y66.198 E7.10365
G1 X103.250 Y65.474 E7.15792
G1 X103.824 Y64.900 E7.21218
G1 X104.548 Y64.531 E7.26643
G1 X105.300 Y64.412 E7.31733 F1800.000
G1 X106.144 Y64.527 E7.37422
G1 X106.876 Y64.900 E7.42909
G1 X107.450 Y65.474 E7.48336
G1 X107.819 Y66.198 E7.53761
G1 X107.946 Y67.000 E7.59188
G1 X107.841 Y67.660 E7.63651
G1 X107.305 Y67.620 F7800.000
G1 X106.980 Y68.239 E7.68317 F1800.000
G1 X106.557 Y68.662 E7.72313
G1 X105.985 Y68.953 E7.76605
G1 X105.350 Y69.054 E7.80898
G1 X104.715 Y68.953 E7.85191
G1 X104.143 Y68.662 E7.89483
G1 X103.688 Y68.207 E7.93776
G1 X103.397 Y67.635 E7.98068
G1 X103.296 Y67.000 E8.02361
G1 X103.397 Y66.365 E8.06654
G1 X103.688 Y65.793 E8.10946
G1 X104.143 Y65.338 E8.15239
G1 X104.715 Y65.047 E8.19531
G1 X105.306 Y64.953 E8.23528 F1800.000
G1 X105.982 Y65.045 E8.28082
G1 X106.557 Y65.338 E8.32396
G1 X107.012 Y65.793 E8.36690
G1 X107.303 Y66.365 E8.40982
G1 X107.404 Y67.000 E8.45274
G1 X107.312 Y67.576 E8.49171
G1 X107.492 Y67.855 F7800.000
G1 E6.49171 F2400.00000
G92 E0
G1 X97.488 Y67.000 F7800.000
G1 E2.00000 F2400.00000
G1 X97.332 Y67.985 E2.06662 F1800.000
G1 X96.849 Y68.884 E2.13482
G1 X96.195 Y69.539 E2.19667
G1 X95.320 Y69.985 E2.26226
G1 X94.350 Y70.138 E2.32786
G1 X93.380 Y69.985 E2.39345
G1 X92.505 Y69.539 E2.45904
G1 X91.811 Y68.845 E2.52465
G1 X91.365 Y67.970 E2.59023
G1 X91.212 Y67.000 E2.65583
G1 X91.365 Y66.030 E2.72143
G1 X91.811 Y65.155 E2.78702
G1 X92.505 Y64.461 E2.85262
G1 X93.380 Y64.015 E2.91821
G1 X94.294 Y63.870 E2.98005 F1800.000
G1 X95.306 Y64.008 E3.04827
G1 X96.195 Y64.461 E3.11487
G1 X96.889 Y65.155 E3.18048
G1 X97.335 Y66.030 E3.24607
G1 X97.481 Y66.956 E3.30866
G1 X96.946 Y67.000 F7800.000
G1 X96.817 Y67.811 E3.36354 F1800.000
G1 X96.415 Y68.561 E3.42041
G1 X95.876 Y69.100 E3.47132
G1 X95.152 Y69.469 E3.52557
G1 X94.350 Y69.596 E3.57984
G1 X93.548 Y69.469 E3.63410
G1 X92.824 Y69.100 E3.68835
G1 X92.250 Y68.526 E3.74262
G1 X91.881 Y67.802 E3.79688
G1 X91.754 Y67.000 E3.85114
G1 X91.881 Y66.198 E3.90540
G1 X92.250 Y65.474 E3.95966
G1 X92.824 Y64.900 E4.01392
G1 X93.548 Y64.531 E4.06818
G1 X94.300 Y64.412 E4.11908 F1800.000
G1 X95.144 Y64.527 E4.17596
G1 X95.876 Y64.900 E4.23084
G1 X96.450 Y65.474 E4.28511
G1 X96.819 Y66.198 E4.33936
G1 X96.939 Y66.956 E4.39061
G1 X96.404 Y67.000 F7800.000
G1 X96.303 Y67.638 E4.43377 F1800.000
G1 X95.980 Y68.239 E4.47930
G1 X95.557 Y68.662 E4.51927
G1 X94.985 Y68.953 E4.56219
G1 X94.350 Y69.054 E4.60512
G1 X93.715 Y68.953 E4.64805
G1 X93.143 Y68.662 E4.69097
G1 X92.688 Y68.207 E4.73390
G1 X92.397 Y67.635 E4.77682
G1 X92.296 Y67.000 E4.81975
G1 X92.397 Y66.365 E4.86268
G1 X92.688 Y65.793 E4.90560
G1 X93.143 Y65.338 E4.94853
G1 X93.715 Y65.047 E4.99145
G1 X94.306 Y64.953 E5.03141 F1800.000
G1 X94.982 Y65.045 E5.07696
G1 X95.557 Y65.338 E5.12010
