; generated by Slic3r 1.2.9 on 2018-05-15 at 15:37:43

; external perimeters extrusion width = 0.30mm
; perimeters extrusion width = 0.40mm
; infill extrusion width = 0.40mm
; solid infill extrusion width = 0.40mm
; top infill extrusion width = 0.40mm

M107
M190 S65 ; set bed temperature
M104 S205 ; set temperature
G28 ; home all axes
G1 Z5 F5000 ; lift nozzle

M109 S205 ; wait for temperature to be reached
G21 ; set units to millimeters
G90 ; use absolute coordinates
M82 ; use absolute distances for extrusion
G92 E0
G1 Z0.300 F7800.000
G1 E-2.00000 F2400.00000
G92 E0
G1 X46.753 Y83.328 F7800.000
G1 E2.00000 F2400.00000
G1 X50.000 Y82.464 E2.22443 F1800.000
G1 X150.000 Y82.464 E8.90497
G1 X152.243 Y82.861 E9.05714
G1 X154.213 Y84.004 E9.20931 F1800.000
G1 X155.672 Y85.753 E9.36148
G1 X156.536 Y89.000 E9.58591
G1 X156.536 Y111.000 E11.05563
G1 X156.139 Y113.243 E11.20780
G1 X154.996 Y115.213 E11.35997
G1 X153.247 Y116.672 E11.51215
G1 X150.000 Y117.536 E11.73658
G1 X50.000 Y117.536 E18.41712
G1 X47.757 Y117.139 E18.56929
G1 X45.787 Y115.996 E18.72146
G1 X44.328 Y114.247 E18.87363
G1 X43.464 Y111.000 E19.09806
G1 X43.464 Y89.000 E20.56778
G1 X43.861 Y86.757 E20.71995
G1 X45.004 Y84.787 E20.87212
G1 X46.719 Y83.357 E21.02129
G1 E19.02129 F2400.00000
G92 E0
G1 X49.002 Y86.590 F7800.000
G1 E2.00000 F2400.00000
G1 X150.998 Y86.590 E8.81393 F1800.000
G1 X152.410 Y88.002 E8.94733
G1 X152.410 Y111.998 E10.55044 F1800.000
G1 X150.998 Y113.410 E10.68383
G1 X49.002 Y113.410 E17.49777
G1 X47.590 Y111.998 E17.63116
G1 X47.590 Y88.002 E19.23427
G1 X48.970 Y86.622 E19.36466
G1 X49.223 Y87.125 F7800.000
G1 X150.777 Y87.125 E26.14895 F1800.000
G1 X151.875 Y88.223 E26.25270 F1800.000
G1 X151.875 Y111.777 E27.82617
G1 X150.777 Y112.875 E27.92992
G1 X49.223 Y112.875 E34.71421
G1 X48.125 Y111.777 E34.81796
G1 X48.125 Y88.223 E36.39143
G1 X49.192 Y87.157 E36.49218
G1 X49.445 Y87.661 F7800.000
G1 X150.555 Y87.661 E43.24683 F1800.000
G1 X151.339 Y88.445 E43.32093
G1 X151.339 Y111.555 E44.86476 F1800.000
G1 X150.555 Y112.339 E44.93887
G1 X49.445 Y112.339 E51.69352
G1 X48.661 Y111.555 E51.76762
G1 X48.661 Y88.445 E53.31145
G1 X49.414 Y87.693 E53.38255
G1 X49.667 Y88.197 F7800.000
G1 X150.333 Y88.197 E60.10756 F1800.000
G1 X150.803 Y88.667 E60.15202 F1800.000
G1 X150.803 Y111.333 E61.66621
G1 X150.333 Y111.803 E61.71067
G1 X49.667 Y111.803 E68.43568
G1 X49.197 Y111.333 E68.48014
G1 X49.197 Y88.667 E69.99432
G1 X49.635 Y88.228 E70.03578
G1 X49.889 Y88.732 F7800.000
G1 X150.111 Y88.732 E76.73114 F1800.000
G1 X150.268 Y88.889 E76.74597
G1 X150.268 Y111.111 E78.23051 F1800.000
G1 X150.111 Y111.268 E78.24533
G1 X49.889 Y111.268 E84.94069
G1 X49.732 Y111.111 E84.95551
G1 X49.732 Y88.889 E86.44005
G1 X49.857 Y88.764 E86.45187
G1 E84.45187 F2400.00000
G92 E0
G1 X50.300 Y110.700 F7800.000
G1 E2.00000 F2400.00000
G1 X50.300 Y89.300 E3.42964 F1800.000
G1 X149.700 Y89.300 E10.07009
G1 X149.700 Y110.700 E11.49973
G1 X50.345 Y110.700 E18.13718
G1 X50.450 Y110.440 F7800.000
G1 E16.13718 F2400.00000
G92 E0
G1 X141.700 Y96.500 F7800.000
G1 E2.00000 F2400.00000
G1 X141.700 Y89.700 E2.45428 F1800.000
G1 X143.300 Y89.700 E2.56117
G1 X143.300 Y96.500 E3.01544
G1 X141.745 Y96.500 E3.11932
G1 X141.400 Y96.500 F7800.000
G1 E1.11932 F2400.00000
G92 E0
G1 X58.300 Y96.500 F7800.000
G1 E2.00000 F2400.00000
G1 X56.700 Y96.500 E2.10689 F1800.000
G1 X56.700 Y89.700 E2.56117
G1 X58.300 Y89.700 E2.66805
G1 X58.300 Y96.455 E3.11932
G1 X58.300 Y96.800 F7800.000
G1 X58.836 Y97.036 F7800.000
G1 X58.836 Y89.836 E3.60032 F1800.000
G1 X84.498 Y89.836 E5.31469
G1 X84.498 Y97.036 E5.79569
G1 X87.169 Y97.036 E5.97414
G1 X87.169 Y89.836 E6.45514
G1 X112.831 Y89.836 E8.16951
G1 X112.831 Y97.036 E8.65051
G1 X115.502 Y97.036 E8.82896
G1 X115.502 Y89.836 E9.30996
G1 X141.164 Y89.836 E11.02433
G1 X141.164 Y97.036 E11.50533
G1 X143.836 Y97.036 E11.68378
G1 X143.836 Y89.836 E12.16478
G1 X149.164 Y89.836 E12.52077
G1 X149.164 Y110.164 E13.87884
G1 X126.836 Y110.164 E15.37052
G1 X126.836 Y102.964 E15.85152
G1 X124.164 Y102.964 E16.02997
G1 X124.164 Y110.164 E16.51097
G1 X101.336 Y110.164 E18.03606
G1 X101.336 Y102.964 E18.51706
G1 X98.664 Y102.964 E18.69551
G1 X98.664 Y110.164 E19.17651
G1 X75.836 Y110.164 E20.70159
G1 X75.836 Y102.964 E21.18259
G1 X73.164 Y102.964 E21.36104
G1 X73.164 Y110.164 E21.84204
G1 X50.836 Y110.164 E23.33373
G1 X50.836 Y89.836 E24.69180
G1 X56.164 Y89.836 E25.04779
G1 X56.164 Y97.036 E25.52879
G1 X58.791 Y97.036 E25.70423
G1 X59.371 Y97.571 F7800.000
G1 X59.371 Y90.371 E26.18523 F1800.000
G1 X83.962 Y90.371 E27.82803
G1 X83.962 Y97.571 E28.30903
G1 X87.705 Y97.571 E28.55905
G1 X87.705 Y90.371 E29.04005
G1 X112.295 Y90.371 E30.68285
G1 X112.295 Y97.571 E31.16385
G1 X116.038 Y97.571 E31.41387
G1 X116.038 Y90.371 E31.89487
G1 X140.629 Y90.371 E33.53767
G1 X140.629 Y97.571 E34.01867
G1 X144.371 Y97.571 E34.26869
G1 X144.371 Y90.371 E34.74969
G1 X148.629 Y90.371 E35.03411
G1 X148.629 Y109.629 E36.32062
G1 X127.371 Y109.629 E37.74074
G1 X127.371 Y102.429 E38.22173
G1 X123.629 Y102.429 E38.47175
G1 X123.629 Y109.629 E38.95275
G1 X101.871 Y109.629 E40.40627
G1 X101.871 Y102.429 E40.88727
G1 X98.129 Y102.429 E41.13729
G1 X98.129 Y109.629 E41.61829
G1 X76.371 Y109.629 E43.07181
G1 X76.371 Y102.429 E43.55281
G1 X72.629 Y102.429 E43.80282
G1 X72.629 Y109.629 E44.28382
G1 X51.371 Y109.629 E45.70394
G1 X51.371 Y90.371 E46.99045
G1 X55.629 Y90.371 E47.27487
G1 X55.629 Y97.571 E47.75587
G1 X59.326 Y97.571 E48.00288
G1 X65.691 Y103.891 F7800.000
G1 X65.795 Y103.786 E48.01276 F1800.000
G1 X66.409 Y103.490 E48.05830
G1 X67.000 Y103.396 E48.09826 F1800.000
G1 X67.635 Y103.497 E48.14119
G1 X68.207 Y103.788 E48.18411
G1 X68.662 Y104.243 E48.22704
G1 X68.953 Y104.815 E48.26997
G1 X69.054 Y105.450 E48.31289
G1 X68.953 Y106.085 E48.35582
G1 X68.662 Y106.657 E48.39874
G1 X68.207 Y107.112 E48.44167
G1 X67.635 Y107.403 E48.48460
G1 X67.000 Y107.504 E48.52752
G1 X66.365 Y107.403 E48.57045
G1 X65.793 Y107.112 E48.61337
G1 X65.338 Y106.657 E48.65630
G1 X65.047 Y106.085 E48.69923
G1 X64.946 Y105.450 E48.74215
G1 X65.047 Y104.815 E48.78508
G1 X65.338 Y104.243 E48.82800
G1 X65.659 Y103.922 E48.85827
G1 X65.652 Y103.748 F7800.000
G1 X65.312 Y103.512 F7800.000
G1 X65.481 Y103.343 E48.87422 F1800.000
G1 X66.247 Y102.973 E48.93109
G1 X67.000 Y102.854 E48.98199 F1800.000
G1 X67.802 Y102.981 E49.03626
G1 X68.526 Y103.350 E49.09051
G1 X69.100 Y103.924 E49.14477
G1 X69.469 Y104.648 E49.19904
G1 X69.596 Y105.450 E49.25330
G1 X69.469 Y106.252 E49.30756
G1 X69.100 Y106.976 E49.36182
G1 X68.526 Y107.550 E49.41608
G1 X67.802 Y107.919 E49.47034
G1 X67.000 Y108.046 E49.52460
G1 X66.198 Y107.919 E49.57886
G1 X65.474 Y107.550 E49.63312
G1 X64.900 Y106.976 E49.68738
G1 X64.531 Y106.252 E49.74164
G1 X64.404 Y105.450 E49.79590
G1 X64.531 Y104.648 E49.85016
G1 X64.900 Y103.924 E49.90443
G1 X65.280 Y103.544 E49.94036
G1 X64.933 Y103.133 F7800.000
G1 X65.166 Y102.900 E49.96237 F1800.000
G1 X66.086 Y102.457 E50.03058
G1 X67.000 Y102.312 E50.09242 F1800.000
G1 X67.970 Y102.465 E50.15802
G1 X68.845 Y102.911 E50.22360
G1 X69.539 Y103.605 E50.28920
G1 X69.985 Y104.480 E50.35480
G1 X70.138 Y105.450 E50.42040
G1 X69.985 Y106.420 E50.48599
G1 X69.539 Y107.295 E50.55159
G1 X68.845 Y107.989 E50.61719
G1 X67.970 Y108.435 E50.68278
G1 X67.000 Y108.588 E50.74837
G1 X66.030 Y108.435 E50.81397
G1 X65.155 Y107.989 E50.87956
G1 X64.461 Y107.295 E50.94516
G1 X64.015 Y106.420 E51.01076
G1 X63.862 Y105.450 E51.07635
G1 X64.015 Y104.480 E51.14195
G1 X64.461 Y103.605 E51.20754
G1 X64.901 Y103.165 E51.24914
G1 X66.365 Y96.403 F7800.000
G1 X65.793 Y96.112 E51.29207 F1800.000
G1 X65.338 Y95.657 E51.33499
G1 X65.047 Y95.085 E51.37792
G1 X64.946 Y94.450 E51.42085
G1 X65.047 Y93.815 E51.46377
G1 X65.338 Y93.243 E51.50670
G1 X65.795 Y92.786 E51.54985
G1 X66.409 Y92.490 E51.59539
G1 X67.000 Y92.396 E51.63535 F1800.000
G1 X67.635 Y92.497 E51.67828
G1 X68.207 Y92.788 E51.72120
G1 X68.662 Y93.243 E51.76413
G1 X68.953 Y93.815 E51.80706
G1 X69.054 Y94.450 E51.84999
G1 X68.953 Y95.085 E51.89291
G1 X68.662 Y95.657 E51.93584
G1 X68.207 Y96.112 E51.97877
G1 X67.635 Y96.403 E52.02169
G1 X67.000 Y96.504 E52.06462
G1 X66.410 Y96.410 E52.10454
G1 X66.132 Y96.592 F7800.000
G1 X66.122 Y96.880 F7800.000
G1 X65.474 Y96.550 E52.15313 F1800.000
G1 X64.900 Y95.976 E52.20739
G1 X64.531 Y95.252 E52.26165
G1 X64.404 Y94.450 E52.31591
G1 X64.531 Y93.648 E52.37017
G1 X64.900 Y92.924 E52.42443
G1 X65.481 Y92.343 E52.47932
G1 X66.247 Y91.973 E52.53619
G1 X67.000 Y91.854 E52.58709 F1800.000
G1 X67.802 Y91.981 E52.64136
G1 X68.526 Y92.350 E52.69561
G1 X69.100 Y92.924 E52.74987
G1 X69.469 Y93.648 E52.80414
G1 X69.596 Y94.450 E52.85840
G1 X69.469 Y95.252 E52.91266
G1 X69.100 Y95.976 E52.96692
G1 X68.526 Y96.550 E53.02118
G1 X67.802 Y96.919 E53.07544
G1 X67.000 Y97.046 E53.12970
G1 X66.162 Y96.901 E53.18650
G1 X65.879 Y97.358 F7800.000
G1 X65.155 Y96.989 E53.24076 F1800.000
G1 X64.461 Y96.295 E53.30635
G1 X64.015 Y95.420 E53.37195
G1 X63.862 Y94.450 E53.43755
G1 X64.015 Y93.480 E53.50314
G1 X64.461 Y92.605 E53.56874
G1 X65.166 Y91.900 E53.63535
G1 X66.086 Y91.456 E53.70357
G1 X67.000 Y91.312 E53.76541 F1800.000
G1 X67.970 Y91.465 E53.83100
G1 X68.845 Y91.911 E53.89659
G1 X69.539 Y92.605 E53.96219
G1 X69.985 Y93.480 E54.02779
G1 X70.138 Y94.450 E54.09338
G1 X69.985 Y95.420 E54.15898
G1 X69.539 Y96.295 E54.22458
G1 X68.845 Y96.989 E54.29017
G1 X67.970 Y97.435 E54.35576
G1 X67.000 Y97.588 E54.42136
G1 X66.030 Y97.435 E54.48696
G1 X65.919 Y97.378 E54.49529
G1 E52.49529 F2400.00000
G92 E0
G1 X130.946 Y94.450 F7800.000
G1 E2.00000 F2400.00000
G1 X131.047 Y93.815 E2.04293 F1800.000
G1 X131.338 Y93.243 E2.08585
G1 X131.795 Y92.786 E2.12900
G1 X132.409 Y92.490 E2.17454
G1 X133.000 Y92.396 E2.21450 F1800.000
G1 X133.635 Y92.497 E2.25743
G1 X134.207 Y92.788 E2.30035
G1 X134.662 Y93.243 E2.34328
G1 X134.953 Y93.815 E2.38621
G1 X135.054 Y94.450 E2.42913
G1 X134.953 Y95.085 E2.47206
G1 X134.662 Y95.657 E2.51498
G1 X134.207 Y96.112 E2.55791
G1 X133.635 Y96.403 E2.60083
G1 X133.000 Y96.504 E2.64376
G1 X132.365 Y96.403 E2.68669
G1 X131.793 Y96.112 E2.72961
G1 X131.338 Y95.657 E2.77254
G1 X131.047 Y95.085 E2.81546
G1 X130.953 Y94.494 E2.85538
G1 X130.695 Y94.287 F7800.000
G1 X130.417 Y94.534 F7800.000
G1 X130.404 Y94.450 E2.86106 F1800.000
G1 X130.531 Y93.648 E2.91532
G1 X130.900 Y92.924 E2.96957
G1 X131.481 Y92.343 E3.02446
G1 X132.247 Y91.973 E3.08134
G1 X133.000 Y91.854 E3.13224 F1800.000
G1 X133.802 Y91.981 E3.18650
G1 X134.526 Y92.350 E3.24076
G1 X135.100 Y92.924 E3.29502
G1 X135.469 Y93.648 E3.34928
G1 X135.596 Y94.450 E3.40354
G1 X135.469 Y95.252 E3.45780
G1 X135.100 Y95.976 E3.51206
G1 X134.526 Y96.550 E3.56632
G1 X133.802 Y96.919 E3.62058
G1 X133.000 Y97.046 E3.67484
G1 X132.198 Y96.919 E3.72910
G1 X131.474 Y96.550 E3.78336
G1 X130.900 Y95.976 E3.83763
G1 X130.531 Y95.252 E3.89188
G1 X130.424 Y94.578 E3.93747
G1 X129.888 Y94.618 F7800.000
G1 X129.862 Y94.450 E3.94881 F1800.000
G1 X130.015 Y93.480 E4.01440
G1 X130.461 Y92.605 E4.07999
G1 X131.166 Y91.900 E4.14661
G1 X132.086 Y91.456 E4.21482
G1 X133.000 Y91.312 E4.27666 F1800.000
G1 X133.970 Y91.465 E4.34226
G1 X134.845 Y91.911 E4.40785
G1 X135.539 Y92.605 E4.47345
G1 X135.985 Y93.480 E4.53905
G1 X136.138 Y94.450 E4.60464
G1 X135.985 Y95.420 E4.67024
G1 X135.539 Y96.295 E4.73583
G1 X134.845 Y96.989 E4.80143
G1 X133.970 Y97.435 E4.86702
G1 X133.000 Y97.588 E4.93262
G1 X132.030 Y97.435 E4.99821
G1 X131.155 Y96.989 E5.06380
G1 X130.461 Y96.295 E5.12941
G1 X130.015 Y95.420 E5.19500
G1 X129.895 Y94.662 E5.24624
G1 X132.409 Y103.490 F7800.000
G1 X133.000 Y103.396 E5.28621 F1800.000
G1 X133.635 Y103.497 E5.32913
G1 X134.207 Y103.788 E5.37205
G1 X134.662 Y104.243 E5.41499
G1 X134.953 Y104.815 E5.45791
G1 X135.054 Y105.450 E5.50083
G1 X134.953 Y106.085 E5.54376
G1 X134.662 Y106.657 E5.58668
G1 X134.207 Y107.112 E5.62961
G1 X133.635 Y107.403 E5.67253
G1 X133.000 Y107.504 E5.71546
G1 X132.365 Y107.403 E5.75839
G1 X131.793 Y107.112 E5.80131
G1 X131.338 Y106.657 E5.84424
G1 X131.047 Y106.085 E5.88716
G1 X130.946 Y105.450 E5.93009
G1 X131.047 Y104.815 E5.97302
G1 X131.338 Y104.243 E6.01594
G1 X131.795 Y103.786 E6.05909
G1 X132.369 Y103.509 E6.10163
G1 X132.489 Y103.201 F7800.000
G1 X132.176 Y103.007 F7800.000
G1 X132.247 Y102.973 E6.10689 F1800.000
G1 X133.000 Y102.854 E6.15780 F1800.000
G1 X133.802 Y102.981 E6.21206
G1 X134.526 Y103.350 E6.26631
G1 X135.100 Y103.924 E6.32058
G1 X135.469 Y104.648 E6.37483
G1 X135.596 Y105.450 E6.42910
G1 X135.469 Y106.252 E6.48336
G1 X135.100 Y106.976 E6.53761
G1 X134.526 Y107.550 E6.59188
G1 X133.802 Y107.919 E6.64614
G1 X133.000 Y108.046 E6.70040
G1 X132.198 Y107.919 E6.75466
G1 X131.474 Y107.550 E6.80891
G1 X130.900 Y106.976 E6.86318
G1 X130.531 Y106.252 E6.91744
G1 X130.404 Y105.450 E6.97170
G1 X130.531 Y104.648 E7.02596
G1 X130.900 Y103.924 E7.08022
G1 X131.481 Y103.343 E7.13510
G1 X132.136 Y103.027 E7.18370
G1 X131.944 Y102.525 F7800.000
G1 X132.086 Y102.457 E7.19424 F1800.000
G1 X133.000 Y102.312 E7.25608 F1800.000
G1 X133.970 Y102.465 E7.32168
G1 X134.845 Y102.911 E7.38727
G1 X135.539 Y103.605 E7.45287
G1 X135.985 Y104.480 E7.51846
G1 X136.138 Y105.450 E7.58406
G1 X135.985 Y106.420 E7.64965
G1 X135.539 Y107.295 E7.71524
G1 X134.845 Y107.989 E7.78085
G1 X133.970 Y108.435 E7.84643
G1 X133.000 Y108.588 E7.91203
G1 X132.030 Y108.435 E7.97763
G1 X131.155 Y107.989 E8.04322
G1 X130.461 Y107.295 E8.10882
G1 X130.015 Y106.420 E8.17441
G1 X129.862 Y105.450 E8.24001
G1 X130.015 Y104.480 E8.30560
G1 X130.461 Y103.605 E8.37119
G1 X131.166 Y102.900 E8.43781
G1 X131.903 Y102.545 E8.49248
G1 E6.49248 F2400.00000
G92 E0
G1 X75.300 Y103.500 F7800.000
G1 E2.00000 F2400.00000
G1 X75.300 Y110.300 E2.45428 F1800.000
G1 X73.700 Y110.300 E2.56117
G1 X73.700 Y103.500 E3.01544
G1 X75.255 Y103.500 E3.11932
G1 X75.600 Y103.500 F7800.000
G1 E1.11932 F2400.00000
G92 E0
G1 X85.033 Y96.500 F7800.000
G1 E2.00000 F2400.00000
G1 X85.033 Y89.700 E2.45428 F1800.000
G1 X86.633 Y89.700 E2.56117
G1 X86.633 Y96.500 E3.01544
G1 X85.078 Y96.500 E3.11933
G1 X84.733 Y96.500 F7800.000
G1 E1.11933 F2400.00000
G92 E0
G1 X99.200 Y103.500 F7800.000
G1 E2.00000 F2400.00000
G1 X100.800 Y103.500 E2.10689 F1800.000
G1 X100.800 Y110.300 E2.56117
G1 X99.200 Y110.300 E2.66805
G1 X99.200 Y103.545 E3.11932
G1 X99.200 Y103.200 F7800.000
G1 E1.11932 F2400.00000
G92 E0
G1 X113.367 Y96.500 F7800.000
G1 E2.00000 F2400.00000
G1 X113.367 Y89.700 E2.45428 F1800.000
G1 X114.967 Y89.700 E2.56117
G1 X114.967 Y96.500 E3.01544
G1 X113.412 Y96.500 E3.11933
G1 X113.067 Y96.500 F7800.000
G1 E1.11933 F2400.00000
G92 E0
G1 X124.700 Y103.500 F7800.000
G1 E2.00000 F2400.00000
G1 X126.300 Y103.500 E2.10689 F1800.000
G1 X126.300 Y110.300 E2.56117
G1 X124.700 Y110.300 E2.66805
G1 X124.700 Y103.545 E3.11932
G1 X124.700 Y103.200 F7800.000
G1 E1.11932 F2400.00000
G92 E0
G1 X131.892 Y109.025 F7800.000
G1 E2.00000 F2400.00000
G1 X132.961 Y109.109 E2.15182 F1800.000
G1 X134.108 Y109.025 E2.31479
G1 X134.437 Y108.992 F7800.000
G1 X134.752 Y109.307 E2.34464 F1800.000
G1 X135.512 Y109.307 E2.39552
G1 X134.624 Y108.419 E2.47970
G1 X135.093 Y108.129 E2.51667
G1 X136.272 Y109.307 E2.62831
G1 X137.031 Y109.307 E2.67919
G1 X135.473 Y107.749 E2.82681
G1 X135.830 Y107.346 E2.86285
G1 X137.791 Y109.307 E3.04863
G1 X138.550 Y109.307 E3.09951
G1 X136.086 Y106.843 E3.33296
G1 X136.311 Y106.309 E3.37181
G1 X139.310 Y109.307 E3.65588
G1 X140.069 Y109.307 E3.70676
G1 X136.415 Y105.653 E4.05294
G1 X136.391 Y104.870 E4.10545
G1 X140.829 Y109.307 E4.52584
G1 X141.589 Y109.307 E4.57673
G1 X136.060 Y103.779 E5.10048
G1 X134.671 Y102.390 F7800.000
G1 X122.974 Y90.693 E6.20864 F1800.000
G1 X122.215 Y90.693 E6.25952
G1 X133.580 Y102.059 E7.33627
G1 X132.797 Y102.035 E7.38877
G1 X121.455 Y90.693 E8.46326
G1 X120.696 Y90.693 E8.51415
G1 X132.141 Y102.139 E9.59849
G1 X131.613 Y102.370 E9.63712
G1 X119.936 Y90.693 E10.74336
G1 X119.176 Y90.693 E10.79424
G1 X131.101 Y102.617 E11.92390
G1 X130.701 Y102.977 E11.95993
G1 X118.417 Y90.693 E13.12369
G1 X117.657 Y90.693 E13.17457
G1 X130.321 Y103.357 E14.37432
