; generated by Slic3r 1.2.9 on 2018-03-26 at 14:46:35

; external perimeters extrusion width = 0.30mm
; perimeters extrusion width = 0.40mm
; infill extrusion width = 0.40mm
; solid infill extrusion width = 0.40mm
; top infill extrusion width = 0.40mm

M107
M190 S65 ; set bed temperature
M104 S205 ; set temperature
G28 ; home all axes
G1 Z5 F5000 ; lift nozzle

M109 S205 ; wait for temperature to be reached
G21 ; set units to millimeters
G90 ; use absolute coordinates
M82 ; use absolute distances for extrusion
G92 E0
G1 Z0.300 F7800.000
G1 E-2.00000 F2400.00000
G92 E0
G1 X63.079 Y72.272 F7800.000
G1 E2.00000 F2400.00000
G1 X65.079 Y70.772 E2.16701 F1800.000
G1 X67.111 Y69.743 E2.31918
G1 X69.000 Y69.464 E2.44674
G1 X131.000 Y69.464 E6.58867
G1 X133.243 Y69.861 E6.74084
G1 X134.921 Y70.772 E6.86840 F1800.000
G1 X136.921 Y72.272 E7.03541
G1 X138.478 Y73.935 E7.18758
G1 X139.368 Y76.031 E7.33975
G1 X139.536 Y77.500 E7.43851
G1 X139.536 Y122.500 E10.44475
G1 X139.139 Y124.743 E10.59692
G1 X137.996 Y126.713 E10.74909
G1 X136.921 Y127.728 E10.84785
G1 X134.921 Y129.228 E11.01486
G1 X132.889 Y130.257 E11.16703
G1 X131.000 Y130.536 E11.29458
G1 X69.000 Y130.536 E15.43652
G1 X66.757 Y130.139 E15.58869
G1 X65.079 Y129.228 E15.71624
G1 X63.079 Y127.728 E15.88326
G1 X61.522 Y126.065 E16.03543
G1 X60.632 Y123.969 E16.18760
G1 X60.464 Y122.500 E16.28635
G1 X60.464 Y77.500 E19.29260
G1 X60.861 Y75.257 E19.44477
G1 X62.004 Y73.287 E19.59694
G1 X63.046 Y72.302 E19.69269
G1 E17.69269 F2400.00000
G92 E0
G1 X93.629 Y121.129 F7800.000
G1 E2.00000 F2400.00000
G1 X93.629 Y122.629 E2.10021 F1800.000
G1 X88.371 Y122.629 E2.45144
G1 X88.371 Y121.129 E2.55165
G1 X86.371 Y121.129 E2.68526
G1 X86.371 Y78.871 E5.50829
G1 X88.371 Y78.871 E5.64190
G1 X88.371 Y77.371 E5.74211
G1 X93.629 Y77.371 E6.09334
G1 X93.629 Y78.871 E6.19355
G1 X95.629 Y78.871 E6.32716
G1 X95.629 Y121.129 E9.15019
G1 X93.674 Y121.129 E9.28079
G1 X94.164 Y121.664 F7800.000
G1 X94.164 Y123.164 E9.38100 F1800.000
G1 X87.836 Y123.164 E9.80380
G1 X87.836 Y121.664 E9.90401
G1 X85.836 Y121.664 E10.03762
G1 X85.836 Y78.336 E12.93221
G1 X87.836 Y78.336 E13.06582
G1 X87.836 Y76.836 E13.16603
G1 X94.164 Y76.836 E13.58883
G1 X94.164 Y78.336 E13.68903
G1 X96.164 Y78.336 E13.82265
G1 X96.164 Y121.664 E16.71724
G1 X94.209 Y121.664 E16.84785
G1 X94.700 Y122.200 F7800.000
G1 X94.700 Y123.700 E16.94805 F1800.000
G1 X87.300 Y123.700 E17.44241
G1 X87.300 Y122.200 E17.54262
G1 X85.300 Y122.200 E17.67623
G1 X85.300 Y77.800 E20.64239
G1 X87.300 Y77.800 E20.77600
G1 X87.300 Y76.300 E20.87621
G1 X94.700 Y76.300 E21.37057
G1 X94.700 Y77.800 E21.47078
G1 X96.700 Y77.800 E21.60439
G1 X96.700 Y122.200 E24.57055
G1 X94.745 Y122.200 E24.70116
G1 X94.400 Y122.200 F7800.000
G1 X88.693 Y121.775 F7800.000
G1 X89.225 Y122.307 E24.75186 F1800.000
G1 X89.989 Y122.307 E24.80341
G1 X86.693 Y119.011 E25.11772
G1 X86.693 Y118.246 E25.16927
G1 X90.754 Y122.307 E25.55649
G1 X91.518 Y122.307 E25.60804
G1 X86.693 Y117.482 E26.06816
G1 X86.693 Y116.717 E26.11971
G1 X92.283 Y122.307 E26.65273
G1 X93.047 Y122.307 E26.70428
G1 X86.693 Y115.953 E27.31020
G1 X86.693 Y115.188 E27.36175
G1 X93.307 Y121.803 E27.99246
G1 X93.307 Y121.038 E28.04401
G1 X86.693 Y114.424 E28.67471
G1 X86.693 Y113.659 E28.72626
G1 X93.841 Y120.807 E29.40786
G1 X94.605 Y120.807 E29.45941
G1 X86.693 Y112.895 E30.21390
G1 X86.693 Y112.130 E30.26545
G1 X95.307 Y120.744 E31.08687
G1 X95.307 Y119.980 E31.13842
G1 X86.693 Y111.366 E31.95984
G1 X86.693 Y110.601 E32.01139
G1 X95.307 Y119.215 E32.83280
G1 X95.307 Y118.451 E32.88435
G1 X86.693 Y109.837 E33.70577
G1 X86.693 Y109.072 E33.75732
G1 X95.307 Y117.686 E34.57874
G1 X95.307 Y116.922 E34.63029
G1 X86.693 Y108.308 E35.45171
G1 X86.693 Y107.543 E35.50326
G1 X95.307 Y116.157 E36.32467
G1 X95.307 Y115.393 E36.37622
G1 X86.693 Y106.778 E37.19764
G1 X86.693 Y106.014 E37.24919
G1 X95.307 Y114.628 E38.07061
G1 X95.307 Y113.864 E38.12216
G1 X86.693 Y105.249 E38.94358
G1 X86.693 Y104.485 E38.99513
G1 X95.307 Y113.099 E39.81654
G1 X95.307 Y112.335 E39.86809
G1 X86.693 Y103.720 E40.68951
G1 X86.693 Y102.956 E40.74106
G1 X95.307 Y111.570 E41.56248
G1 X95.307 Y110.806 E41.61403
G1 X86.693 Y102.191 E42.43545
G1 X86.693 Y101.427 E42.48700
G1 X95.307 Y110.041 E43.30841
G1 X95.307 Y109.277 E43.35996
G1 X86.693 Y100.662 E44.18138
G1 X86.693 Y99.898 E44.23293
G1 X95.307 Y108.512 E45.05435
G1 X95.307 Y107.748 E45.10590
G1 X86.693 Y99.133 E45.92732
G1 X86.693 Y98.369 E45.97887
G1 X95.307 Y106.983 E46.80028
G1 X95.307 Y106.218 E46.85183
G1 X86.693 Y97.604 E47.67325
G1 X86.693 Y96.840 E47.72480
G1 X95.307 Y105.454 E48.54622
G1 X95.307 Y104.689 E48.59777
G1 X86.693 Y96.075 E49.41919
G1 X86.693 Y95.311 E49.47073
G1 X95.307 Y103.925 E50.29215
G1 X95.307 Y103.160 E50.34370
G1 X86.693 Y94.546 E51.16512
G1 X86.693 Y93.782 E51.21667
G1 X95.307 Y102.396 E52.03809
G1 X95.307 Y101.631 E52.08964
G1 X86.693 Y93.017 E52.91105
G1 X86.693 Y92.253 E52.96260
G1 X95.307 Y100.867 E53.78402
G1 X95.307 Y100.102 E53.83557
G1 X86.693 Y91.488 E54.65699
G1 X86.693 Y90.723 E54.70854
G1 X95.307 Y99.338 E55.52996
G1 X95.307 Y98.573 E55.58151
G1 X86.693 Y89.959 E56.40292
G1 X86.693 Y89.194 E56.45447
G1 X95.307 Y97.809 E57.27589
G1 X95.307 Y97.044 E57.32744
G1 X86.693 Y88.430 E58.14886
G1 X86.693 Y87.665 E58.20041
G1 X95.307 Y96.280 E59.02183
G1 X95.307 Y95.515 E59.07338
G1 X86.693 Y86.901 E59.89479
G1 X86.693 Y86.136 E59.94634
G1 X95.307 Y94.751 E60.76776
G1 X95.307 Y93.986 E60.81931
G1 X86.693 Y85.372 E61.64073
G1 X86.693 Y84.607 E61.69228
G1 X95.307 Y93.222 E62.51370
G1 X95.307 Y92.457 E62.56524
G1 X86.693 Y83.843 E63.38666
G1 X86.693 Y83.078 E63.43821
G1 X95.307 Y91.693 E64.25963
G1 X95.307 Y90.928 E64.31118
G1 X86.693 Y82.314 E65.13260
G1 X86.693 Y81.549 E65.18415
G1 X95.307 Y90.163 E66.00556
G1 X95.307 Y89.399 E66.05711
G1 X86.693 Y80.785 E66.87853
G1 X86.693 Y80.020 E66.93008
G1 X95.307 Y88.634 E67.75150
G1 X95.307 Y87.870 E67.80305
G1 X86.693 Y79.256 E68.62447
G1 X87.395 Y79.193 E68.67197
G1 X95.307 Y87.105 E69.42647
G1 X95.307 Y86.341 E69.47802
G1 X88.159 Y79.193 E70.15962
G1 X88.693 Y78.962 F7800.000
G1 X95.307 Y85.576 E70.79033 F1800.000
G1 X95.307 Y84.812 E70.84188
G1 X88.693 Y78.198 E71.47258
G1 X88.953 Y77.693 E71.51086
G1 X95.307 Y84.047 E72.11678
G1 X95.307 Y83.283 E72.16833
G1 X89.717 Y77.693 E72.70136
G1 X90.482 Y77.693 E72.75291
G1 X95.307 Y82.518 E73.21303
G1 X95.307 Y81.754 E73.26458
G1 X91.246 Y77.693 E73.65180
G1 X93.307 Y78.225 F7800.000
G1 X92.775 Y77.693 E73.70251 F1800.000
G1 X92.011 Y77.693 E73.75406
G1 X95.307 Y80.989 E74.06838
G1 X95.307 Y80.225 E74.11993
G1 X94.275 Y79.193 E74.21831
G1 X95.040 Y79.193 E74.26986
G1 X95.307 Y79.460 E74.29535
G1 X87.725 Y120.807 F7800.000
G1 X86.693 Y119.775 E74.39373 F1800.000
G1 X86.693 Y120.540 E74.44528
G1 X86.960 Y120.807 E74.47075
G1 E72.47075 F2400.00000
G92 E0
G1 X75.629 Y121.129 F7800.000
G1 E2.00000 F2400.00000
G1 X75.629 Y122.629 E2.10021 F1800.000
G1 X70.371 Y122.629 E2.45144
G1 X70.371 Y121.129 E2.55165
G1 X68.371 Y121.129 E2.68526
G1 X68.371 Y78.871 E5.50829
G1 X70.371 Y78.871 E5.64190
G1 X70.371 Y77.371 E5.74211
G1 X75.629 Y77.371 E6.09334
G1 X75.629 Y78.871 E6.19355
G1 X77.629 Y78.871 E6.32716
G1 X77.629 Y121.129 E9.15019
G1 X75.674 Y121.129 E9.28079
G1 X76.164 Y121.664 F7800.000
G1 X76.164 Y123.164 E9.38100 F1800.000
G1 X69.836 Y123.164 E9.80380
G1 X69.836 Y121.664 E9.90401
G1 X67.836 Y121.664 E10.03762
G1 X67.836 Y78.336 E12.93221
G1 X69.836 Y78.336 E13.06582
G1 X69.836 Y76.836 E13.16603
G1 X76.164 Y76.836 E13.58883
G1 X76.164 Y78.336 E13.68903
G1 X78.164 Y78.336 E13.82265
G1 X78.164 Y121.664 E16.71724
G1 X76.209 Y121.664 E16.84785
G1 X76.700 Y122.200 F7800.000
G1 X76.700 Y123.700 E16.94805 F1800.000
G1 X69.300 Y123.700 E17.44241
G1 X69.300 Y122.200 E17.54262
G1 X67.300 Y122.200 E17.67623
G1 X67.300 Y77.800 E20.64239
G1 X69.300 Y77.800 E20.77600
G1 X69.300 Y76.300 E20.87621
G1 X76.700 Y76.300 E21.37057
G1 X76.700 Y77.800 E21.47078
G1 X78.700 Y77.800 E21.60439
G1 X78.700 Y122.200 E24.57055
G1 X76.745 Y122.200 E24.70116
G1 X76.400 Y122.200 F7800.000
G1 X70.693 Y121.775 F7800.000
G1 X71.225 Y122.307 E24.75186 F1800.000
G1 X71.989 Y122.307 E24.80341
G1 X68.693 Y119.011 E25.11772
G1 X68.693 Y118.246 E25.16927
G1 X72.754 Y122.307 E25.55649
G1 X73.518 Y122.307 E25.60804
G1 X68.693 Y117.482 E26.06816
G1 X68.693 Y116.717 E26.11971
G1 X74.283 Y122.307 E26.65273
G1 X75.047 Y122.307 E26.70428
G1 X68.693 Y115.953 E27.31020
G1 X68.693 Y115.188 E27.36175
G1 X75.307 Y121.803 E27.99246
G1 X75.307 Y121.038 E28.04401
G1 X68.693 Y114.424 E28.67471
G1 X68.693 Y113.659 E28.72626
G1 X75.841 Y120.807 E29.40786
G1 X76.605 Y120.807 E29.45941
G1 X68.693 Y112.895 E30.21390
G1 X68.693 Y112.130 E30.26545
G1 X77.307 Y120.744 E31.08687
G1 X77.307 Y119.980 E31.13842
G1 X68.693 Y111.366 E31.95984
G1 X68.693 Y110.601 E32.01139
G1 X77.307 Y119.215 E32.83280
G1 X77.307 Y118.451 E32.88435
G1 X68.693 Y109.837 E33.70577
G1 X68.693 Y109.072 E33.75732
G1 X77.307 Y117.686 E34.57874
G1 X77.307 Y116.922 E34.63029
G1 X68.693 Y108.308 E35.45171
G1 X68.693 Y107.543 E35.50326
G1 X77.307 Y116.157 E36.32467
G1 X77.307 Y115.393 E36.37622
G1 X68.693 Y106.778 E37.19764
G1 X68.693 Y106.014 E37.24919
G1 X77.307 Y114.628 E38.07061
G1 X77.307 Y113.864 E38.12216
G1 X68.693 Y105.249 E38.94358
G1 X68.693 Y104.485 E38.99513
G1 X77.307 Y113.099 E39.81654
G1 X77.307 Y112.335 E39.86809
G1 X68.693 Y103.720 E40.68951
G1 X68.693 Y102.956 E40.74106
G1 X77.307 Y111.570 E41.56248
G1 X77.307 Y110.806 E41.61403
G1 X68.693 Y102.191 E42.43545
G1 X68.693 Y101.427 E42.48700
G1 X77.307 Y110.041 E43.30841
G1 X77.307 Y109.277 E43.35996
G1 X68.693 Y100.662 E44.18138
G1 X68.693 Y99.898 E44.23293
G1 X77.307 Y108.512 E45.05435
G1 X77.307 Y107.748 E45.10590
G1 X68.693 Y99.133 E45.92732
G1 X68.693 Y98.369 E45.97887
G1 X77.307 Y106.983 E46.80028
G1 X77.307 Y106.218 E46.85183
G1 X68.693 Y97.604 E47.67325
G1 X68.693 Y96.840 E47.72480
G1 X77.307 Y105.454 E48.54622
G1 X77.307 Y104.689 E48.59777
G1 X68.693 Y96.075 E49.41919
G1 X68.693 Y95.311 E49.47073
G1 X77.307 Y103.925 E50.29215
G1 X77.307 Y103.160 E50.34370
G1 X68.693 Y94.546 E51.16512
G1 X68.693 Y93.782 E51.21667
G1 X77.307 Y102.396 E52.03809
G1 X77.307 Y101.631 E52.08964
G1 X68.693 Y93.017 E52.91105
G1 X68.693 Y92.253 E52.96260
G1 X77.307 Y100.867 E53.78402
G1 X77.307 Y100.102 E53.83557
G1 X68.693 Y91.488 E54.65699
G1 X68.693 Y90.723 E54.70854
G1 X77.307 Y99.338 E55.52996
G1 X77.307 Y98.573 E55.58151
G1 X68.693 Y89.959 E56.40292
G1 X68.693 Y89.194 E56.45447
G1 X77.307 Y97.809 E57.27589
G1 X77.307 Y97.044 E57.32744
G1 X68.693 Y88.430 E58.14886
G1 X68.693 Y87.665 E58.20041
G1 X77.307 Y96.280 E59.02183
G1 X77.307 Y95.515 E59.07338
G1 X68.693 Y86.901 E59.89479
G1 X68.693 Y86.136 E59.94634
G1 X77.307 Y94.751 E60.76776
G1 X77.307 Y93.986 E60.81931
G1 X68.693 Y85.372 E61.64073
G1 X68.693 Y84.607 E61.69228
G1 X77.307 Y93.222 E62.51370
G1 X77.307 Y92.457 E62.56524
G1 X68.693 Y83.843 E63.38666
G1 X68.693 Y83.078 E63.43821
G1 X77.307 Y91.693 E64.25963
G1 X77.307 Y90.928 E64.31118
G1 X68.693 Y82.314 E65.13260
G1 X68.693 Y81.549 E65.18415
G1 X77.307 Y90.163 E66.00556
G1 X77.307 Y89.399 E66.05711
G1 X68.693 Y80.785 E66.87853
G1 X68.693 Y80.020 E66.93008
G1 X77.307 Y88.634 E67.75150
G1 X77.307 Y87.870 E67.80305
G1 X68.693 Y79.256 E68.62447
G1 X69.395 Y79.193 E68.67197
G1 X77.307 Y87.105 E69.42647
G1 X77.307 Y86.341 E69.47802
G1 X70.159 Y79.193 E70.15962
G1 X70.693 Y78.962 F7800.000
G1 X77.307 Y85.576 E70.79033 F1800.000
G1 X77.307 Y84.812 E70.84188
G1 X70.693 Y78.198 E71.47258
G1 X70.953 Y77.693 E71.51086
G1 X77.307 Y84.047 E72.11678
G1 X77.307 Y83.283 E72.16833
G1 X71.717 Y77.693 E72.70136
G1 X72.482 Y77.693 E72.75291
G1 X77.307 Y82.518 E73.21303
G1 X77.307 Y81.754 E73.26458
G1 X73.246 Y77.693 E73.65180
G1 X75.307 Y78.225 F7800.000
G1 X74.775 Y77.693 E73.70251 F1800.000
G1 X74.011 Y77.693 E73.75406
G1 X77.307 Y80.989 E74.06838
G1 X77.307 Y80.225 E74.11993
G1 X76.275 Y79.193 E74.21831
G1 X77.040 Y79.193 E74.26986
G1 X77.307 Y79.460 E74.29535
G1 X69.725 Y120.807 F7800.000
G1 X68.693 Y119.775 E74.39373 F1800.000
G1 X68.693 Y120.540 E74.44528
G1 X68.960 Y120.807 E74.47075
G1 E72.47075 F2400.00000
G92 E0
G1 X111.629 Y121.129 F7800.000
G1 E2.00000 F2400.00000
G1 X111.629 Y122.629 E2.10021 F1800.000
G1 X106.371 Y122.629 E2.45144
G1 X106.371 Y121.129 E2.55165
G1 X104.371 Y121.129 E2.68526
G1 X104.371 Y78.871 E5.50829
G1 X106.371 Y78.871 E5.64190
G1 X106.371 Y77.371 E5.74211
G1 X111.629 Y77.371 E6.09334
G1 X111.629 Y78.871 E6.19355
G1 X113.629 Y78.871 E6.32716
G1 X113.629 Y121.129 E9.15019
G1 X111.674 Y121.129 E9.28079
G1 X112.164 Y121.664 F7800.000
G1 X112.164 Y123.164 E9.38100 F1800.000
G1 X105.836 Y123.164 E9.80380
G1 X105.836 Y121.664 E9.90401
G1 X103.836 Y121.664 E10.03762
G1 X103.836 Y78.336 E12.93221
G1 X105.836 Y78.336 E13.06582
G1 X105.836 Y76.836 E13.16603
G1 X112.164 Y76.836 E13.58883
G1 X112.164 Y78.336 E13.68903
G1 X114.164 Y78.336 E13.82265
G1 X114.164 Y121.664 E16.71724
G1 X112.209 Y121.664 E16.84785
G1 X112.700 Y122.200 F7800.000
G1 X112.700 Y123.700 E16.94805 F1800.000
G1 X105.300 Y123.700 E17.44241
G1 X105.300 Y122.200 E17.54262
G1 X103.300 Y122.200 E17.67623
G1 X103.300 Y77.800 E20.64239
G1 X105.300 Y77.800 E20.77600
G1 X105.300 Y76.300 E20.87621
G1 X112.700 Y76.300 E21.37057
G1 X112.700 Y77.800 E21.47078
G1 X114.700 Y77.800 E21.60439
G1 X114.700 Y122.200 E24.57055
G1 X112.745 Y122.200 E24.70116
G1 X112.400 Y122.200 F7800.000
G1 X106.693 Y121.775 F7800.000
G1 X107.225 Y122.307 E24.75186 F1800.000
G1 X107.989 Y122.307 E24.80341
G1 X104.693 Y119.011 E25.11772
G1 X104.693 Y118.246 E25.16927
G1 X108.754 Y122.307 E25.55649
G1 X109.518 Y122.307 E25.60804
G1 X104.693 Y117.482 E26.06816
G1 X104.693 Y116.717 E26.11971
G1 X110.283 Y122.307 E26.65273
G1 X111.047 Y122.307 E26.70428
G1 X104.693 Y115.953 E27.31020
G1 X104.693 Y115.188 E27.36175
G1 X111.307 Y121.803 E27.99246
G1 X111.307 Y121.038 E28.04401
G1 X104.693 Y114.424 E28.67471
G1 X104.693 Y113.659 E28.72626
G1 X111.841 Y120.807 E29.40786
G1 X112.605 Y120.807 E29.45941
G1 X104.693 Y112.895 E30.21390
G1 X104.693 Y112.130 E30.26545
G1 X113.307 Y120.744 E31.08687
G1 X113.307 Y119.980 E31.13842
G1 X104.693 Y111.366 E31.95984
G1 X104.693 Y110.601 E32.01139
G1 X113.307 Y119.215 E32.83280
G1 X113.307 Y118.451 E32.88435
G1 X104.693 Y109.837 E33.70577
G1 X104.693 Y109.072 E33.75732
G1 X113.307 Y117.686 E34.57874
G1 X113.307 Y116.922 E34.63029
G1 X104.693 Y108.308 E35.45171
G1 X104.693 Y107.543 E35.50326
G1 X113.307 Y116.157 E36.32467
G1 X113.307 Y115.393 E36.37622
G1 X104.693 Y106.778 E37.19764
G1 X104.693 Y106.014 E37.24919
G1 X113.307 Y114.628 E38.07061
G1 X113.307 Y113.864 E38.12216
G1 X104.693 Y105.249 E38.94358
G1 X104.693 Y104.485 E38.99513
G1 X113.307 Y113.099 E39.81654
G1 X113.307 Y112.335 E39.86809
G1 X104.693 Y103.720 E40.68951
G1 X104.693 Y102.956 E40.74106
G1 X113.307 Y111.570 E41.56248
G1 X113.307 Y110.806 E41.61403
G1 X104.693 Y102.191 E42.43545
G1 X104.693 Y101.427 E42.48700
G1 X113.307 Y110.041 E43.30841
G1 X113.307 Y109.277 E43.35996
G1 X104.693 Y100.662 E44.18138
G1 X104.693 Y99.898 E44.23293
G1 X113.307 Y108.512 E45.05435
G1 X113.307 Y107.748 E45.10590
G1 X104.693 Y99.133 E45.92732
G1 X104.693 Y98.369 E45.97887
G1 X113.307 Y106.983 E46.80028
G1 X113.307 Y106.218 E46.85183
G1 X104.693 Y97.604 E47.67325
G1 X104.693 Y96.840 E47.72480
G1 X113.307 Y105.454 E48.54622
G1 X113.307 Y104.689 E48.59777
G1 X104.693 Y96.075 E49.41919
G1 X104.693 Y95.311 E49.47073
G1 X113.307 Y103.925 E50.29215
G1 X113.307 Y103.160 E50.34370
G1 X104.693 Y94.546 E51.16512
G1 X104.693 Y93.782 E51.21667
G1 X113.307 Y102.396 E52.03809
G1 X113.307 Y101.631 E52.08964
G1 X104.693 Y93.017 E52.91105
G1 X104.693 Y92.253 E52.96260
G1 X113.307 Y100.867 E53.78402
G1 X113.307 Y100.102 E53.83557
G1 X104.693 Y91.488 E54.65699
G1 X104.693 Y90.723 E54.70854
G1 X113.307 Y99.338 E55.52996
G1 X113.307 Y98.573 E55.58151
G1 X104.693 Y89.959 E56.40292
G1 X104.693 Y89.194 E56.45447
G1 X113.307 Y97.809 E57.27589
G1 X113.307 Y97.044 E57.32744
G1 X104.693 Y88.430 E58.14886
