; generated by Slic3r 1.2.9 on 2018-03-26 at 14:44:37

; external perimeters extrusion width = 0.30mm
; perimeters extrusion width = 0.40mm
; infill extrusion width = 0.40mm
; solid infill extrusion width = 0.40mm
; top infill extrusion width = 0.40mm

M107
M190 S65 ; set bed temperature
M104 S205 ; set temperature
G28 ; home all axes
G1 Z5 F5000 ; lift nozzle

M109 S205 ; wait for temperature to be reached
G21 ; set units to millimeters
G90 ; use absolute coordinates
M82 ; use absolute distances for extrusion
G92 E0
G1 Z0.300 F7800.000
G1 E-2.00000 F2400.00000
G92 E0
G1 X82.861 Y27.757 F7800.000
G1 E2.00000 F2400.00000
G1 X84.004 Y25.787 E2.15217 F1800.000
G1 X85.753 Y24.328 E2.30434
G1 X89.000 Y23.464 E2.52877
G1 X111.000 Y23.464 E3.99849
G1 X113.243 Y23.861 E4.15066
G1 X115.213 Y25.004 E4.30283 F1800.000
G1 X116.672 Y26.753 E4.45500
G1 X117.536 Y30.000 E4.67943
G1 X117.536 Y170.000 E14.03219
G1 X117.139 Y172.243 E14.18436
G1 X115.996 Y174.213 E14.33653
G1 X114.247 Y175.672 E14.48870
G1 X111.000 Y176.536 E14.71313
G1 X89.000 Y176.536 E16.18285
G1 X86.757 Y176.139 E16.33502
G1 X84.787 Y174.996 E16.48720
G1 X83.328 Y173.247 E16.63937
G1 X82.464 Y170.000 E16.86380
G1 X82.464 Y30.000 E26.21655
G1 X82.853 Y27.801 E26.36572
G1 E24.36572 F2400.00000
G92 E0
G1 X109.118 Y163.463 F7800.000
G1 E2.00000 F2400.00000
G1 X109.344 Y163.656 E2.01990 F1800.000
G1 X109.539 Y163.884 E2.03994
G1 X109.702 Y164.156 E2.06111
G1 X109.808 Y164.413 E2.07967
G1 X109.878 Y164.703 E2.09959
G1 X109.901 Y165.000 E2.11950
G1 X109.878 Y165.297 E2.13941
G1 X109.808 Y165.587 E2.15932
G1 X109.694 Y165.863 E2.17925
G1 X109.538 Y166.117 E2.19918
G1 X109.344 Y166.344 E2.21911
G1 X109.118 Y166.537 E2.23901
G1 X108.863 Y166.694 E2.25896
G1 X108.587 Y166.808 E2.27894
G1 X108.297 Y166.877 E2.29884
G1 X108.000 Y166.901 E2.31876
G1 X107.703 Y166.877 E2.33868
G1 X107.413 Y166.808 E2.35858
G1 X107.137 Y166.694 E2.37856
G1 X106.882 Y166.537 E2.39852
G1 X106.656 Y166.344 E2.41842
G1 X106.461 Y166.116 E2.43846
G1 X106.298 Y165.844 E2.45962
G1 X106.192 Y165.587 E2.47818
G1 X106.122 Y165.297 E2.49810
G1 X106.099 Y164.998 E2.51812
G1 X106.127 Y164.683 E2.53928
G1 X106.192 Y164.413 E2.55782
G1 X106.306 Y164.137 E2.57775
G1 X106.462 Y163.883 E2.59768
G1 X106.656 Y163.656 E2.61761
G1 X106.882 Y163.463 E2.63751
G1 X107.137 Y163.306 E2.65747
G1 X107.413 Y163.192 E2.67744
G1 X107.703 Y163.123 E2.69734
G1 X107.980 Y163.101 E2.71589 F1800.000
G1 X108.296 Y163.122 E2.73705
G1 X108.587 Y163.192 E2.75707
G1 X108.863 Y163.306 E2.77704
G1 X109.079 Y163.439 E2.79400
G1 X109.393 Y163.349 F7800.000
G1 X108.000 Y125.234 F7800.000
G1 X107.703 Y125.211 E2.81392 F1800.000
G1 X107.413 Y125.141 E2.83385
G1 X107.137 Y125.027 E2.85378
G1 X106.883 Y124.871 E2.87370
G1 X106.655 Y124.676 E2.89374
G1 X106.451 Y124.433 E2.91491
G1 X106.306 Y124.196 E2.93347
G1 X106.192 Y123.921 E2.95340
G1 X106.122 Y123.631 E2.97333
G1 X106.099 Y123.332 E2.99337
G1 X106.127 Y123.016 E3.01454
G1 X106.192 Y122.746 E3.03310
G1 X106.306 Y122.470 E3.05303
G1 X106.462 Y122.216 E3.07295
G1 X106.656 Y121.989 E3.09287
G1 X106.883 Y121.795 E3.11280
G1 X107.137 Y121.640 E3.13273
G1 X107.413 Y121.525 E3.15266
G1 X107.703 Y121.456 E3.17259
G1 X107.980 Y121.434 E3.19115 F1800.000
G1 X108.296 Y121.455 E3.21232
G1 X108.587 Y121.525 E3.23236
G1 X108.863 Y121.640 E3.25228
G1 X109.117 Y121.795 E3.27221
G1 X109.344 Y121.989 E3.29214
G1 X109.538 Y122.216 E3.31207
G1 X109.694 Y122.470 E3.33199
G1 X109.808 Y122.746 E3.35192
G1 X109.878 Y123.036 E3.37185
G1 X109.901 Y123.333 E3.39177
G1 X109.878 Y123.631 E3.41170
G1 X109.808 Y123.921 E3.43163
G1 X109.694 Y124.196 E3.45156
G1 X109.538 Y124.451 E3.47149
G1 X109.344 Y124.677 E3.49141
G1 X109.117 Y124.871 E3.51134
G1 X108.863 Y125.027 E3.53127
G1 X108.587 Y125.141 E3.55119
G1 X108.297 Y125.211 E3.57112
G1 X108.045 Y125.231 E3.58804
G1 X107.844 Y125.489 F7800.000
G1 E1.58804 F2400.00000
G92 E0
G1 X108.000 Y78.568 F7800.000
G1 E2.00000 F2400.00000
G1 X107.703 Y78.544 E2.01993 F1800.000
G1 X107.413 Y78.475 E2.03986
G1 X107.137 Y78.360 E2.05978
G1 X106.883 Y78.205 E2.07971
G1 X106.656 Y78.011 E2.09964
G1 X106.462 Y77.784 E2.11956
G1 X106.306 Y77.530 E2.13949
G1 X106.192 Y77.254 E2.15942
G1 X106.122 Y76.964 E2.17934
G1 X106.099 Y76.667 E2.19927
G1 X106.122 Y76.369 E2.21920
G1 X106.192 Y76.079 E2.23913
G1 X106.306 Y75.804 E2.25906
G1 X106.462 Y75.549 E2.27899
G1 X106.656 Y75.323 E2.29891
G1 X106.883 Y75.129 E2.31884
G1 X107.137 Y74.973 E2.33877
G1 X107.413 Y74.859 E2.35869
G1 X107.703 Y74.789 E2.37862
G1 X107.980 Y74.767 E2.39718 F1800.000
G1 X108.296 Y74.789 E2.41835
G1 X108.587 Y74.859 E2.43839
G1 X108.863 Y74.973 E2.45831
G1 X109.117 Y75.129 E2.47824
G1 X109.344 Y75.323 E2.49817
G1 X109.538 Y75.549 E2.51810
G1 X109.694 Y75.804 E2.53803
G1 X109.808 Y76.079 E2.55795
G1 X109.878 Y76.369 E2.57788
G1 X109.901 Y76.667 E2.59781
G1 X109.878 Y76.964 E2.61774
G1 X109.808 Y77.254 E2.63766
G1 X109.694 Y77.530 E2.65759
G1 X109.538 Y77.784 E2.67752
G1 X109.344 Y78.011 E2.69744
G1 X109.117 Y78.205 E2.71737
G1 X108.863 Y78.360 E2.73730
G1 X108.587 Y78.475 E2.75723
G1 X108.297 Y78.544 E2.77716
G1 X108.045 Y78.564 E2.79408
G1 X107.844 Y78.822 F7800.000
G1 X109.629 Y79.148 F7800.000
G1 X109.629 Y120.852 E5.58019 F1800.000
G1 X109.351 Y120.682 E5.60196
G1 X108.919 Y120.503 E5.63316
G1 X108.458 Y120.393 E5.66486
G1 X107.974 Y120.360 E5.69729
G1 X107.535 Y120.394 E5.72672
G1 X107.081 Y120.503 E5.75791
G1 X106.649 Y120.682 E5.78911
G1 X106.251 Y120.926 E5.82031
G1 X105.896 Y121.229 E5.85150
G1 X105.593 Y121.584 E5.88267
G1 X105.349 Y121.982 E5.91387
G1 X105.170 Y122.414 E5.94507
G1 X105.067 Y122.842 E5.97449
G1 X105.024 Y123.326 E6.00693
G1 X105.061 Y123.799 E6.03862
G1 X105.170 Y124.253 E6.06982
G1 X105.349 Y124.684 E6.10101
G1 X105.579 Y125.060 E6.13044
G1 X105.890 Y125.432 E6.16287
G1 X106.251 Y125.741 E6.19458
G1 X106.649 Y125.985 E6.22577
G1 X107.081 Y126.163 E6.25696
G1 X107.535 Y126.272 E6.28815
G1 X108.000 Y126.309 E6.31934
G1 X108.465 Y126.272 E6.35053
G1 X108.919 Y126.163 E6.38173
G1 X109.351 Y125.985 E6.41291
G1 X109.629 Y125.814 E6.43469
G1 X109.629 Y162.519 E8.88680
G1 X109.352 Y162.349 E8.90849
G1 X108.918 Y162.169 E8.93991
G1 X108.457 Y162.060 E8.97154
G1 X107.974 Y162.026 E9.00392
G1 X107.535 Y162.062 E9.03329
G1 X107.082 Y162.169 E9.06440
G1 X106.648 Y162.349 E9.09583
G1 X106.250 Y162.594 E9.12706
G1 X105.896 Y162.896 E9.15813
G1 X105.593 Y163.252 E9.18933
G1 X105.349 Y163.649 E9.22051
G1 X105.170 Y164.081 E9.25170
G1 X105.067 Y164.509 E9.28112
G1 X105.024 Y164.992 E9.31354
G1 X105.061 Y165.465 E9.34523
G1 X105.170 Y165.919 E9.37640
G1 X105.339 Y166.326 E9.40584
G1 X105.588 Y166.743 E9.43827
G1 X105.896 Y167.104 E9.46996
G1 X106.250 Y167.406 E9.50103
G1 X106.648 Y167.651 E9.53226
G1 X107.082 Y167.831 E9.56369
G1 X107.535 Y167.938 E9.59480
G1 X108.000 Y167.976 E9.62594
G1 X108.465 Y167.938 E9.65708
G1 X108.918 Y167.831 E9.68820
G1 X109.352 Y167.651 E9.71962
G1 X109.629 Y167.481 E9.74131
G1 X109.629 Y168.629 E9.81802
G1 X104.371 Y168.629 E10.16925
G1 X104.371 Y31.371 E19.33879
G1 X109.629 Y31.371 E19.69002
G1 X109.629 Y32.519 E19.76671
G1 X109.351 Y32.349 E19.78849
G1 X108.919 Y32.170 E19.81968
G1 X108.458 Y32.059 E19.85137
G1 X107.974 Y32.027 E19.88381
G1 X107.535 Y32.061 E19.91324
G1 X107.081 Y32.170 E19.94443
G1 X106.649 Y32.349 E19.97562
G1 X106.251 Y32.593 E20.00682
G1 X105.896 Y32.896 E20.03801
G1 X105.593 Y33.251 E20.06920
G1 X105.349 Y33.649 E20.10039
G1 X105.170 Y34.081 E20.13158
G1 X105.061 Y34.535 E20.16278
G1 X105.025 Y35.000 E20.19397
G1 X105.061 Y35.465 E20.22516
G1 X105.170 Y35.919 E20.25635
G1 X105.349 Y36.351 E20.28754
G1 X105.579 Y36.726 E20.31697
G1 X105.890 Y37.099 E20.34941
G1 X106.251 Y37.407 E20.38110
G1 X106.649 Y37.651 E20.41230
G1 X107.081 Y37.830 E20.44349
G1 X107.535 Y37.939 E20.47468
G1 X108.000 Y37.975 E20.50587
G1 X108.465 Y37.939 E20.53706
G1 X108.919 Y37.830 E20.56826
G1 X109.351 Y37.651 E20.59945
G1 X109.629 Y37.481 E20.62122
G1 X109.629 Y74.186 E23.07331
G1 X109.351 Y74.015 E23.09509
G1 X108.920 Y73.837 E23.12627
G1 X108.458 Y73.726 E23.15797
G1 X107.974 Y73.693 E23.19041
G1 X107.535 Y73.728 E23.21984
G1 X107.081 Y73.837 E23.25103
G1 X106.649 Y74.015 E23.28221
G1 X106.251 Y74.259 E23.31341
G1 X105.896 Y74.563 E23.34461
G1 X105.593 Y74.918 E23.37580
G1 X105.349 Y75.316 E23.40699
G1 X105.170 Y75.747 E23.43818
G1 X105.061 Y76.201 E23.46938
G1 X105.025 Y76.667 E23.50057
G1 X105.061 Y77.132 E23.53176
G1 X105.170 Y77.586 E23.56295
G1 X105.349 Y78.018 E23.59415
G1 X105.593 Y78.416 E23.62534
G1 X105.896 Y78.771 E23.65652
G1 X106.251 Y79.074 E23.68771
G1 X106.649 Y79.318 E23.71890
G1 X107.081 Y79.497 E23.75010
G1 X107.535 Y79.606 E23.78129
G1 X108.000 Y79.642 E23.81248
G1 X108.465 Y79.606 E23.84367
G1 X108.920 Y79.497 E23.87487
G1 X109.351 Y79.318 E23.90607
G1 X109.590 Y79.171 E23.92483
G1 X110.164 Y77.875 F7800.000
G1 X110.164 Y122.125 E26.88094 F1800.000
G1 X109.724 Y121.609 E26.92623
G1 X109.433 Y121.361 E26.95179
G1 X109.107 Y121.161 E26.97735
G1 X108.753 Y121.014 E27.00291
G1 X108.377 Y120.924 E27.02878
G1 X107.977 Y120.897 E27.05558
G1 X107.619 Y120.925 E27.07958
G1 X107.247 Y121.014 E27.10514
G1 X106.893 Y121.161 E27.13070
G1 X106.567 Y121.361 E27.15626
G1 X106.276 Y121.609 E27.18182
G1 X106.027 Y121.900 E27.20737
G1 X105.828 Y122.226 E27.23293
G1 X105.681 Y122.580 E27.25850
G1 X105.597 Y122.929 E27.28249
G1 X105.561 Y123.329 E27.30929
G1 X105.592 Y123.715 E27.33516
G1 X105.681 Y124.087 E27.36072
G1 X105.828 Y124.440 E27.38628
G1 X106.015 Y124.747 E27.41028
G1 X106.272 Y125.054 E27.43708
G1 X106.567 Y125.306 E27.46295
G1 X106.893 Y125.506 E27.48851
G1 X107.247 Y125.652 E27.51406
G1 X107.619 Y125.741 E27.53963
G1 X108.000 Y125.771 E27.56518
G1 X108.381 Y125.741 E27.59074
G1 X108.753 Y125.652 E27.61630
G1 X109.107 Y125.506 E27.64186
G1 X109.433 Y125.306 E27.66742
G1 X109.724 Y125.057 E27.69298
G1 X110.164 Y124.542 E27.73827
G1 X110.164 Y163.792 E30.36039
G1 X109.724 Y163.276 E30.40569
G1 X109.434 Y163.029 E30.43118
G1 X109.108 Y162.828 E30.45677
G1 X108.752 Y162.680 E30.48247
G1 X108.376 Y162.591 E30.50829
G1 X107.977 Y162.564 E30.53506
G1 X107.619 Y162.592 E30.55902
G1 X107.248 Y162.680 E30.58453
G1 X106.892 Y162.828 E30.61023
G1 X106.566 Y163.029 E30.63582
G1 X106.276 Y163.276 E30.66131
G1 X106.027 Y163.567 E30.68688
G1 X105.828 Y163.893 E30.71243
G1 X105.681 Y164.247 E30.73799
G1 X105.597 Y164.596 E30.76197
G1 X105.561 Y164.995 E30.78876
G1 X105.592 Y165.381 E30.81461
G1 X105.681 Y165.753 E30.84016
G1 X105.819 Y166.085 E30.86416
G1 X106.024 Y166.429 E30.89095
G1 X106.276 Y166.724 E30.91683
G1 X106.566 Y166.971 E30.94231
G1 X106.892 Y167.172 E30.96790
G1 X107.248 Y167.320 E30.99360
G1 X107.619 Y167.408 E31.01911
G1 X108.000 Y167.438 E31.04464
G1 X108.381 Y167.408 E31.07017
G1 X108.752 Y167.320 E31.09568
G1 X109.108 Y167.172 E31.12138
G1 X109.434 Y166.971 E31.14697
G1 X109.724 Y166.724 E31.17246
G1 X110.164 Y166.208 E31.21776
G1 X110.164 Y169.164 E31.41526
G1 X103.836 Y169.164 E31.83806
G1 X103.836 Y30.836 E41.07917
G1 X110.164 Y30.836 E41.50196
G1 X110.164 Y33.791 E41.69943
G1 X109.724 Y33.276 E41.74472
G1 X109.433 Y33.027 E41.77028
G1 X109.107 Y32.828 E41.79584
G1 X108.753 Y32.681 E41.82140
G1 X108.377 Y32.591 E41.84727
G1 X107.977 Y32.564 E41.87407
G1 X107.619 Y32.592 E41.89806
G1 X107.247 Y32.681 E41.92362
G1 X106.893 Y32.828 E41.94918
G1 X106.567 Y33.027 E41.97474
G1 X106.276 Y33.276 E42.00030
G1 X106.027 Y33.567 E42.02586
G1 X105.828 Y33.893 E42.05142
G1 X105.681 Y34.247 E42.07698
G1 X105.592 Y34.619 E42.10254
G1 X105.562 Y35.000 E42.12810
G1 X105.592 Y35.381 E42.15366
G1 X105.681 Y35.753 E42.17922
G1 X105.828 Y36.107 E42.20478
G1 X106.015 Y36.413 E42.22877
G1 X106.272 Y36.721 E42.25558
G1 X106.567 Y36.973 E42.28144
G1 X106.893 Y37.172 E42.30700
G1 X107.247 Y37.319 E42.33256
G1 X107.619 Y37.408 E42.35812
G1 X108.000 Y37.438 E42.38368
G1 X108.381 Y37.408 E42.40924
G1 X108.753 Y37.319 E42.43480
G1 X109.107 Y37.172 E42.46036
G1 X109.433 Y36.973 E42.48592
G1 X109.724 Y36.724 E42.51148
G1 X110.164 Y36.209 E42.55677
G1 X110.164 Y75.458 E45.17886
G1 X109.724 Y74.943 E45.22414
G1 X109.433 Y74.694 E45.24971
G1 X109.107 Y74.494 E45.27527
G1 X108.753 Y74.348 E45.30082
G1 X108.377 Y74.257 E45.32669
G1 X107.977 Y74.230 E45.35349
G1 X107.619 Y74.259 E45.37749
G1 X107.247 Y74.348 E45.40305
G1 X106.893 Y74.494 E45.42860
G1 X106.567 Y74.694 E45.45416
G1 X106.276 Y74.943 E45.47973
G1 X106.027 Y75.234 E45.50529
G1 X105.828 Y75.560 E45.53085
G1 X105.681 Y75.913 E45.55640
G1 X105.592 Y76.285 E45.58197
G1 X105.562 Y76.667 E45.60753
G1 X105.592 Y77.048 E45.63309
G1 X105.681 Y77.420 E45.65864
G1 X105.828 Y77.774 E45.68421
G1 X106.027 Y78.100 E45.70977
G1 X106.276 Y78.391 E45.73532
G1 X106.567 Y78.639 E45.76088
G1 X106.893 Y78.839 E45.78644
G1 X107.247 Y78.986 E45.81200
G1 X107.619 Y79.075 E45.83756
G1 X108.000 Y79.105 E45.86312
G1 X108.381 Y79.075 E45.88868
G1 X108.753 Y78.986 E45.91424
G1 X109.107 Y78.839 E45.93981
G1 X109.433 Y78.639 E45.96537
G1 X109.724 Y78.391 E45.99093
G1 X110.135 Y77.909 E46.03321
G1 X108.000 Y36.901 F7800.000
G1 X107.703 Y36.878 E46.05314 F1800.000
G1 X107.413 Y36.808 E46.07306
G1 X107.137 Y36.694 E46.09299
G1 X106.883 Y36.538 E46.11292
G1 X106.655 Y36.343 E46.13296
G1 X106.451 Y36.100 E46.15413
G1 X106.306 Y35.863 E46.17269
G1 X106.192 Y35.587 E46.19261
G1 X106.122 Y35.297 E46.21254
G1 X106.099 Y35.000 E46.23247
G1 X106.122 Y34.703 E46.25240
G1 X106.192 Y34.413 E46.27232
G1 X106.306 Y34.137 E46.29225
G1 X106.462 Y33.883 E46.31218
G1 X106.656 Y33.656 E46.33210
G1 X106.883 Y33.462 E46.35203
G1 X107.137 Y33.306 E46.37196
G1 X107.413 Y33.192 E46.39189
G1 X107.703 Y33.122 E46.41181
G1 X107.980 Y33.101 E46.43037 F1800.000
G1 X108.296 Y33.122 E46.45154
G1 X108.587 Y33.192 E46.47158
G1 X108.863 Y33.306 E46.49151
G1 X109.117 Y33.462 E46.51144
G1 X109.344 Y33.656 E46.53136
G1 X109.538 Y33.883 E46.55129
G1 X109.694 Y34.137 E46.57122
G1 X109.808 Y34.413 E46.59115
G1 X109.878 Y34.703 E46.61107
G1 X109.901 Y35.000 E46.63100
G1 X109.878 Y35.297 E46.65093
G1 X109.808 Y35.587 E46.67086
G1 X109.694 Y35.863 E46.69078
G1 X109.538 Y36.117 E46.71071
G1 X109.344 Y36.344 E46.73064
G1 X109.117 Y36.538 E46.75057
G1 X108.863 Y36.694 E46.77049
G1 X108.587 Y36.808 E46.79042
G1 X108.297 Y36.878 E46.81035
G1 X108.045 Y36.897 E46.82727
G1 X107.844 Y37.155 F7800.000
G1 E44.82727 F2400.00000
G92 E0
G1 X110.700 Y30.300 F7800.000
G1 E2.00000 F2400.00000
G1 X110.700 Y169.700 E11.31267 F1800.000
G1 X103.300 Y169.700 E11.80703
G1 X103.300 Y30.300 E21.11971
G1 X110.655 Y30.300 E21.61106
G1 X110.550 Y30.560 F7800.000
G1 X109.361 Y31.843 F7800.000
G1 X109.035 Y31.779 E21.63325 F1800.000
G1 X108.517 Y31.717 E21.66810
G1 X107.976 Y31.699 E21.70424
G1 X107.486 Y31.718 E21.73700
G1 X107.005 Y31.774 E21.76937
G1 X106.512 Y32.072 E21.80787
G1 X106.264 Y32.251 E21.82829
G1 X105.690 Y31.954 F7800.000
G1 X105.429 Y31.693 E21.87630 F1800.000
G1 X104.693 Y32.429 E22.01133
G1 X104.954 Y32.690 E22.05933
G1 X105.251 Y33.264 F7800.000
G1 X105.072 Y33.512 E22.07975 F1800.000
G1 X104.774 Y34.005 E22.11825
G1 X104.718 Y34.486 E22.15062
G1 X104.698 Y34.995 E22.18466
G1 X104.718 Y35.514 E22.21930
G1 X104.771 Y35.971 E22.25007
G1 X105.076 Y36.487 E22.29009
G1 X105.228 Y36.697 E22.30743
G1 X109.307 Y38.351 F7800.000
G1 X109.045 Y38.088 E22.33237 F1800.000
G1 X108.445 Y38.250 E22.37407
G1 X109.307 Y39.112 E22.45594
G1 X109.307 Y39.874 E22.50708
G1 X107.718 Y38.285 E22.65798
G1 X106.783 Y38.111 E22.72189
G1 X109.307 Y40.635 E22.96165
G1 X109.307 Y41.397 E23.01279
G1 X105.065 Y37.155 E23.41569
G1 X104.693 Y37.544 E23.45186
G1 X109.307 Y42.158 E23.89010
G1 X109.307 Y42.920 E23.94124
G1 X104.693 Y38.306 E24.37949
G1 X104.693 Y39.067 E24.43063
G1 X109.307 Y43.681 E24.86887
G1 X109.307 Y44.443 E24.92001
G1 X104.693 Y39.829 E25.35825
G1 X104.693 Y40.590 E25.40939
G1 X109.307 Y45.204 E25.84764
G1 X109.307 Y45.966 E25.89878
G1 X104.693 Y41.352 E26.33702
G1 X104.693 Y42.113 E26.38816
G1 X109.307 Y46.727 E26.82641
G1 X109.307 Y47.489 E26.87755
G1 X104.693 Y42.875 E27.31579
G1 X104.693 Y43.636 E27.36693
