; generated by Slic3r 1.2.9 on 2018-05-09 at 15:00:21

; external perimeters extrusion width = 0.30mm
; perimeters extrusion width = 0.40mm
; infill extrusion width = 0.40mm
; solid infill extrusion width = 0.40mm
; top infill extrusion width = 0.40mm

M107
M190 S65 ; set bed temperature
M104 S205 ; set temperature
G28 ; home all axes
G1 Z5 F5000 ; lift nozzle

M109 S205 ; wait for temperature to be reached
G21 ; set units to millimeters
G90 ; use absolute coordinates
M82 ; use absolute distances for extrusion
G92 E0
G1 Z0.300 F7800.000
G1 E-2.00000 F2400.00000
G92 E0
G1 X68.753 Y90.328 F7800.000
G1 E2.00000 F2400.00000
G1 X72.000 Y89.464 E2.22443 F1800.000
G1 X128.000 Y89.464 E5.96553
G1 X130.243 Y89.861 E6.11770
G1 X132.213 Y91.004 E6.26987 F1800.000
G1 X133.672 Y92.753 E6.42205
G1 X134.536 Y96.000 E6.64648
G1 X134.536 Y98.500 E6.81349
G1 X134.139 Y100.743 E6.96566
G1 X132.996 Y102.713 E7.11783
G1 X131.247 Y104.172 E7.27000
G1 X128.890 Y104.975 E7.43630
G1 X88.890 Y110.475 E10.13366
G1 X88.000 Y110.536 E10.19327
G1 X72.000 Y110.536 E11.26216
G1 X69.757 Y110.139 E11.41433
G1 X67.787 Y108.996 E11.56650
G1 X66.328 Y107.247 E11.71867
G1 X65.464 Y104.000 E11.94310
G1 X65.464 Y96.000 E12.47754
G1 X65.861 Y93.757 E12.62971
G1 X67.004 Y91.787 E12.78188
G1 X68.719 Y90.357 E12.93105
G1 E10.93105 F2400.00000
G92 E0
G1 X81.658 Y103.164 F7800.000
G1 E2.00000 F2400.00000
G1 X72.836 Y103.164 E2.58939 F1800.000
G1 X72.836 Y101.836 E2.67816
G1 X80.764 Y101.836 E3.20783
G1 X80.880 Y102.064 E3.22496
G1 X81.439 Y102.728 E3.28293
G1 X81.731 Y102.944 E3.30717
G1 X81.672 Y103.122 E3.31969
G1 E1.31969 F2400.00000
G92 E0
G1 X81.658 Y96.836 F7800.000
G1 E2.00000 F2400.00000
G1 X81.731 Y97.056 E2.01552 F1800.000
G1 X81.439 Y97.272 E2.03977
G1 X80.880 Y97.936 E2.09774
G1 X80.764 Y98.164 E2.11487
G1 X72.836 Y98.164 E2.64453
G1 X72.836 Y96.836 E2.73330
G1 X81.613 Y96.836 E3.31969
G1 E1.31969 F2400.00000
G92 E0
G1 X86.935 Y102.300 F7800.000
G1 E2.00000 F2400.00000
G1 X87.164 Y102.369 E2.01599 F1800.000
G1 X87.164 Y103.164 E2.06914
G1 X86.062 Y103.164 E2.14279
G1 X86.868 Y102.403 E2.21687
G1 X86.910 Y102.338 E2.22205
G1 E0.22205 F2400.00000
G92 E0
G1 X86.062 Y96.836 F7800.000
G1 E2.00000 F2400.00000
G1 X127.164 Y96.836 E4.74587 F1800.000
G1 X127.164 Y97.664 E4.80123
G1 X87.053 Y97.664 E7.48087
G1 X86.935 Y97.700 E7.48911
G1 X86.868 Y97.597 E7.49730
G1 X86.095 Y96.867 E7.56838
G1 X87.700 Y98.200 F7800.000
G1 X87.700 Y103.700 E7.93581 F1800.000
G1 X72.300 Y103.700 E8.96461
G1 X72.300 Y101.300 E9.12494
G1 X81.093 Y101.300 E9.71239
G1 X81.330 Y101.767 E9.74734
G1 X81.808 Y102.335 E9.79696
G1 X82.406 Y102.777 E9.84661
G1 X83.098 Y103.071 E9.89688
G1 X83.819 Y103.197 E9.94578
G1 X84.561 Y103.153 E9.99540
G1 X85.272 Y102.939 E10.04501
G1 X85.915 Y102.567 E10.09463
G1 X86.454 Y102.056 E10.14424
G1 X86.862 Y101.436 E10.19386
G1 X87.116 Y100.738 E10.24347
G1 X87.202 Y100.000 E10.29309
G1 X87.116 Y99.262 E10.34270
G1 X86.862 Y98.564 E10.39232
G1 X86.454 Y97.944 E10.44193
G1 X85.915 Y97.433 E10.49155
G1 X85.272 Y97.061 E10.54116
G1 X84.561 Y96.847 E10.59078
G1 X83.819 Y96.803 E10.64039
G1 X83.088 Y96.931 E10.69001
G1 X82.405 Y97.223 E10.73962
G1 X81.808 Y97.665 E10.78923
G1 X81.330 Y98.233 E10.83885
G1 X81.093 Y98.700 E10.87380
G1 X72.300 Y98.700 E11.46125
G1 X72.300 Y96.300 E11.62158
G1 X127.700 Y96.300 E15.32260
G1 X127.700 Y98.200 E15.44953
G1 X87.745 Y98.200 E18.11874
G1 X87.400 Y98.200 F7800.000
G1 X87.130 Y97.932 F7800.000
G1 X87.263 Y98.386 E18.15030 F1800.000
G1 X87.404 Y99.191 E18.20493
G1 X87.415 Y99.370 E18.21696
G1 X87.415 Y100.630 F7800.000
G1 X87.404 Y100.809 E18.22899 F1800.000
G1 X87.263 Y101.614 E18.28361
G1 X87.126 Y102.078 E18.31588
G1 X83.419 Y103.416 F7800.000
G1 X83.001 Y103.379 E18.34394 F1800.000
G1 X81.941 Y103.163 E18.41623
G1 X80.897 Y102.500 F7800.000
G1 X73.103 Y102.500 E19.52011 F1800.000
G1 E17.52011 F2400.00000
G92 E0
G1 X73.103 Y97.500 F7800.000
G1 E2.00000 F2400.00000
G1 X80.897 Y97.500 E3.10387 F1800.000
G1 X81.941 Y96.838 F7800.000
G1 X82.990 Y96.622 E3.17539 F1800.000
G1 X83.419 Y96.584 E3.20423
G1 X86.890 Y97.250 F7800.000
G1 X126.897 Y97.250 E5.87687 F1800.000
M104 S200 ; set temperature
M140 S60 ; wait for bed temperature to be reached
G1 Z0.500 F7800.000
G1 E3.87687 F2400.00000
G92 E0
G1 X81.866 Y103.191 F7800.000
G1 E2.00000 F2400.00000
G1 X72.809 Y103.191 E2.26617 F900.000
G1 X72.809 Y101.809 E2.30680
G1 X80.786 Y101.809 E2.54123
G1 X80.922 Y102.073 E2.54996
G1 X81.458 Y102.708 E2.57438
G1 X81.914 Y103.046 E2.59106
G1 X81.880 Y103.149 E2.59424
G1 X81.001 Y101.455 F7800.000
G1 X81.218 Y101.875 E2.60814 F900.000
G1 X81.701 Y102.449 E2.63018
G1 X82.327 Y102.912 E2.65307
G1 X83.043 Y103.219 E2.67596
G1 X83.799 Y103.351 E2.69850
G1 X83.782 Y103.545 E2.70422
G1 X72.455 Y103.545 E3.03709
G1 X72.455 Y101.455 E3.09850
G1 X80.956 Y101.455 E3.34831
G1 E1.34831 F2400.00000
G92 E0
G1 X81.914 Y96.954 F7800.000
G1 E2.00000 F2400.00000
G1 X81.458 Y97.292 E2.01668 F900.000
G1 X80.902 Y97.951 E2.04199
G1 X80.781 Y98.191 E2.04992
G1 X72.809 Y98.191 E2.28420
G1 X72.809 Y96.809 E2.32483
G1 X81.866 Y96.809 E2.59100
G1 X81.900 Y96.912 E2.59419
G1 X83.791 Y96.651 F7800.000
G1 X83.092 Y96.760 E2.61498 F900.000
G1 X82.327 Y97.088 E2.63943
G1 X81.701 Y97.551 E2.66232
G1 X81.199 Y98.147 E2.68521
G1 X80.998 Y98.545 E2.69832
G1 X72.455 Y98.545 E2.94937
G1 X72.455 Y96.455 E3.01077
G1 X83.776 Y96.455 E3.34346
G1 X83.788 Y96.606 E3.34791
G1 E1.34791 F2400.00000
G92 E0
G1 X87.191 Y102.137 F7800.000
G1 E2.00000 F2400.00000
G1 X87.191 Y103.191 E2.03099 F900.000
G1 X86.164 Y103.191 E2.06118
G1 X86.122 Y103.034 E2.06596
G1 X86.221 Y102.977 E2.06931
G1 X86.847 Y102.385 E2.09463
G1 X87.040 Y102.091 E2.10496
G1 X87.148 Y102.124 E2.10828
G1 X87.545 Y103.545 F7800.000
G1 X84.050 Y103.545 E2.21098 F900.000
G1 X84.044 Y103.339 E2.21703
G1 X84.588 Y103.306 E2.23305
G1 X85.334 Y103.082 E2.25594
G1 X86.008 Y102.692 E2.27883
G1 X86.574 Y102.157 E2.30172
G1 X87.002 Y101.506 E2.32462
G1 X87.267 Y100.776 E2.34744
G1 X87.346 Y100.156 E2.36580
G1 X87.545 Y100.169 E2.37165
G1 X87.545 Y103.500 E2.46953
G1 X87.040 Y97.909 F7800.000
G1 X86.847 Y97.615 E2.47987 F3600.000
G1 X86.221 Y97.023 E2.50518
G1 X86.122 Y96.966 E2.50854
G1 X86.164 Y96.809 E2.51332
G1 X127.191 Y96.809 E3.71902
G1 X127.191 Y97.691 E3.74495
G1 X87.191 Y97.691 E4.92046
G1 X87.191 Y97.863 E4.92552
G1 X87.083 Y97.896 E4.92884
G1 X87.545 Y98.045 F7800.000
G1 X87.545 Y99.874 E4.98260 F3600.000
G1 X87.345 Y99.886 E4.98848
G1 X87.268 Y99.226 E5.00799
G1 X87.002 Y98.494 E5.03088
G1 X86.574 Y97.843 E5.05377
G1 X86.008 Y97.308 E5.07666
G1 X85.334 Y96.918 E5.09955
G1 X84.588 Y96.694 E5.12244
G1 X84.044 Y96.661 E5.13846
G1 X84.050 Y96.455 E5.14451
G1 X127.545 Y96.455 E6.42272
G1 X127.545 Y98.045 E6.46943
G1 X87.590 Y98.045 E7.64362
G1 X87.850 Y98.350 F7800.000
G1 X87.850 Y103.850 E7.76119 F1800.000
G1 X72.150 Y103.850 E8.09680
G1 X72.150 Y101.150 E8.15452
G1 X81.187 Y101.150 E8.34768
G1 X81.473 Y101.705 E8.36103
G1 X81.912 Y102.224 E8.37557
G1 X82.480 Y102.646 E8.39069
G1 X83.131 Y102.925 E8.40582
G1 X83.828 Y103.046 E8.42095
G1 X84.534 Y103.004 E8.43607
G1 X85.212 Y102.800 E8.45120
G1 X85.824 Y102.445 E8.46633
G1 X86.339 Y101.959 E8.48146
G1 X86.727 Y101.368 E8.49658
G1 X86.969 Y100.704 E8.51169
G1 X87.054 Y100.030 E8.52621
G1 X86.969 Y99.297 E8.54198
G1 X86.727 Y98.632 E8.55711
G1 X86.339 Y98.041 E8.57223
G1 X85.824 Y97.555 E8.58736
G1 X85.212 Y97.200 E8.60249
G1 X84.534 Y96.996 E8.61761
G1 X83.829 Y96.954 E8.63271
G1 X83.177 Y97.056 E8.64683
G1 X82.480 Y97.354 E8.66303
G1 X81.912 Y97.776 E8.67815
G1 X81.456 Y98.316 E8.69328
G1 X81.186 Y98.850 E8.70606
G1 X72.150 Y98.850 E8.89921
G1 X72.150 Y96.150 E8.95692
G1 X127.850 Y96.150 E10.14758
G1 X127.850 Y98.350 E10.19461
G1 X87.895 Y98.350 E11.04870
G1 X87.550 Y98.350 F7800.000
G1 X87.166 Y98.055 F7800.000
G1 X87.261 Y98.378 E11.05859 F1200.000
G1 X87.358 Y98.928 E11.07501
G1 X86.718 Y97.250 F7800.000
G1 X127.015 Y97.250 E13.58725 F1200.000
G1 E11.58725 F2400.00000
G92 E0
G1 X87.358 Y101.072 F7800.000
G1 E2.00000 F2400.00000
G1 X87.261 Y101.622 E2.01642 F1200.000
G1 X87.166 Y101.945 E2.02631
G1 X87.006 Y102.480 F7800.000
G1 X86.884 Y102.889 E2.03883 F1200.000
G1 X85.972 Y103.159 F7800.000
G1 X85.438 Y103.302 E2.05511 F1200.000
G1 X85.066 Y103.358 E2.06616
G1 X82.896 Y103.359 F7800.000
G1 X82.054 Y103.186 E2.09141 F1200.000
G1 X81.124 Y102.986 F7800.000
G1 X81.308 Y102.802 E2.09942 F1200.000
G1 X81.069 Y102.518 E2.11084
G1 X80.601 Y102.986 E2.13119
G1 X80.078 Y102.986 E2.14727
G1 X80.830 Y102.234 E2.17996
G1 X80.527 Y102.014 E2.19148
G1 X79.555 Y102.986 E2.23374
G1 X79.032 Y102.986 E2.24983
G1 X80.004 Y102.014 E2.29210
G1 X79.481 Y102.014 E2.30818
G1 X78.509 Y102.986 E2.35045
G1 X77.986 Y102.986 E2.36653
G1 X78.958 Y102.014 E2.40880
G1 X78.435 Y102.014 E2.42489
G1 X77.463 Y102.986 E2.46715
G1 X76.940 Y102.986 E2.48324
G1 X77.912 Y102.014 E2.52550
G1 X77.389 Y102.014 E2.54159
G1 X76.417 Y102.986 E2.58386
G1 X75.894 Y102.986 E2.59994
G1 X76.865 Y102.014 E2.64221
G1 X76.342 Y102.014 E2.65830
G1 X75.371 Y102.986 E2.70056
G1 X74.848 Y102.986 E2.71665
G1 X75.819 Y102.014 E2.75891
G1 X75.296 Y102.014 E2.77500
G1 X74.324 Y102.986 E2.81727
G1 X73.801 Y102.986 E2.83335
G1 X74.773 Y102.014 E2.87562
G1 X74.250 Y102.014 E2.89170
G1 X73.278 Y102.986 E2.93397
G1 X73.014 Y102.727 E2.94535
G1 X73.727 Y102.014 E2.97636
G1 X73.204 Y102.014 E2.99244
G1 X73.014 Y102.204 E3.00070
G1 E1.00070 F2400.00000
G92 E0
G1 X73.014 Y97.204 F7800.000
G1 E2.00000 F2400.00000
G1 X73.204 Y97.014 E2.00816 F1200.000
G1 X73.721 Y97.014 E2.02387
G1 X73.014 Y97.721 E2.05424
G1 X73.266 Y97.986 E2.06534
G1 X74.238 Y97.014 E2.10710
G1 X74.754 Y97.014 E2.12281
G1 X73.783 Y97.986 E2.16457
G1 X74.299 Y97.986 E2.18027
G1 X75.271 Y97.014 E2.22203
G1 X75.788 Y97.014 E2.23773
G1 X74.816 Y97.986 E2.27949
G1 X75.333 Y97.986 E2.29519
G1 X76.305 Y97.014 E2.33695
G1 X76.822 Y97.014 E2.35266
G1 X75.850 Y97.986 E2.39442
G1 X76.367 Y97.986 E2.41012
G1 X77.338 Y97.014 E2.45188
G1 X77.855 Y97.014 E2.46758
G1 X76.883 Y97.986 E2.50934
G1 X77.400 Y97.986 E2.52505
G1 X78.372 Y97.014 E2.56680
G1 X78.889 Y97.014 E2.58251
G1 X77.917 Y97.986 E2.62427
G1 X78.434 Y97.986 E2.63997
G1 X79.406 Y97.014 E2.68173
G1 X79.922 Y97.014 E2.69743
G1 X78.951 Y97.986 E2.73919
G1 X79.467 Y97.986 E2.75490
G1 X80.439 Y97.014 E2.79666
G1 X80.956 Y97.014 E2.81236
G1 X79.984 Y97.986 E2.85412
G1 X80.716 Y97.771 E2.87731
G1 X80.501 Y97.986 E2.88656
G1 X82.054 Y96.814 F7800.000
G1 X82.896 Y96.641 E2.91182 F1200.000
G1 X85.066 Y96.642 F7800.000
G1 X85.438 Y96.698 E2.92286 F1200.000
G1 X85.972 Y96.841 E2.93914
G1 Z0.700 F7800.000
G1 E0.93914 F2400.00000
G92 E0
G1 X81.866 Y103.191 F7800.000
G1 E2.00000 F2400.00000
G1 X72.809 Y103.191 E2.26617 F900.000
G1 X72.809 Y101.809 E2.30680
G1 X80.781 Y101.809 E2.54108
G1 X80.902 Y102.049 E2.54901
G1 X81.458 Y102.708 E2.57433
G1 X81.914 Y103.046 E2.59100
G1 X81.880 Y103.149 E2.59419
G1 X83.799 Y103.351 F7800.000
G1 X83.782 Y103.545 E2.59990 F900.000
G1 X72.455 Y103.545 E2.93278
G1 X72.455 Y101.455 E2.99418
G1 X80.998 Y101.455 E3.24523
G1 X81.199 Y101.853 E3.25834
G1 X81.701 Y102.449 E3.28123
G1 X82.327 Y102.912 E3.30412
G1 X83.043 Y103.219 E3.32701
G1 X83.755 Y103.343 E3.34823
G1 E1.34823 F2400.00000
G92 E0
G1 X81.914 Y96.954 F7800.000
G1 E2.00000 F2400.00000
G1 X81.458 Y97.292 E2.01668 F900.000
G1 X80.902 Y97.951 E2.04199
G1 X80.781 Y98.191 E2.04992
G1 X72.809 Y98.191 E2.28420
G1 X72.809 Y96.809 E2.32483
G1 X81.866 Y96.809 E2.59100
G1 X81.900 Y96.912 E2.59419
G1 X83.799 Y96.649 F7800.000
G1 X83.043 Y96.781 E2.61673 F900.000
G1 X82.327 Y97.088 E2.63962
G1 X81.701 Y97.551 E2.66251
G1 X81.199 Y98.147 E2.68540
G1 X80.998 Y98.545 E2.69851
G1 X72.455 Y98.545 E2.94956
G1 X72.455 Y96.455 E3.01096
G1 X83.782 Y96.455 E3.34384
G1 X83.795 Y96.604 E3.34823
G1 E1.34823 F2400.00000
G92 E0
G1 X87.191 Y102.137 F7800.000
G1 E2.00000 F2400.00000
G1 X87.191 Y103.191 E2.03099 F900.000
G1 X86.164 Y103.191 E2.06118
G1 X86.122 Y103.034 E2.06596
G1 X86.221 Y102.977 E2.06932
G1 X86.847 Y102.385 E2.09463
G1 X87.040 Y102.091 E2.10496
G1 X87.148 Y102.124 E2.10828
G1 X87.545 Y103.545 F7800.000
G1 X84.050 Y103.545 E2.21098 F900.000
G1 X84.044 Y103.339 E2.21703
G1 X84.588 Y103.306 E2.23305
G1 X85.334 Y103.082 E2.25594
G1 X86.008 Y102.692 E2.27883
G1 X86.574 Y102.157 E2.30172
G1 X87.002 Y101.506 E2.32462
G1 X87.268 Y100.775 E2.34747
G1 X87.346 Y100.137 E2.36635
G1 X87.545 Y100.149 E2.37221
G1 X87.545 Y103.500 E2.47067
G1 X87.040 Y97.909 F7800.000
G1 X86.847 Y97.615 E2.48100 F3600.000
G1 X86.221 Y97.023 E2.50632
G1 X86.122 Y96.966 E2.50968
G1 X86.164 Y96.809 E2.51446
G1 X127.191 Y96.809 E3.72015
G1 X127.191 Y97.691 E3.74609
G1 X87.191 Y97.691 E4.92160
G1 X87.191 Y97.863 E4.92666
G1 X87.083 Y97.896 E4.92997
G1 X87.545 Y98.045 F7800.000
G1 X87.545 Y99.874 E4.98374 F3600.000
G1 X87.345 Y99.886 E4.98961
G1 X87.268 Y99.226 E5.00913
G1 X87.002 Y98.494 E5.03202
G1 X86.574 Y97.843 E5.05491
G1 X86.008 Y97.308 E5.07780
G1 X85.334 Y96.918 E5.10069
G1 X84.588 Y96.694 E5.12358
G1 X84.044 Y96.661 E5.13960
G1 X84.050 Y96.455 E5.14565
G1 X127.545 Y96.455 E6.42386
G1 X127.545 Y98.045 E6.47057
G1 X87.590 Y98.045 E7.64476
G1 X87.850 Y98.350 F7800.000
G1 X87.850 Y103.850 E7.76233 F1800.000
G1 X72.150 Y103.850 E8.09794
G1 X72.150 Y101.150 E8.15565
G1 X81.186 Y101.150 E8.34880
G1 X81.456 Y101.684 E8.36158
G1 X81.912 Y102.224 E8.37671
G1 X82.480 Y102.646 E8.39183
G1 X83.131 Y102.925 E8.40696
G1 X83.828 Y103.046 E8.42209
G1 X84.534 Y103.004 E8.43722
G1 X85.212 Y102.800 E8.45234
G1 X85.824 Y102.445 E8.46747
G1 X86.339 Y101.959 E8.48260
G1 X86.727 Y101.368 E8.49772
G1 X86.969 Y100.703 E8.51284
G1 X87.053 Y100.016 E8.52764
G1 X86.969 Y99.297 E8.54311
G1 X86.727 Y98.632 E8.55824
G1 X86.339 Y98.041 E8.57337
G1 X85.824 Y97.555 E8.58849
G1 X85.212 Y97.200 E8.60362
G1 X84.534 Y96.996 E8.61875
G1 X83.828 Y96.954 E8.63387
G1 X83.131 Y97.075 E8.64900
G1 X82.480 Y97.354 E8.66413
G1 X81.912 Y97.776 E8.67925
G1 X81.456 Y98.316 E8.69438
G1 X81.186 Y98.850 E8.70716
G1 X72.150 Y98.850 E8.90031
G1 X72.150 Y96.150 E8.95803
G1 X127.850 Y96.150 E10.14868
G1 X127.850 Y98.350 E10.19571
G1 X87.895 Y98.350 E11.04980
G1 X87.550 Y98.350 F7800.000
G1 X87.166 Y98.055 F7800.000
G1 X87.261 Y98.378 E11.05969 F1200.000
G1 X87.358 Y98.928 E11.07611
G1 X86.718 Y97.250 F7800.000
G1 X127.015 Y97.250 E13.58835 F1200.000
G1 E11.58835 F2400.00000
G92 E0
G1 X87.358 Y101.072 F7800.000
G1 E2.00000 F2400.00000
G1 X87.261 Y101.622 E2.01642 F1200.000
G1 X87.166 Y101.945 E2.02631
G1 X87.006 Y102.480 F7800.000
G1 X86.884 Y102.889 E2.03883 F1200.000
G1 X85.972 Y103.159 F7800.000
G1 X85.438 Y103.302 E2.05511 F1200.000
G1 X85.066 Y103.358 E2.06616
G1 X82.896 Y103.359 F7800.000
G1 X82.054 Y103.186 E2.09141 F1200.000
G1 X80.716 Y102.229 F7800.000
G1 X80.501 Y102.014 E2.10067 F1200.000
G1 X79.984 Y102.014 E2.11637
G1 X80.956 Y102.986 E2.15813
G1 X80.439 Y102.986 E2.17383
G1 X79.467 Y102.014 E2.21559
G1 X78.951 Y102.014 E2.23129
G1 X79.922 Y102.986 E2.27305
G1 X79.406 Y102.986 E2.28876
G1 X78.434 Y102.014 E2.33052
G1 X77.917 Y102.014 E2.34622
G1 X78.889 Y102.986 E2.38798
G1 X78.372 Y102.986 E2.40368
G1 X77.400 Y102.014 E2.44544
G1 X76.883 Y102.014 E2.46115
G1 X77.855 Y102.986 E2.50291
G1 X77.338 Y102.986 E2.51861
G1 X76.367 Y102.014 E2.56037
G1 X75.850 Y102.014 E2.57607
G1 X76.822 Y102.986 E2.61783
G1 X76.305 Y102.986 E2.63353
G1 X75.333 Y102.014 E2.67529
G1 X74.816 Y102.014 E2.69100
G1 X75.788 Y102.986 E2.73276
G1 X75.271 Y102.986 E2.74846
G1 X74.299 Y102.014 E2.79022
G1 X73.783 Y102.014 E2.80592
G1 X74.754 Y102.986 E2.84768
G1 X74.238 Y102.986 E2.86339
G1 X73.266 Y102.014 E2.90515
G1 X73.014 Y102.279 E2.91625
G1 X73.721 Y102.986 E2.94662
G1 X73.204 Y102.986 E2.96233
G1 X73.014 Y102.796 E2.97049
G1 E0.97049 F2400.00000
G92 E0
G1 X73.014 Y97.796 F7800.000
G1 E2.00000 F2400.00000
G1 X73.204 Y97.986 E2.00826 F1200.000
G1 X73.727 Y97.986 E2.02435
G1 X73.014 Y97.273 E2.05536
G1 X73.278 Y97.014 E2.06673
G1 X74.250 Y97.986 E2.10900
G1 X74.773 Y97.986 E2.12509
G1 X73.801 Y97.014 E2.16735
G1 X74.324 Y97.014 E2.18344
