; generated by Slic3r 1.2.9 on 2018-03-28 at 16:11:28

; external perimeters extrusion width = 0.30mm
; perimeters extrusion width = 0.40mm
; infill extrusion width = 0.40mm
; solid infill extrusion width = 0.40mm
; top infill extrusion width = 0.40mm

M107
M190 S65 ; set bed temperature
M104 S205 ; set temperature
G28 ; home all axes
G1 Z5 F5000 ; lift nozzle

M109 S205 ; wait for temperature to be reached
G21 ; set units to millimeters
G90 ; use absolute coordinates
M82 ; use absolute distances for extrusion
G92 E0
G1 Z0.300 F7800.000
G1 E-2.00000 F2400.00000
G92 E0
G1 X71.879 Y54.940 F7800.000
G1 E2.00000 F2400.00000
G1 X73.315 Y53.172 E2.15217 F1800.000
G1 X75.271 Y52.004 E2.30434
G1 X78.133 Y51.601 E2.49745
G1 X123.541 Y55.373 E5.54137
G1 X125.743 Y55.954 E5.69354 F1800.000
G1 X127.613 Y57.256 E5.84571
G1 X128.921 Y59.120 E5.99788
G1 X129.536 Y61.886 E6.18715
G1 X129.536 Y141.886 E11.53159
G1 X129.139 Y144.129 E11.68376
G1 X127.996 Y146.100 E11.83593
G1 X126.247 Y147.558 E11.98810
G1 X123.000 Y148.422 E12.21253
G1 X113.000 Y148.422 E12.88058
G1 X110.757 Y148.025 E13.03276
G1 X108.786 Y146.882 E13.18493
G1 X107.239 Y144.972 E13.34919
G1 X76.023 Y86.688 E17.76616
G1 X75.248 Y85.201 E17.87813
G1 X74.552 Y83.741 E17.98621
G1 X73.909 Y82.257 E18.09428
G1 X73.400 Y80.968 E18.18685
G1 X72.855 Y79.445 E18.29492
G1 X72.365 Y77.903 E18.40300
G1 X71.930 Y76.345 E18.51108
G1 X71.551 Y74.772 E18.61915
G1 X71.228 Y73.187 E18.72722
G1 X70.962 Y71.591 E18.83530
G1 X70.726 Y69.756 E18.95887
G1 X70.580 Y68.113 E19.06909
G1 X70.495 Y66.530 E19.17503
G1 X70.466 Y65.144 E19.26760
G1 X70.493 Y63.295 E19.39116
G1 X70.578 Y61.679 E19.49924
G1 X70.725 Y60.036 E19.60945
G1 X70.921 Y58.462 E19.71539
G1 X71.137 Y57.093 E19.80797
G1 X71.865 Y54.983 E19.95714
G1 E17.95714 F2400.00000
G92 E0
G1 X90.373 Y86.781 F7800.000
G1 E2.00000 F2400.00000
G1 X87.615 Y89.095 E2.24052 F1800.000
G1 X86.652 Y87.907 E2.34270
G1 X85.942 Y86.972 E2.42114
G1 X85.246 Y85.992 E2.50143
G1 X84.582 Y84.991 E2.58171
G1 X83.950 Y83.968 E2.66200
G1 X83.352 Y82.926 E2.74229
G1 X82.788 Y81.865 E2.82257
G1 X82.258 Y80.786 E2.90286
G1 X81.764 Y79.691 E2.98315
G1 X81.304 Y78.580 E3.06344
G1 X80.881 Y77.455 E3.14372
G1 X80.495 Y76.317 E3.22401
G1 X80.145 Y75.167 E3.30430
G1 X79.832 Y74.007 E3.38459
G1 X79.557 Y72.837 E3.46487
G1 X79.320 Y71.659 E3.54516
G1 X79.121 Y70.474 E3.62545
G1 X78.960 Y69.283 E3.70574
G1 X78.837 Y68.087 E3.78602
G1 X78.754 Y66.888 E3.86631
G1 X78.708 Y65.687 E3.94660
G1 X78.702 Y64.485 E4.02689
G1 X78.736 Y63.257 E4.10902
G1 X78.805 Y62.084 E4.18746
G1 X78.915 Y60.888 E4.26775
G1 X79.100 Y59.397 E4.36808
G1 X82.665 Y59.898 E4.60858
G1 X82.494 Y61.274 E4.70117
G1 X82.395 Y62.355 E4.77370
G1 X82.331 Y63.439 E4.84624
G1 X82.303 Y64.499 E4.91710
G1 X82.308 Y65.610 E4.99133
G1 X82.349 Y66.695 E5.06386
G1 X82.424 Y67.778 E5.13640
G1 X82.535 Y68.858 E5.20893
G1 X82.677 Y69.909 E5.27979
G1 X82.860 Y71.005 E5.35401
G1 X83.080 Y72.094 E5.42823
G1 X83.323 Y73.127 E5.49909
G1 X83.605 Y74.175 E5.57162
G1 X83.921 Y75.214 E5.64416
G1 X84.271 Y76.242 E5.71670
G1 X84.653 Y77.258 E5.78924
G1 X85.068 Y78.262 E5.86178
G1 X85.515 Y79.251 E5.93431
G1 X86.005 Y80.248 E6.00853
G1 X86.503 Y81.185 E6.07939
G1 X87.044 Y82.126 E6.15193
G1 X87.614 Y83.050 E6.22447
G1 X88.214 Y83.955 E6.29701
G1 X88.843 Y84.841 E6.36954
G1 X89.500 Y85.705 E6.44208
G1 X90.345 Y86.746 E6.53166
G1 X90.565 Y87.012 F7800.000
G1 X87.169 Y89.395 F7800.000
G1 X86.923 Y89.598 E6.55297 F1800.000
G1 X86.281 Y88.830 E6.61985
G1 X85.449 Y87.759 E6.71044
G1 X84.656 Y86.659 E6.80102
G1 X83.902 Y85.532 E6.89160
G1 X83.189 Y84.379 E6.98218
G1 X82.517 Y83.201 E7.07276
G1 X81.888 Y82.000 E7.16334
G1 X81.302 Y80.778 E7.25393
G1 X80.759 Y79.535 E7.34451
G1 X80.261 Y78.274 E7.43509
G1 X79.808 Y76.996 E7.52567
G1 X79.401 Y75.703 E7.61625
G1 X79.039 Y74.396 E7.70683
G1 X78.725 Y73.077 E7.79741
G1 X78.457 Y71.747 E7.88800
G1 X78.237 Y70.410 E7.97858
G1 X78.065 Y69.065 E8.06916
G1 X77.941 Y67.714 E8.15974
G1 X77.864 Y66.361 E8.25032
G1 X77.836 Y65.005 E8.34090
G1 X77.856 Y63.649 E8.43149
G1 X77.924 Y62.295 E8.52207
G1 X78.040 Y60.944 E8.61265
G1 X78.264 Y59.217 E8.72899
G1 X78.577 Y59.261 E8.75010
G1 X78.382 Y60.830 E8.85571
G1 X78.271 Y62.044 E8.93715
G1 X78.201 Y63.233 E9.01673
G1 X78.166 Y64.479 E9.10001
G1 X78.173 Y65.699 E9.18147
G1 X78.219 Y66.917 E9.26291
G1 X78.304 Y68.133 E9.34435
G1 X78.428 Y69.346 E9.42579
G1 X78.591 Y70.554 E9.50723
G1 X78.793 Y71.756 E9.58867
G1 X79.034 Y72.951 E9.67011
G1 X79.313 Y74.138 E9.75155
G1 X79.630 Y75.315 E9.83299
G1 X79.985 Y76.481 E9.91443
G1 X80.377 Y77.636 E9.99588
G1 X80.806 Y78.777 E10.07732
G1 X81.272 Y79.903 E10.15876
G1 X81.774 Y81.014 E10.24020
G1 X82.311 Y82.108 E10.32164
G1 X82.883 Y83.185 E10.40308
G1 X83.490 Y84.242 E10.48452
G1 X84.131 Y85.279 E10.56596
G1 X84.804 Y86.296 E10.64740
G1 X85.510 Y87.289 E10.72884
G1 X86.231 Y88.238 E10.80842
G1 X87.141 Y89.360 E10.90495
G1 E8.90495 F2400.00000
G92 E0
G1 X114.137 Y66.239 F7800.000
G1 E2.00000 F2400.00000
G1 X113.859 Y65.734 E2.03856 F1800.000
G1 X113.715 Y65.174 E2.07717
G1 X113.719 Y64.586 E2.11647
G1 X113.859 Y64.039 E2.15420
G1 X114.137 Y63.533 E2.19275
G1 X114.532 Y63.112 E2.23131
G1 X115.020 Y62.802 E2.26992
G1 X115.581 Y62.624 E2.30923
G1 X116.144 Y62.588 E2.34695 F1800.000
G1 X116.711 Y62.696 E2.38551
G1 X117.234 Y62.942 E2.42406
G1 X117.679 Y63.311 E2.46268
G1 X118.022 Y63.789 E2.50198
G1 X118.230 Y64.314 E2.53971
G1 X118.302 Y64.886 E2.57826
G1 X118.230 Y65.459 E2.61682
G1 X118.017 Y65.995 E2.65537
G1 X117.678 Y66.462 E2.69393
G1 X117.234 Y66.830 E2.73248
G1 X116.711 Y67.076 E2.77104
G1 X116.144 Y67.184 E2.80965
G1 X115.557 Y67.144 E2.84896
G1 X115.020 Y66.969 E2.88668
G1 X114.532 Y66.660 E2.92524
G1 X114.168 Y66.272 E2.96079
G1 X113.838 Y66.258 F7800.000
G1 X114.371 Y87.257 F7800.000
G1 X114.371 Y67.885 E4.25496 F1800.000
G1 X115.351 Y68.204 E4.32382
G1 X116.208 Y68.262 E4.38121
G1 X117.045 Y68.103 E4.43810
G1 X117.812 Y67.742 E4.49474
G1 X118.465 Y67.201 E4.55138
G1 X118.964 Y66.515 E4.60802
G1 X119.276 Y65.727 E4.66465
G1 X119.382 Y64.886 E4.72129
G1 X119.276 Y64.045 E4.77792
G1 X118.964 Y63.257 E4.83452
G1 X121.629 Y63.257 E5.01254
G1 X121.629 Y140.515 E10.17376
G1 X114.371 Y140.515 E10.65860
G1 X114.371 Y91.515 E13.93207
G1 X91.371 Y91.515 E15.46859
G1 X91.371 Y89.287 E15.61745
G1 X89.352 Y91.452 E15.81525
G1 X88.448 Y90.514 E15.90224
G1 X88.080 Y90.104 E15.93909
G1 X91.472 Y87.257 E16.23494
G1 X114.326 Y87.257 E17.76171
G1 X113.836 Y86.722 F7800.000
G1 X113.836 Y66.701 E19.09923 F1800.000
G1 X114.188 Y67.076 E19.13364
G1 X114.790 Y67.458 E19.18124
G1 X115.454 Y67.674 E19.22790
G1 X116.176 Y67.723 E19.27625
G1 X116.878 Y67.589 E19.32401
G1 X117.523 Y67.286 E19.37160
G1 X118.072 Y66.832 E19.41920
G1 X118.491 Y66.255 E19.46679
G1 X118.753 Y65.593 E19.51439
G1 X118.842 Y64.886 E19.56199
G1 X118.753 Y64.179 E19.60958
G1 X118.496 Y63.530 E19.65625
G1 X117.916 Y62.722 E19.72270
G1 X122.164 Y62.722 E20.00654
G1 X122.164 Y141.051 E25.23933
G1 X113.836 Y141.051 E25.79574
G1 X113.836 Y92.051 E29.06920
G1 X90.836 Y92.051 E30.60573
G1 X90.836 Y90.646 E30.69953
G1 X89.371 Y92.217 E30.84299
G1 X88.997 Y91.856 E30.87774
G1 X88.056 Y90.879 E30.96832
G1 X87.311 Y90.050 E31.04280
G1 X91.277 Y86.722 E31.38867
G1 X113.791 Y86.722 E32.89268
G1 X113.300 Y86.186 F7800.000
G1 X113.300 Y62.186 E34.49601 F1800.000
G1 X122.700 Y62.186 E35.12398
G1 X122.700 Y141.586 E40.42833
G1 X113.300 Y141.586 E41.05630
G1 X113.300 Y92.586 E44.32977
G1 X90.300 Y92.586 E45.86629
G1 X90.300 Y92.006 E45.90504
G1 X89.391 Y92.981 E45.99409
G1 X88.618 Y92.234 E46.06590
G1 X87.664 Y91.244 E46.15775
G1 X86.745 Y90.221 E46.24960
G1 X85.864 Y89.166 E46.34145
G1 X85.020 Y88.080 E46.43331
G1 X84.216 Y86.965 E46.52516
G1 X83.452 Y85.822 E46.61701
G1 X82.729 Y84.652 E46.70887
G1 X82.047 Y83.458 E46.80072
G1 X81.409 Y82.240 E46.89257
G1 X80.815 Y81.001 E46.98442
G1 X80.264 Y79.741 E47.07628
G1 X79.759 Y78.462 E47.16813
G1 X79.300 Y77.166 E47.25998
G1 X78.887 Y75.854 E47.35184
G1 X78.521 Y74.529 E47.44369
G1 X78.202 Y73.192 E47.53554
G1 X77.931 Y71.844 E47.62740
G1 X77.707 Y70.487 E47.71925
G1 X77.533 Y69.123 E47.81110
G1 X77.406 Y67.754 E47.90296
G1 X77.329 Y66.381 E47.99481
G1 X77.300 Y65.007 E48.08666
G1 X77.320 Y63.632 E48.17851
G1 X77.389 Y62.259 E48.27037
G1 X77.507 Y60.889 E48.36222
G1 X77.673 Y59.524 E48.45407
G1 X77.841 Y58.462 E48.52588
G1 X83.163 Y59.401 E48.88688
G1 X82.910 Y61.149 E49.00486
G1 X82.743 Y63.187 E49.14147
G1 X82.702 Y65.242 E49.27879
G1 X82.787 Y67.295 E49.41611
G1 X82.999 Y69.340 E49.55342
G1 X83.337 Y71.367 E49.69074
G1 X83.799 Y73.370 E49.82806
G1 X84.384 Y75.341 E49.96538
G1 X85.089 Y77.272 E50.10270
G1 X85.912 Y79.155 E50.24002
G1 X86.849 Y80.984 E50.37733
G1 X87.898 Y82.752 E50.51465
G1 X89.054 Y84.452 E50.65197
G1 X90.397 Y86.186 E50.79850
G1 X113.255 Y86.186 E52.32554
G1 X113.600 Y86.186 F7800.000
G1 X113.756 Y91.193 F7800.000
G1 X110.141 Y87.579 E52.66753 F1800.000
G1 X109.383 Y87.579 E52.71829
G1 X112.997 Y91.193 E53.06029
G1 X112.238 Y91.193 E53.11105
G1 X108.624 Y87.579 E53.45305
G1 X107.865 Y87.579 E53.50381
G1 X111.480 Y91.193 E53.84581
G1 X110.721 Y91.193 E53.89657
G1 X107.107 Y87.579 E54.23857
G1 X106.348 Y87.579 E54.28933
G1 X109.962 Y91.193 E54.63133
G1 X109.204 Y91.193 E54.68209
G1 X105.589 Y87.579 E55.02408
G1 X104.831 Y87.579 E55.07485
G1 X108.445 Y91.193 E55.41684
G1 X107.686 Y91.193 E55.46760
G1 X104.072 Y87.579 E55.80960
G1 X103.313 Y87.579 E55.86036
G1 X106.928 Y91.193 E56.20236
G1 X106.169 Y91.193 E56.25312
G1 X102.555 Y87.579 E56.59512
G1 X101.796 Y87.579 E56.64588
G1 X105.410 Y91.193 E56.98788
G1 X104.652 Y91.193 E57.03864
G1 X101.037 Y87.579 E57.38063
G1 X100.279 Y87.579 E57.43140
G1 X103.893 Y91.193 E57.77339
G1 X103.134 Y91.193 E57.82415
G1 X99.520 Y87.579 E58.16615
G1 X98.761 Y87.579 E58.21691
G1 X102.376 Y91.193 E58.55891
G1 X101.617 Y91.193 E58.60967
G1 X98.003 Y87.579 E58.95167
G1 X97.244 Y87.579 E59.00243
G1 X100.858 Y91.193 E59.34443
G1 X100.100 Y91.193 E59.39519
G1 X96.485 Y87.579 E59.73718
G1 X95.727 Y87.579 E59.78795
G1 X99.341 Y91.193 E60.12994
G1 X98.582 Y91.193 E60.18071
G1 X94.968 Y87.579 E60.52270
G1 X94.209 Y87.579 E60.57346
G1 X97.824 Y91.193 E60.91546
G1 X97.065 Y91.193 E60.96622
G1 X93.451 Y87.579 E61.30822
G1 X92.692 Y87.579 E61.35898
G1 X96.306 Y91.193 E61.70098
G1 X95.548 Y91.193 E61.75174
G1 X91.933 Y87.579 E62.09374
G1 X91.693 Y88.097 E62.13195
G1 X94.789 Y91.193 E62.42494
G1 X94.030 Y91.193 E62.47570
G1 X90.918 Y88.081 E62.77017
G1 X90.506 Y88.427 E62.80620
G1 X91.174 Y89.095 E62.86941
G1 X90.808 Y89.488 E62.90533
G1 X90.093 Y88.774 E62.97293
G1 X89.681 Y89.120 E63.00896
G1 X90.442 Y89.881 E63.08096
G1 X90.076 Y90.273 E63.11688
G1 X89.268 Y89.466 E63.19327
G1 X88.856 Y89.812 E63.22930
G1 X89.710 Y90.666 E63.31008
G1 X91.693 Y90.373 F7800.000
G1 X92.513 Y91.193 E63.38770 F1800.000
G1 X93.272 Y91.193 E63.43847
G1 X91.693 Y89.614 E63.58788
G1 X91.906 Y88.310 F7800.000
G1 X91.331 Y87.735 E63.64230 F1800.000
G1 E61.64230 F2400.00000
G92 E0
G1 X121.307 Y63.846 F7800.000
G1 E2.00000 F2400.00000
G1 X121.040 Y63.579 E2.02529 F1800.000
G1 X120.281 Y63.579 E2.07605
G1 X121.307 Y64.605 E2.17313
G1 X121.307 Y65.364 E2.22389
G1 X119.522 Y63.579 E2.39275
G1 X119.671 Y64.486 E2.45426
G1 X121.307 Y66.122 E2.60907
G1 X121.307 Y66.881 E2.65983
G1 X119.650 Y65.224 E2.81662
G1 X119.531 Y65.864 E2.86016
G1 X121.307 Y67.640 E3.02819
G1 X121.307 Y68.398 E3.07895
G1 X119.316 Y66.407 E3.26735
G1 X119.036 Y66.886 E3.30445
G1 X121.307 Y69.157 E3.51933
G1 X121.307 Y69.916 E3.57009
G1 X118.717 Y67.326 E3.81517
G1 X118.315 Y67.683 E3.85112
G1 X121.307 Y70.674 E4.13420
G1 X121.307 Y71.433 E4.18496
G1 X117.892 Y68.018 E4.50808
G1 X117.376 Y68.261 E4.54623
G1 X121.307 Y72.192 E4.91818
G1 X121.307 Y72.950 E4.96894
G1 X116.812 Y68.455 E5.39429
G1 X116.175 Y68.577 E5.43769
G1 X121.307 Y73.709 E5.92333
G1 X121.307 Y74.468 E5.97409
G1 X115.375 Y68.536 E6.53539
G1 X114.693 Y68.612 E6.58133
G1 X121.307 Y75.226 E7.20720
G1 X121.307 Y75.985 E7.25796
G1 X114.693 Y69.371 E7.88383
G1 X114.693 Y70.129 E7.93460
G1 X121.307 Y76.744 E8.56047
G1 X121.307 Y77.502 E8.61123
G1 X114.693 Y70.888 E9.23710
G1 X114.693 Y71.647 E9.28786
G1 X121.307 Y78.261 E9.91373
G1 X121.307 Y79.019 E9.96449
G1 X114.693 Y72.405 E10.59036
G1 X114.693 Y73.164 E10.64112
G1 X121.307 Y79.778 E11.26699
G1 X121.307 Y80.537 E11.31776
G1 X114.693 Y73.923 E11.94363
G1 X114.693 Y74.681 E11.99439
G1 X121.307 Y81.295 E12.62026
G1 X121.307 Y82.054 E12.67102
G1 X114.693 Y75.440 E13.29689
G1 X114.693 Y76.199 E13.34765
G1 X121.307 Y82.813 E13.97352
G1 X121.307 Y83.571 E14.02428
G1 X114.693 Y76.957 E14.65015
G1 X114.693 Y77.716 E14.70092
G1 X121.307 Y84.330 E15.32679
G1 X121.307 Y85.089 E15.37755
G1 X114.693 Y78.475 E16.00342
G1 X114.693 Y79.233 E16.05418
G1 X121.307 Y85.847 E16.68005
G1 X121.307 Y86.606 E16.73081
G1 X114.693 Y79.992 E17.35668
G1 X114.693 Y80.751 E17.40744
G1 X121.307 Y87.365 E18.03331
G1 X121.307 Y88.123 E18.08407
G1 X114.693 Y81.509 E18.70995
G1 X114.693 Y82.268 E18.76071
G1 X121.307 Y88.882 E19.38658
G1 X121.307 Y89.641 E19.43734
G1 X114.693 Y83.026 E20.06321
G1 X114.693 Y83.785 E20.11397
G1 X121.307 Y90.399 E20.73984
G1 X121.307 Y91.158 E20.79060
G1 X114.693 Y84.544 E21.41647
G1 X114.693 Y85.302 E21.46723
G1 X121.307 Y91.917 E22.09310
G1 X121.307 Y92.675 E22.14387
G1 X114.693 Y86.061 E22.76974
G1 X114.693 Y86.820 E22.82050
G1 X121.307 Y93.434 E23.44637
G1 X121.307 Y94.193 E23.49713
G1 X114.693 Y87.578 E24.12300
G1 X113.935 Y87.579 E24.17373
G1 X121.307 Y94.951 E24.87133
G1 X121.307 Y95.710 E24.92209
G1 X113.176 Y87.579 E25.69149
G1 X112.417 Y87.579 E25.74225
G1 X121.307 Y96.469 E26.58343
G1 X121.307 Y97.227 E26.63419
G1 X111.659 Y87.579 E27.54716
G1 X110.900 Y87.579 E27.59792
G1 X121.307 Y97.986 E28.58268
G1 X121.307 Y98.745 E28.63344
G1 X114.693 Y92.130 E29.25931
G1 X114.693 Y92.889 E29.31007
G1 X121.307 Y99.503 E29.93595
G1 X121.307 Y100.262 E29.98671
G1 X114.693 Y93.648 E30.61258
G1 X114.693 Y94.406 E30.66334
G1 X121.307 Y101.021 E31.28921
G1 X121.307 Y101.779 E31.33997
G1 X114.693 Y95.165 E31.96584
G1 X114.693 Y95.924 E32.01660
G1 X121.307 Y102.538 E32.64247
G1 X121.307 Y103.297 E32.69323
G1 X114.693 Y96.682 E33.31911
G1 X114.693 Y97.441 E33.36987
G1 X121.307 Y104.055 E33.99574
G1 X121.307 Y104.814 E34.04650
G1 X114.693 Y98.200 E34.67237
G1 X114.693 Y98.958 E34.72313
G1 X121.307 Y105.573 E35.34900
G1 X121.307 Y106.331 E35.39976
G1 X114.693 Y99.717 E36.02563
G1 X114.693 Y100.476 E36.07639
G1 X121.307 Y107.090 E36.70227
G1 X121.307 Y107.849 E36.75303
G1 X114.693 Y101.234 E37.37890
G1 X114.693 Y101.993 E37.42966
G1 X121.307 Y108.607 E38.05553
G1 X121.307 Y109.366 E38.10629
G1 X114.693 Y102.752 E38.73216
G1 X114.693 Y103.510 E38.78292
G1 X121.307 Y110.125 E39.40879
G1 X121.307 Y110.883 E39.45955
G1 X114.693 Y104.269 E40.08543
G1 X114.693 Y105.028 E40.13619
G1 X121.307 Y111.642 E40.76206
G1 X121.307 Y112.401 E40.81282
G1 X114.693 Y105.786 E41.43869
G1 X114.693 Y106.545 E41.48945
G1 X121.307 Y113.159 E42.11532
G1 X121.307 Y113.918 E42.16608
G1 X114.693 Y107.304 E42.79195
G1 X114.693 Y108.062 E42.84271
G1 X121.307 Y114.677 E43.46859
G1 X121.307 Y115.435 E43.51935
G1 X114.693 Y108.821 E44.14522
G1 X114.693 Y109.580 E44.19598
G1 X121.307 Y116.194 E44.82185
G1 X121.307 Y116.953 E44.87261
G1 X114.693 Y110.338 E45.49848
G1 X114.693 Y111.097 E45.54924
G1 X121.307 Y117.711 E46.17511
G1 X121.307 Y118.470 E46.22587
G1 X114.693 Y111.856 E46.85174
G1 X114.693 Y112.614 E46.90251
G1 X121.307 Y119.229 E47.52838
G1 X121.307 Y119.987 E47.57914
G1 X114.693 Y113.373 E48.20501
G1 X114.693 Y114.132 E48.25577
G1 X121.307 Y120.746 E48.88164
G1 X121.307 Y121.505 E48.93240
G1 X114.693 Y114.890 E49.55827
G1 X114.693 Y115.649 E49.60903
G1 X121.307 Y122.263 E50.23490
G1 X121.307 Y123.022 E50.28567
G1 X114.693 Y116.408 E50.91154
G1 X114.693 Y117.166 E50.96230
G1 X121.307 Y123.781 E51.58817
G1 X121.307 Y124.539 E51.63893
G1 X114.693 Y117.925 E52.26480
G1 X114.693 Y118.684 E52.31556
G1 X121.307 Y125.298 E52.94143
G1 X121.307 Y126.056 E52.99219
