; generated by Slic3r 1.2.9 on 2018-03-25 at 11:41:34

; external perimeters extrusion width = 0.30mm
; perimeters extrusion width = 0.40mm
; infill extrusion width = 0.40mm
; solid infill extrusion width = 0.40mm
; top infill extrusion width = 0.40mm

M107
M190 S65 ; set bed temperature
M104 S205 ; set temperature
G28 ; home all axes
G1 Z5 F5000 ; lift nozzle

M109 S205 ; wait for temperature to be reached
G21 ; set units to millimeters
G90 ; use absolute coordinates
M82 ; use absolute distances for extrusion
G92 E0
G1 Z0.300 F7800.000
G1 E-2.00000 F2400.00000
G92 E0
G1 X76.307 Y76.307 F7800.000
G1 E2.00000 F2400.00000
G1 X77.473 Y75.158 E2.10933 F1800.000
G1 X78.358 Y74.390 E2.18764
G1 X80.313 Y72.858 E2.35357
G1 X81.272 Y72.182 E2.43197
G1 X83.728 Y70.683 E2.62420
G1 X84.761 Y70.127 E2.70252
G1 X87.745 Y68.784 E2.92117
G1 X88.846 Y68.380 E2.99951
G1 X91.597 Y67.535 E3.19175
G1 X92.739 Y67.266 E3.27012
G1 X95.182 Y66.818 E3.43605
G1 X96.737 Y66.629 E3.54072
G1 X99.216 Y66.479 E3.70665
G1 X100.784 Y66.479 E3.81134
G1 X103.263 Y66.629 E3.97728 F1800.000
G1 X104.428 Y66.758 E4.05557
G1 X107.261 Y67.266 E4.24788
G1 X108.783 Y67.641 E4.35256
G1 X111.154 Y68.380 E4.51849
G1 X112.255 Y68.784 E4.59683
G1 X115.239 Y70.127 E4.81545
G1 X116.272 Y70.683 E4.89380
G1 X118.397 Y71.968 E5.05973
G1 X119.687 Y72.858 E5.16442
G1 X121.967 Y74.662 E5.35865
G1 X122.815 Y75.429 E5.43502
G1 X124.571 Y77.185 E5.60095
G1 X125.610 Y78.358 E5.70562
G1 X127.142 Y80.313 E5.87155
G1 X127.818 Y81.272 E5.94995
G1 X129.511 Y84.072 E6.16855
G1 X130.045 Y85.116 E6.24686
G1 X131.065 Y87.381 E6.41280
G1 X131.620 Y88.846 E6.51748
G1 X132.359 Y91.217 E6.68341
G1 X132.651 Y92.352 E6.76169
G1 X133.182 Y95.182 E6.95403
G1 X133.371 Y96.737 E7.05870
G1 X133.521 Y99.216 E7.22463
G1 X133.521 Y100.784 E7.32932
G1 X133.371 Y103.263 E7.49525
G1 X133.242 Y104.428 E7.57355
G1 X132.734 Y107.261 E7.76586
G1 X132.359 Y108.783 E7.87054
G1 X131.492 Y111.527 E8.06285
G1 X131.065 Y112.619 E8.14116
G1 X130.045 Y114.884 E8.30710
G1 X129.317 Y116.272 E8.41178
G1 X128.032 Y118.397 E8.57771
G1 X127.377 Y119.368 E8.65597
G1 X125.610 Y121.642 E8.84834
G1 X124.571 Y122.815 E8.95300
G1 X122.815 Y124.571 E9.11893
G1 X121.945 Y125.357 E9.19725
G1 X119.368 Y127.377 E9.41597
G1 X118.397 Y128.032 E9.49423
G1 X116.272 Y129.317 E9.66016
G1 X114.884 Y130.045 E9.76484
G1 X112.255 Y131.216 E9.95712
G1 X111.154 Y131.620 E10.03547
G1 X108.783 Y132.359 E10.20140
G1 X107.261 Y132.734 E10.30608
G1 X104.818 Y133.182 E10.47201
G1 X103.656 Y133.335 E10.55035
G1 X100.389 Y133.533 E10.76898
G1 X99.216 Y133.521 E10.84731
G1 X96.737 Y133.371 E11.01324
G1 X95.182 Y133.182 E11.11791
G1 X92.352 Y132.651 E11.31025
G1 X91.217 Y132.359 E11.38853
G1 X88.846 Y131.620 E11.55446
G1 X87.381 Y131.065 E11.65914
G1 X84.761 Y129.873 E11.85143
G1 X83.728 Y129.317 E11.92976
G1 X81.603 Y128.032 E12.09569
G1 X80.313 Y127.142 E12.20038
G1 X78.358 Y125.610 E12.36632
G1 X77.473 Y124.842 E12.44463
G1 X75.429 Y122.815 E12.63692
G1 X74.390 Y121.642 E12.74158
G1 X72.858 Y119.687 E12.90752
G1 X72.182 Y118.728 E12.98591
G1 X70.489 Y115.928 E13.20451
G1 X69.955 Y114.884 E13.28283
G1 X68.935 Y112.619 E13.44876
G1 X68.380 Y111.154 E13.55345
G1 X67.641 Y108.783 E13.71938
G1 X67.349 Y107.648 E13.79765
G1 X66.758 Y104.428 E14.01637
G1 X66.629 Y103.263 E14.09467
G1 X66.479 Y100.784 E14.26060
G1 X66.479 Y99.216 E14.36529
G1 X66.665 Y96.344 E14.55755
G1 X66.818 Y95.182 E14.63590
G1 X67.266 Y92.739 E14.80183
G1 X67.641 Y91.217 E14.90651
G1 X68.508 Y88.473 E15.09882
G1 X68.935 Y87.381 E15.17713
G1 X69.955 Y85.116 E15.34306
G1 X70.683 Y83.728 E15.44774
G1 X71.968 Y81.603 E15.61367
G1 X72.623 Y80.632 E15.69193
G1 X74.643 Y78.055 E15.91065
G1 X75.429 Y77.185 E15.98897
G1 X76.275 Y76.339 E16.06893
G1 E14.06893 F2400.00000
G92 E0
G1 X102.810 Y102.775 F7800.000
G1 E2.00000 F2400.00000
G1 X102.479 Y103.074 E2.02976 F1800.000
G1 X101.892 Y103.467 E2.07700
G1 X101.480 Y103.662 E2.10738
G1 X100.809 Y103.866 E2.15426
G1 X100.388 Y103.929 E2.18269
G1 X99.966 Y103.950 E2.21091
G1 X99.229 Y103.877 E2.26041
G1 X98.520 Y103.662 E2.30991
G1 X98.108 Y103.467 E2.34031
G1 X97.521 Y103.074 E2.38755
G1 X97.190 Y102.775 E2.41731
G1 X96.554 Y102.021 E2.48325
G1 X96.554 Y97.979 E2.75327
G1 X97.190 Y97.225 E2.81922
G1 X97.521 Y96.926 E2.84898
G1 X98.137 Y96.514 E2.89848
G1 X98.821 Y96.230 E2.94798
G1 X99.262 Y96.120 E2.97836
G1 X99.961 Y96.051 E3.02524 F1800.000
G1 X100.386 Y96.071 E3.05368
G1 X100.804 Y96.133 E3.08189
G1 X101.480 Y96.338 E3.12913
G1 X101.892 Y96.533 E3.15952
G1 X102.479 Y96.926 E3.20676
G1 X102.810 Y97.225 E3.23652
G1 X103.446 Y97.979 E3.30246
G1 X103.446 Y102.021 E3.57249
G1 X102.839 Y102.741 E3.63542
G1 X102.423 Y102.402 F7800.000
G1 X102.149 Y102.651 E3.66015 F1800.000
G1 X101.627 Y103.000 E3.70211
G1 X101.287 Y103.161 E3.72722
G1 X100.691 Y103.342 E3.76885
G1 X100.335 Y103.395 E3.79288
G1 X99.979 Y103.413 E3.81667
G1 X99.334 Y103.349 E3.86001
G1 X98.713 Y103.161 E3.90335
G1 X98.373 Y103.000 E3.92847
G1 X97.851 Y102.651 E3.97042
G1 X97.577 Y102.402 E3.99515
G1 X97.089 Y101.825 E4.04562
G1 X97.089 Y98.175 E4.28948
G1 X97.577 Y97.598 E4.33995
G1 X97.851 Y97.349 E4.36468
G1 X98.390 Y96.989 E4.40802
G1 X98.990 Y96.740 E4.45136
G1 X99.354 Y96.649 E4.47646
G1 X99.974 Y96.588 E4.51809 F1800.000
G1 X100.334 Y96.605 E4.54213
G1 X100.686 Y96.657 E4.56591
G1 X101.287 Y96.839 E4.60787
G1 X101.627 Y97.000 E4.63299
G1 X102.149 Y97.349 E4.67495
G1 X102.423 Y97.598 E4.69968
G1 X102.911 Y98.175 E4.75015
G1 X102.911 Y101.825 E4.99401
G1 X102.452 Y102.368 E5.04147
G1 X102.037 Y102.030 F7800.000
G1 X101.819 Y102.228 E5.06117 F1800.000
G1 X101.362 Y102.533 E5.09785
G1 X101.094 Y102.660 E5.11768
G1 X100.573 Y102.818 E5.15406
G1 X100.282 Y102.862 E5.17369
G1 X99.993 Y102.876 E5.19305
G1 X99.439 Y102.821 E5.23023
G1 X98.906 Y102.660 E5.26740
G1 X98.638 Y102.533 E5.28724
G1 X98.181 Y102.228 E5.32392
G1 X97.963 Y102.030 E5.34362
G1 X97.625 Y101.629 E5.37862
G1 X97.625 Y98.371 E5.59631
G1 X97.963 Y97.970 E5.63130
G1 X98.181 Y97.772 E5.65100
G1 X98.644 Y97.463 E5.68818
G1 X99.158 Y97.250 E5.72535
G1 X99.446 Y97.178 E5.74519
G1 X99.988 Y97.125 E5.78157 F1800.000
G1 X100.282 Y97.138 E5.80120
G1 X100.568 Y97.181 E5.82056
G1 X101.094 Y97.340 E5.85724
G1 X101.362 Y97.467 E5.87708
G1 X101.819 Y97.772 E5.91376
G1 X102.037 Y97.970 E5.93346
G1 X102.375 Y98.371 E5.96845
G1 X102.375 Y101.629 E6.18614
G1 X102.066 Y101.995 E6.21813
G1 X102.112 Y102.315 F7800.000
G1 X116.709 Y116.701 F7800.000
G1 X115.695 Y117.715 E6.31388 F1800.000
G1 X113.445 Y119.478 E6.50484
G1 X110.998 Y120.957 E6.69585
G1 X108.399 Y122.127 E6.88626
G1 X105.667 Y122.979 E7.07747
G1 X102.852 Y123.495 E7.26869
G1 X100.000 Y123.667 E7.45954
G1 X97.148 Y123.495 E7.65039
G1 X94.333 Y122.979 E7.84162
G1 X91.601 Y122.127 E8.03282
G1 X89.002 Y120.957 E8.22323
G1 X86.555 Y119.478 E8.41424
G1 X84.305 Y117.715 E8.60521
G1 X82.285 Y115.695 E8.79599
G1 X80.522 Y113.445 E8.98696
G1 X79.043 Y110.998 E9.17796
G1 X77.873 Y108.399 E9.36837
G1 X77.021 Y105.667 E9.55958
G1 X76.505 Y102.852 E9.75080
G1 X76.333 Y100.000 E9.94165
G1 X76.505 Y97.148 E10.13251
G1 X77.021 Y94.333 E10.32373
G1 X77.873 Y91.601 E10.51493
G1 X79.043 Y89.002 E10.70534
G1 X80.522 Y86.555 E10.89635
G1 X82.285 Y84.305 E11.08732
G1 X84.305 Y82.285 E11.27810
G1 X86.555 Y80.522 E11.46907
G1 X89.002 Y79.043 E11.66007
G1 X91.601 Y77.873 E11.85048
G1 X94.333 Y77.021 E12.04169
G1 X97.148 Y76.505 E12.23291
G1 X100.000 Y76.333 E12.42376
G1 X102.852 Y76.505 E12.61462
G1 X105.667 Y77.021 E12.80584 F1800.000
G1 X108.399 Y77.873 E12.99705
G1 X110.998 Y79.043 E13.18745
G1 X113.445 Y80.522 E13.37846
G1 X115.695 Y82.285 E13.56943
G1 X117.715 Y84.305 E13.76021
G1 X119.478 Y86.555 E13.95118
G1 X120.957 Y89.002 E14.14218
G1 X122.127 Y91.601 E14.33259
G1 X122.979 Y94.333 E14.52380
G1 X123.495 Y97.148 E14.71502
G1 X123.667 Y100.000 E14.90587
G1 X123.495 Y102.852 E15.09672
G1 X122.979 Y105.667 E15.28795
G1 X122.127 Y108.399 E15.47916
G1 X120.957 Y110.998 E15.66956
G1 X119.478 Y113.445 E15.86057
G1 X117.715 Y115.695 E16.05154
G1 X116.741 Y116.669 E16.14357
G1 X117.864 Y116.304 F7800.000
G1 X116.304 Y117.864 E16.29091 F1800.000
G1 X116.852 Y118.826 E16.36489
G1 X116.657 Y118.999 E16.38232
G1 X115.768 Y118.338 E16.45631
G1 X114.032 Y119.698 E16.60364
G1 X114.460 Y120.720 E16.67762
G1 X114.245 Y120.868 E16.69505
G1 X113.443 Y120.105 E16.76902
G1 X111.555 Y121.246 E16.91638
G1 X111.857 Y122.312 E16.99036
G1 X111.626 Y122.433 E17.00779
G1 X110.921 Y121.579 E17.08177
G1 X108.910 Y122.484 E17.22911
G1 X109.082 Y123.578 E17.30310
G1 X108.838 Y123.671 E17.32053
G1 X108.240 Y122.737 E17.39456
G1 X106.135 Y123.394 E17.54189
G1 X106.173 Y124.501 E17.61585
G1 X105.920 Y124.563 E17.63328
G1 X105.440 Y123.566 E17.70725
G1 X103.270 Y123.963 E17.85459
G1 X103.175 Y125.066 E17.92857
G1 X102.916 Y125.098 E17.94600
G1 X102.559 Y124.049 E18.01998
G1 X100.358 Y124.182 E18.16732
G1 X100.130 Y125.266 E18.24130
G1 X99.870 Y125.266 E18.25873
G1 X99.642 Y124.182 E18.33272
G1 X97.441 Y124.049 E18.48006
G1 X97.084 Y125.098 E18.55404
G1 X96.825 Y125.066 E18.57146
G1 X96.730 Y123.963 E18.64545
G1 X94.560 Y123.566 E18.79278
G1 X94.080 Y124.563 E18.86676
G1 X93.827 Y124.501 E18.88419
G1 X93.865 Y123.394 E18.95815
G1 X91.760 Y122.737 E19.10548
G1 X91.162 Y123.671 E19.17951
G1 X90.918 Y123.578 E19.19694
G1 X91.090 Y122.484 E19.27093
G1 X89.079 Y121.579 E19.41826
G1 X88.374 Y122.433 E19.49225
G1 X88.143 Y122.312 E19.50968
G1 X88.445 Y121.246 E19.58366
G1 X86.557 Y120.105 E19.73102
G1 X85.755 Y120.868 E19.80499
G1 X85.540 Y120.720 E19.82242
G1 X85.968 Y119.698 E19.89640
G1 X84.232 Y118.338 E20.04373
G1 X83.343 Y118.999 E20.11772
G1 X83.148 Y118.826 E20.13515
G1 X83.696 Y117.864 E20.20912
G1 X82.136 Y116.304 E20.35647
G1 X81.174 Y116.852 E20.43045
G1 X81.001 Y116.657 E20.44788
G1 X81.662 Y115.768 E20.52187
G1 X80.302 Y114.032 E20.66920
G1 X79.280 Y114.460 E20.74317
G1 X79.132 Y114.245 E20.76060
G1 X79.895 Y113.443 E20.83458
G1 X78.754 Y111.555 E20.98194
G1 X77.688 Y111.857 E21.05592
G1 X77.567 Y111.626 E21.07335
G1 X78.421 Y110.921 E21.14733
G1 X77.516 Y108.910 E21.29467
G1 X76.422 Y109.082 E21.36865
G1 X76.329 Y108.838 E21.38608
G1 X77.263 Y108.240 E21.46012
G1 X76.606 Y106.135 E21.60745
G1 X75.499 Y106.173 E21.68141
G1 X75.437 Y105.920 E21.69883
G1 X76.434 Y105.440 E21.77281
G1 X76.037 Y103.270 E21.92015
G1 X74.934 Y103.175 E21.99413
G1 X74.902 Y102.916 E22.01156
G1 X75.951 Y102.559 E22.08554
G1 X75.818 Y100.358 E22.23288
G1 X74.734 Y100.130 E22.30686
G1 X74.734 Y99.870 E22.32429
G1 X75.818 Y99.642 E22.39828
G1 X75.951 Y97.441 E22.54562
G1 X74.902 Y97.084 E22.61959
G1 X74.934 Y96.825 E22.63702
G1 X76.037 Y96.730 E22.71101
G1 X76.434 Y94.560 E22.85834
G1 X75.437 Y94.080 E22.93232
G1 X75.499 Y93.827 E22.94975
G1 X76.606 Y93.865 E23.02371
G1 X77.263 Y91.760 E23.17104
G1 X76.329 Y91.162 E23.24507
G1 X76.422 Y90.918 E23.26250
G1 X77.516 Y91.090 E23.33648
G1 X78.421 Y89.079 E23.48382
G1 X77.567 Y88.374 E23.55780
G1 X77.688 Y88.143 E23.57523
G1 X78.754 Y88.445 E23.64922
G1 X79.895 Y86.557 E23.79658
G1 X79.132 Y85.755 E23.87055
G1 X79.280 Y85.540 E23.88798
G1 X80.302 Y85.968 E23.96196
G1 X81.662 Y84.232 E24.10929
G1 X81.001 Y83.343 E24.18327
G1 X81.174 Y83.148 E24.20070
G1 X82.136 Y83.696 E24.27468
G1 X83.696 Y82.136 E24.42203
G1 X83.148 Y81.174 E24.49601
G1 X83.343 Y81.001 E24.51344
G1 X84.232 Y81.662 E24.58742
G1 X85.968 Y80.302 E24.73475
G1 X85.540 Y79.280 E24.80873
G1 X85.755 Y79.132 E24.82616
G1 X86.557 Y79.895 E24.90013
G1 X88.445 Y78.754 E25.04749
G1 X88.143 Y77.688 E25.12148
G1 X88.374 Y77.567 E25.13891
G1 X89.079 Y78.421 E25.21289
G1 X91.090 Y77.516 E25.36023
G1 X90.918 Y76.422 E25.43421
G1 X91.162 Y76.329 E25.45164
G1 X91.760 Y77.263 E25.52567
G1 X93.865 Y76.606 E25.67300
G1 X93.827 Y75.499 E25.74696
G1 X94.080 Y75.437 E25.76439
G1 X94.560 Y76.434 E25.83837
G1 X96.730 Y76.037 E25.98570
G1 X96.825 Y74.934 E26.05969
G1 X97.084 Y74.902 E26.07712
G1 X97.441 Y75.951 E26.15109
G1 X99.642 Y75.818 E26.29843
G1 X99.870 Y74.734 E26.37242
G1 X100.130 Y74.734 E26.38985
G1 X100.358 Y75.818 E26.46383
G1 X102.559 Y75.951 E26.61117
G1 X102.916 Y74.902 E26.68515
G1 X103.175 Y74.934 E26.70258
G1 X103.270 Y76.037 E26.77656
G1 X105.440 Y76.434 E26.92390
G1 X105.920 Y75.437 E26.99788
G1 X106.173 Y75.499 E27.01530
G1 X106.135 Y76.606 E27.08926
G1 X108.240 Y77.263 E27.23659
G1 X108.838 Y76.329 E27.31063
G1 X109.082 Y76.422 E27.32806
G1 X108.910 Y77.516 E27.40204
G1 X110.921 Y78.421 E27.54938
G1 X111.626 Y77.567 E27.62336
G1 X111.857 Y77.688 E27.64079
G1 X111.555 Y78.754 E27.71477
G1 X113.443 Y79.895 E27.86213
G1 X114.245 Y79.132 E27.93611
G1 X114.460 Y79.280 E27.95354
G1 X114.032 Y80.302 E28.02751
G1 X115.768 Y81.662 E28.17484
G1 X116.657 Y81.001 E28.24883
G1 X116.852 Y81.174 E28.26626
G1 X116.304 Y82.136 E28.34024
G1 X117.864 Y83.696 E28.48759
G1 X118.826 Y83.148 E28.56156
G1 X118.999 Y83.343 E28.57899
G1 X118.338 Y84.232 E28.65298
G1 X119.698 Y85.968 E28.80031
G1 X120.720 Y85.540 E28.87429
G1 X120.868 Y85.755 E28.89172
G1 X120.105 Y86.557 E28.96569
G1 X121.246 Y88.445 E29.11305
G1 X122.312 Y88.143 E29.18703
G1 X122.433 Y88.374 E29.20446
G1 X121.579 Y89.079 E29.27845
G1 X122.484 Y91.090 E29.42579
G1 X123.578 Y90.918 E29.49977
G1 X123.671 Y91.162 E29.51720
G1 X122.737 Y91.760 E29.59123
G1 X123.394 Y93.865 E29.73856
G1 X124.501 Y93.827 E29.81252
G1 X124.563 Y94.080 E29.82995
G1 X123.566 Y94.560 E29.90393
G1 X123.963 Y96.730 E30.05126
G1 X125.066 Y96.825 E30.12525
G1 X125.098 Y97.084 E30.14268
G1 X124.049 Y97.441 E30.21665
G1 X124.182 Y99.642 E30.36399
G1 X125.266 Y99.870 E30.43798
G1 X125.266 Y100.130 E30.45541
G1 X124.182 Y100.358 E30.52939
G1 X124.049 Y102.559 E30.67673
G1 X125.098 Y102.916 E30.75071
G1 X125.066 Y103.175 E30.76814
G1 X123.963 Y103.270 E30.84212
G1 X123.566 Y105.440 E30.98946
G1 X124.563 Y105.920 E31.06343
G1 X124.501 Y106.173 E31.08086
G1 X123.394 Y106.135 E31.15482
G1 X122.737 Y108.240 E31.30215
G1 X123.671 Y108.838 E31.37619
G1 X123.578 Y109.082 E31.39362
G1 X122.484 Y108.910 E31.46760
G1 X121.579 Y110.921 E31.61494
G1 X122.433 Y111.626 E31.68892
G1 X122.312 Y111.857 E31.70635
G1 X121.246 Y111.555 E31.78033
G1 X120.105 Y113.443 E31.92769
G1 X120.868 Y114.245 E32.00166
G1 X120.720 Y114.460 E32.01909
G1 X119.698 Y114.032 E32.09307
G1 X118.338 Y115.768 E32.24040
G1 X118.999 Y116.657 E32.31439
G1 X118.826 Y116.852 E32.33182
G1 X117.903 Y116.326 E32.40279
G1 X117.953 Y116.972 F7800.000
G1 X116.972 Y117.953 E32.49554 F1800.000
G1 X117.285 Y118.503 E32.53778
G1 X117.462 Y118.864 E32.56465
G1 X117.624 Y119.238 E32.59191
G1 X117.843 Y119.859 E32.63591
G1 X117.564 Y120.107 E32.66086
G1 X116.974 Y119.814 E32.70486
G1 X116.621 Y119.609 E32.73212
G1 X116.284 Y119.389 E32.75899
G1 X115.777 Y119.012 E32.80124
G1 X114.684 Y119.868 E32.89398
G1 X114.928 Y120.451 E32.93621
G1 X115.061 Y120.831 E32.96309
G1 X115.176 Y121.222 E32.99034
G1 X115.319 Y121.865 E33.03435
G1 X115.012 Y122.077 E33.05930
G1 X114.462 Y121.716 E33.10330
G1 X114.136 Y121.469 E33.13056
G1 X113.828 Y121.210 E33.15743
G1 X113.370 Y120.775 E33.19967
G1 X112.182 Y121.493 E33.29242
G1 X112.355 Y122.101 E33.33466
G1 X112.441 Y122.494 E33.36154
G1 X112.508 Y122.897 E33.38880
G1 X112.572 Y123.552 E33.43280
G1 X112.241 Y123.726 E33.45775
G1 X111.739 Y123.300 E33.50175
G1 X111.445 Y123.017 E33.52900
G1 X111.171 Y122.723 E33.55588
G1 X110.768 Y122.235 E33.59812
G1 X109.502 Y122.805 E33.69086
G1 X109.600 Y123.429 E33.73310
G1 X109.639 Y123.830 E33.75998
G1 X109.656 Y124.238 E33.78723
G1 X109.642 Y124.896 E33.83123
G1 X109.292 Y125.029 E33.85618
G1 X108.845 Y124.545 E33.90019
G1 X108.588 Y124.229 E33.92744
G1 X108.351 Y123.903 E33.95432
G1 X108.009 Y123.371 E33.99660
G1 X106.684 Y123.784 E34.08933
G1 X106.706 Y124.416 E34.13156
G1 X106.696 Y124.818 E34.15844
G1 X106.664 Y125.225 E34.18569
G1 X106.570 Y125.877 E34.22969
G1 X106.208 Y125.966 E34.25465
G1 X105.821 Y125.433 E34.29865
G1 X105.605 Y125.087 E34.32590
G1 X105.409 Y124.736 E34.35278
G1 X105.134 Y124.166 E34.39502
G1 X103.769 Y124.416 E34.48776
G1 X103.714 Y125.046 E34.53000
