; generated by Slic3r 1.2.9 on 2018-03-28 at 14:28:48

; external perimeters extrusion width = 0.30mm
; perimeters extrusion width = 0.40mm
; infill extrusion width = 0.40mm
; solid infill extrusion width = 0.40mm
; top infill extrusion width = 0.40mm

M107
M190 S65 ; set bed temperature
M104 S205 ; set temperature
G28 ; home all axes
G1 Z5 F5000 ; lift nozzle

M109 S205 ; wait for temperature to be reached
G21 ; set units to millimeters
G90 ; use absolute coordinates
M82 ; use absolute distances for extrusion
G92 E0
G1 Z0.300 F7800.000
G1 E-2.00000 F2400.00000
G92 E0
G1 X76.880 Y47.242 F7800.000
G1 E2.00000 F2400.00000
G1 X78.329 Y45.484 E2.15217 F1800.000
G1 X80.293 Y44.331 E2.30434
G1 X82.534 Y43.921 E2.45651
G1 X84.855 Y44.334 E2.61402
G1 X125.285 Y59.420 E5.49685 F1800.000
G1 X127.247 Y60.576 E5.64902
G1 X128.694 Y62.336 E5.80119
G1 X129.535 Y65.543 E6.02273
G1 X129.535 Y149.543 E11.63439
G1 X129.138 Y151.786 E11.78656
G1 X127.996 Y153.757 E11.93873
G1 X126.246 Y155.215 E12.09090
G1 X123.000 Y156.079 E12.31533
G1 X113.000 Y156.079 E12.98339
G1 X110.757 Y155.682 E13.13556
G1 X108.786 Y154.539 E13.28773
G1 X107.196 Y152.549 E13.45788
G1 X75.539 Y91.433 E18.05603
G1 X74.548 Y89.387 E18.20790
G1 X73.599 Y87.141 E18.37077
G1 X72.771 Y84.848 E18.53364
G1 X71.977 Y82.176 E18.71986
G1 X71.418 Y79.803 E18.88274
G1 X70.986 Y77.403 E19.04562
G1 X70.680 Y74.936 E19.21169
G1 X70.510 Y72.553 E19.37134
G1 X70.466 Y70.465 E19.51085
G1 X70.536 Y68.028 E19.67372
G1 X70.735 Y65.598 E19.83659
G1 X71.065 Y63.182 E19.99946
G1 X71.523 Y60.788 E20.16233
G1 X72.204 Y58.085 E20.34857
G1 X72.933 Y55.758 E20.51144
G1 X73.786 Y53.474 E20.67431
G1 X74.760 Y51.239 E20.83718
G1 X75.689 Y49.369 E20.97668
G1 X76.858 Y47.281 E21.13654
G1 E19.13654 F2400.00000
G92 E0
G1 X90.373 Y92.439 F7800.000
G1 E2.00000 F2400.00000
G1 X87.615 Y94.752 E2.24048 F1800.000
G1 X86.607 Y93.507 E2.34751
G1 X85.823 Y92.468 E2.43448
G1 X85.077 Y91.401 E2.52146
G1 X84.367 Y90.309 E2.60844
G1 X83.697 Y89.193 E2.69542
G1 X83.066 Y88.055 E2.78239
G1 X82.475 Y86.895 E2.86937
G1 X81.924 Y85.715 E2.95635
G1 X81.416 Y84.516 E3.04333
G1 X80.949 Y83.301 E3.13030
G1 X80.525 Y82.070 E3.21728
G1 X80.145 Y80.825 E3.30426
G1 X79.808 Y79.567 E3.39123
G1 X79.515 Y78.298 E3.47821
G1 X79.266 Y77.020 E3.56520
G1 X79.059 Y75.705 E3.65416
G1 X78.904 Y74.442 E3.73914
G1 X78.791 Y73.145 E3.82612
G1 X78.722 Y71.845 E3.91310
G1 X78.700 Y70.543 E4.00008
G1 X78.722 Y69.241 E4.08705
G1 X78.791 Y67.941 E4.17403
G1 X78.904 Y66.644 E4.26101
G1 X79.063 Y65.352 E4.34798
G1 X79.266 Y64.066 E4.43496
G1 X79.515 Y62.788 E4.52194
G1 X79.808 Y61.520 E4.60892
G1 X80.147 Y60.254 E4.69646
G1 X80.525 Y59.017 E4.78287
G1 X80.949 Y57.786 E4.86985
G1 X81.416 Y56.570 E4.95683
G1 X81.924 Y55.372 E5.04380
G1 X82.475 Y54.192 E5.13078
G1 X83.202 Y52.765 E5.23780
G1 X86.380 Y54.455 E5.47829
G1 X85.678 Y55.836 E5.58183
G1 X85.154 Y56.971 E5.66532
G1 X84.672 Y58.124 E5.74881
G1 X84.233 Y59.294 E5.83231
G1 X83.837 Y60.480 E5.91580
G1 X83.486 Y61.679 E5.99929
G1 X83.180 Y62.891 E6.08279
G1 X82.919 Y64.113 E6.16628
G1 X82.703 Y65.344 E6.24977
G1 X82.530 Y66.611 E6.33520
G1 X82.409 Y67.826 E6.41676
G1 X82.332 Y69.073 E6.50025
G1 X82.300 Y70.323 E6.58375
G1 X82.315 Y71.572 E6.66724
G1 X82.377 Y72.821 E6.75073
G1 X82.484 Y74.066 E6.83423
G1 X82.638 Y75.306 E6.91772
G1 X82.838 Y76.540 E7.00121
G1 X83.083 Y77.765 E7.08471
G1 X83.373 Y78.981 E7.16820
G1 X83.701 Y80.157 E7.24976
G1 X84.088 Y81.376 E7.33519
G1 X84.512 Y82.552 E7.41868
G1 X84.979 Y83.711 E7.50217
G1 X85.488 Y84.852 E7.58567
G1 X86.040 Y85.974 E7.66916
G1 X86.633 Y87.074 E7.75265
G1 X87.266 Y88.151 E7.83615
G1 X87.938 Y89.205 E7.91964
G1 X88.650 Y90.232 E8.00313
G1 X89.399 Y91.233 E8.08663
G1 X90.344 Y92.404 E8.18716
G1 X90.564 Y92.670 F7800.000
G1 E6.18716 F2400.00000
G92 E0
G1 X81.427 Y55.171 F7800.000
G1 E2.00000 F2400.00000
G1 X81.138 Y55.042 E2.02116 F1800.000
G1 X81.373 Y54.497 E2.06082
G1 X81.674 Y53.889 E2.10610
G1 X81.961 Y54.027 E2.12731
G1 X81.446 Y55.131 E2.20865
G1 X82.171 Y53.608 F7800.000
G1 X81.885 Y53.465 E2.23001 F1800.000
G1 X82.282 Y52.666 E2.28954
G1 X82.448 Y52.371 E2.31220
G1 X82.725 Y52.520 E2.33321
G1 X82.191 Y53.568 E2.41181
G1 X81.218 Y55.666 F7800.000
G1 X80.919 Y56.370 E2.46289 F1800.000
G1 X80.564 Y57.295 E2.52909
G1 X80.265 Y57.182 E2.55043
G1 X80.564 Y56.373 E2.60807
G1 X80.923 Y55.540 E2.66868
G1 X81.176 Y55.648 E2.68708
G1 X80.405 Y57.722 F7800.000
G1 X79.994 Y58.914 E2.77132 F1800.000
G1 X79.693 Y58.816 E2.79246
G1 X79.856 Y58.290 E2.82925
G1 X80.105 Y57.615 E2.87730
G1 X80.362 Y57.707 E2.89553
G1 X79.788 Y59.597 F7800.000
G1 X79.359 Y61.126 E3.00161 F1800.000
G1 X79.050 Y61.046 E3.02292
G1 X79.252 Y60.242 E3.07829
G1 X79.481 Y59.503 E3.12998
G1 X79.745 Y59.584 E3.14841
G1 X79.248 Y61.562 F7800.000
G1 X78.965 Y62.788 E3.23245 F1800.000
G1 X78.656 Y62.722 E3.25355
G1 X78.753 Y62.224 E3.28746
G1 X78.939 Y61.487 E3.33818
G1 X79.204 Y61.551 E3.35644
G1 X78.763 Y63.822 F7800.000
G1 X78.567 Y65.060 E3.44021 F1800.000
G1 X78.251 Y65.013 E3.46150
G1 X78.362 Y64.229 E3.51440
G1 X78.452 Y63.767 E3.54587
G1 X78.718 Y63.814 E3.56395
G1 X78.504 Y65.504 F7800.000
G1 X78.357 Y66.746 E3.64748 F1800.000
G1 X78.038 Y66.718 E3.66893
G1 X78.078 Y66.253 E3.70012
G1 X78.188 Y65.462 E3.75343
G1 X78.460 Y65.498 E3.77171
G1 X78.262 Y67.798 F7800.000
G1 X78.196 Y69.055 E3.85579 F1800.000
G1 X77.878 Y69.041 E3.87704
G1 X77.902 Y68.289 E3.92735
G1 X77.946 Y67.776 E3.96171
G1 X78.217 Y67.795 E3.97982
G1 X78.182 Y69.505 F7800.000
G1 X78.164 Y70.543 E4.04921 F1800.000
G1 X78.175 Y71.183 E4.09194
G1 X77.854 Y71.189 E4.11337
G1 X77.836 Y70.331 E4.17070
G1 X77.863 Y69.497 E4.22646
G1 X78.137 Y69.503 E4.24476
G1 X78.184 Y71.805 F7800.000
G1 X78.245 Y72.978 E4.32329 F1800.000
G1 X77.928 Y72.998 E4.34453
G1 X77.879 Y72.326 E4.38957
G1 X77.868 Y71.816 E4.42364
G1 X78.139 Y71.806 E4.44177
G1 X78.291 Y73.584 F7800.000
G1 X78.371 Y74.498 E4.50305 F1800.000
G1 X78.466 Y75.274 E4.55528
G1 X78.149 Y75.314 E4.57668
G1 X78.032 Y74.412 E4.63745
G1 X77.973 Y73.610 E4.69117
G1 X78.246 Y73.588 E4.70949
G1 X78.526 Y75.765 F7800.000
G1 X78.729 Y77.051 E4.79647 F1800.000
G1 X78.416 Y77.105 E4.81767
G1 X78.294 Y76.438 E4.86296
G1 X78.213 Y75.810 E4.90525
G1 X78.482 Y75.772 E4.92341
G1 X78.815 Y77.508 F7800.000
G1 X78.991 Y78.410 E4.98481 F1800.000
G1 X79.186 Y79.258 E5.04294
G1 X78.875 Y79.331 E5.06432
G1 X78.663 Y78.448 E5.12499
G1 X78.501 Y77.567 E5.18482
G1 X78.771 Y77.516 E5.20317
G1 X79.297 Y79.732 F7800.000
G1 X79.624 Y80.952 E5.28755 F1800.000
G1 X79.319 Y81.038 E5.30873
G1 X79.140 Y80.435 E5.35077
G1 X78.990 Y79.810 E5.39370
G1 X79.254 Y79.743 E5.41189
G1 X79.769 Y81.427 F7800.000
G1 X80.016 Y82.235 E5.46834 F1800.000
G1 X80.322 Y83.124 E5.53111
G1 X80.020 Y83.229 E5.55246
G1 X79.722 Y82.393 E5.61174
G1 X79.462 Y81.519 E5.67266
G1 X79.726 Y81.440 E5.69104
G1 X80.476 Y83.563 F7800.000
G1 X80.929 Y84.742 E5.77538 F1800.000
G1 X80.635 Y84.860 E5.79654
G1 X80.408 Y84.318 E5.83574
G1 X80.178 Y83.673 E5.88148
G1 X80.434 Y83.579 E5.89969
G1 X81.144 Y85.246 F7800.000
G1 X81.435 Y85.932 E5.94949 F1800.000
G1 X81.858 Y86.839 E6.01630
G1 X81.569 Y86.976 E6.03763
G1 X81.197 Y86.203 E6.09491
G1 X80.848 Y85.371 E6.15521
G1 X81.102 Y85.264 E6.17361
G1 X82.054 Y87.249 F7800.000
G1 X82.626 Y88.372 E6.25783 F1800.000
G1 X82.347 Y88.520 E6.27896
G1 X82.085 Y88.044 E6.31530
G1 X81.769 Y87.390 E6.36377
G1 X82.014 Y87.269 E6.38200
G1 X82.961 Y88.971 F7800.000
G1 X83.233 Y89.461 E6.41947 F1800.000
G1 X83.777 Y90.366 E6.49003
G1 X83.505 Y90.533 E6.51133
G1 X83.070 Y89.834 E6.56633
G1 X82.680 Y89.126 E6.62033
G1 X82.922 Y88.992 E6.63876
G1 X84.014 Y90.748 F7800.000
G1 X84.698 Y91.802 E6.72275 F1800.000
G1 X84.436 Y91.979 E6.74385
G1 X84.150 Y91.569 E6.77729
G1 X83.745 Y90.919 E6.82844
G1 X83.976 Y90.772 E6.84670
G1 X85.302 Y92.666 F7800.000
G1 X86.057 Y93.668 E6.93053 F1800.000
G1 X85.805 Y93.862 E6.95180
G1 X85.321 Y93.243 E7.00430
G1 X85.047 Y92.852 E7.03623
G1 X85.266 Y92.693 E7.05431
G1 X86.334 Y94.021 F7800.000
G1 X87.122 Y94.994 E7.13795 F1800.000
G1 X86.880 Y95.197 E7.15903
G1 X86.580 Y94.853 E7.18956
G1 X86.084 Y94.220 E7.24326
G1 X86.298 Y94.049 E7.26154
G1 E5.26154 F2400.00000
G92 E0
G1 X114.137 Y71.897 F7800.000
G1 E2.00000 F2400.00000
G1 X113.859 Y71.391 E2.03856 F1800.000
G1 X113.715 Y70.831 E2.07717
G1 X113.719 Y70.243 E2.11647
G1 X113.859 Y69.696 E2.15420
G1 X114.137 Y69.190 E2.19275
G1 X114.532 Y68.769 E2.23131
G1 X115.020 Y68.460 E2.26992
G1 X115.581 Y68.281 E2.30923
G1 X116.144 Y68.245 E2.34695 F1800.000
G1 X116.711 Y68.354 E2.38551
G1 X117.233 Y68.599 E2.42406
G1 X117.679 Y68.968 E2.46268
G1 X118.022 Y69.446 E2.50198
G1 X118.230 Y69.971 E2.53971
G1 X118.302 Y70.543 E2.57826
G1 X118.230 Y71.116 E2.61682
G1 X118.022 Y71.641 E2.65454
G1 X117.680 Y72.118 E2.69374
G1 X117.253 Y72.478 E2.73105
G1 X116.711 Y72.733 E2.77106
G1 X116.144 Y72.841 E2.80961
G1 X115.568 Y72.805 E2.84817
G1 X115.019 Y72.627 E2.88672
G1 X114.532 Y72.317 E2.92528
G1 X114.168 Y71.929 E2.96083
G1 X113.838 Y71.915 F7800.000
G1 X114.371 Y104.954 F7800.000
G1 X114.371 Y73.542 E5.05933 F1800.000
G1 X115.366 Y73.865 E5.12922
G1 X116.212 Y73.919 E5.18586
G1 X117.045 Y73.760 E5.24249
G1 X117.837 Y73.387 E5.30096
G1 X118.472 Y72.850 E5.35656
G1 X118.969 Y72.158 E5.41346
G1 X119.276 Y71.384 E5.46906
G1 X119.382 Y70.543 E5.52570
G1 X119.276 Y69.702 E5.58234
G1 X118.969 Y68.928 E5.63794
G1 X118.468 Y68.231 E5.69533
G1 X117.812 Y67.688 E5.75222
G1 X117.045 Y67.327 E5.80886
G1 X116.410 Y67.206 E5.85201
G1 X116.438 Y66.914 E5.87155
G1 X121.628 Y66.914 E6.21831
G1 X121.628 Y148.172 E11.64675
G1 X114.371 Y148.172 E12.13159
G1 X114.371 Y108.192 E14.80248
G1 X111.101 Y107.851 E15.02209
G1 X109.112 Y107.536 E15.15668
G1 X107.141 Y107.114 E15.29127
G1 X105.197 Y106.587 E15.42587
G1 X103.283 Y105.958 E15.56046
G1 X101.406 Y105.226 E15.69505
G1 X99.570 Y104.395 E15.82965
G1 X97.782 Y103.467 E15.96424
G1 X96.046 Y102.445 E16.09883
G1 X94.367 Y101.331 E16.23343
G1 X92.750 Y100.130 E16.36802
G1 X91.201 Y98.843 E16.50256
G1 X89.688 Y97.441 E16.64036
G1 X88.317 Y96.030 E16.77179
G1 X88.081 Y95.760 E16.79574
G1 X90.583 Y93.660 E17.01394
G1 X91.210 Y94.351 E17.07624
G1 X92.700 Y95.813 E17.21571
G1 X94.243 Y97.153 E17.35223
G1 X95.862 Y98.398 E17.48869
G1 X97.552 Y99.545 E17.62515
G1 X99.308 Y100.590 E17.76160
G1 X101.122 Y101.528 E17.89806
G1 X102.947 Y102.339 E18.03143
G1 X104.901 Y103.074 E18.17091
G1 X106.853 Y103.676 E18.30743
G1 X108.838 Y104.161 E18.44389
G1 X110.847 Y104.527 E18.58034
G1 X114.326 Y104.949 E18.81447
G1 E16.81447 F2400.00000
G92 E0
G1 X114.371 Y67.542 F7800.000
G1 E2.00000 F2400.00000
G1 X114.371 Y66.914 E2.04193 F1800.000
G1 X115.444 Y66.914 E2.11364
G1 X115.487 Y67.186 E2.13203
G1 X114.414 Y67.528 E2.20726
G1 E0.20726 F2400.00000
G92 E0
G1 X113.835 Y104.350 F7800.000
G1 E2.00000 F2400.00000
G1 X113.835 Y72.358 E4.13724 F1800.000
G1 X114.188 Y72.733 E4.17166
G1 X114.790 Y73.115 E4.21925
G1 X115.467 Y73.335 E4.26685
G1 X116.178 Y73.380 E4.31445
G1 X116.878 Y73.246 E4.36204
G1 X117.545 Y72.933 E4.41128
G1 X118.076 Y72.484 E4.45773
G1 X118.496 Y71.900 E4.50578
G1 X118.753 Y71.250 E4.55245
G1 X118.842 Y70.543 E4.60004
G1 X118.753 Y69.836 E4.64764
G1 X118.496 Y69.187 E4.69430
G1 X118.073 Y68.599 E4.74265
G1 X117.523 Y68.143 E4.79040
G1 X116.878 Y67.840 E4.83800
G1 X116.178 Y67.707 E4.88560
G1 X115.481 Y67.750 E4.93226
G1 X114.792 Y67.970 E4.98061
G1 X114.188 Y68.353 E5.02836
G1 X113.835 Y68.729 E5.06278
G1 X113.835 Y66.379 E5.21976
G1 X122.164 Y66.379 E5.77617
G1 X122.164 Y148.708 E11.27618
G1 X113.835 Y148.708 E11.83258
G1 X113.835 Y108.675 E14.50701
G1 X111.032 Y108.383 E14.69533
G1 X109.013 Y108.062 E14.83183
G1 X107.015 Y107.635 E14.96834
G1 X105.043 Y107.101 E15.10485
G1 X103.102 Y106.462 E15.24136
G1 X101.198 Y105.720 E15.37787
G1 X99.336 Y104.877 E15.51438
G1 X97.523 Y103.936 E15.65089
G1 X95.762 Y102.899 E15.78740
G1 X94.059 Y101.770 E15.92391
G1 X92.419 Y100.551 E16.06042
G1 X90.847 Y99.246 E16.19690
G1 X89.313 Y97.824 E16.33662
G1 X87.923 Y96.393 E16.46995
G1 X87.319 Y95.700 E16.53133
G1 X90.634 Y92.919 E16.82042
G1 X91.596 Y93.979 E16.91611
G1 X93.064 Y95.419 E17.05346
G1 X94.582 Y96.738 E17.18782
G1 X96.176 Y97.964 E17.32215
G1 X97.840 Y99.093 E17.45648
G1 X99.568 Y100.121 E17.59081
G1 X101.354 Y101.045 E17.72514
G1 X103.150 Y101.843 E17.85641
G1 X105.074 Y102.567 E17.99376
G1 X106.996 Y103.159 E18.12813
G1 X108.949 Y103.637 E18.26246
G1 X110.928 Y103.997 E18.39679
G1 X113.791 Y104.344 E18.58946
G1 X113.300 Y103.745 F7800.000
G1 X113.300 Y65.843 E21.12152 F1800.000
G1 X122.700 Y65.843 E21.74949
G1 X122.700 Y149.243 E27.32106
G1 X113.300 Y149.243 E27.94903
G1 X113.300 Y109.157 E30.62699
G1 X110.962 Y108.914 E30.78401
G1 X108.915 Y108.589 E30.92244
G1 X106.889 Y108.155 E31.06087
G1 X104.889 Y107.614 E31.19929
G1 X102.921 Y106.966 E31.33772
G1 X100.990 Y106.214 E31.47614
G1 X99.102 Y105.359 E31.61457
G1 X97.263 Y104.405 E31.75300
G1 X95.478 Y103.354 E31.89142
G1 X93.751 Y102.208 E32.02985
G1 X92.088 Y100.972 E32.16828
G1 X90.494 Y99.649 E32.30669
G1 X88.939 Y98.207 E32.44833
G1 X87.529 Y96.756 E32.58355
G1 X86.167 Y95.194 E32.72198
G1 X84.890 Y93.562 E32.86040
G1 X83.702 Y91.864 E32.99883
G1 X82.608 Y90.105 E33.13725
G1 X81.608 Y88.289 E33.27568
G1 X80.708 Y86.423 E33.41411
G1 X79.909 Y84.512 E33.55253
G1 X79.213 Y82.560 E33.69096
G1 X78.622 Y80.574 E33.82938
G1 X78.139 Y78.559 E33.96781
G1 X77.764 Y76.521 E34.10624
G1 X77.499 Y74.466 E34.24465
G1 X77.343 Y72.351 E34.38629
G1 X77.300 Y70.328 E34.52151
G1 X77.367 Y68.257 E34.65994
G1 X77.545 Y66.192 E34.79836
G1 X77.833 Y64.140 E34.93679
G1 X78.231 Y62.107 E35.07522
G1 X78.736 Y60.097 E35.21364
G1 X79.349 Y58.118 E35.35207
G1 X80.066 Y56.174 E35.49049
G1 X80.887 Y54.271 E35.62892
G1 X81.808 Y52.415 E35.76735
G1 X82.680 Y50.873 E35.88572
G1 X87.309 Y53.654 E36.24652
G1 X86.488 Y55.118 E36.35867
G1 X85.623 Y56.898 E36.49087
G1 X84.867 Y58.727 E36.62307
G1 X84.220 Y60.597 E36.75528
G1 X83.685 Y62.502 E36.88748
G1 X83.264 Y64.436 E37.01968
G1 X82.959 Y66.391 E37.15189
G1 X82.771 Y68.361 E37.28409
G1 X82.700 Y70.339 E37.41629
G1 X82.747 Y72.317 E37.54849
G1 X82.911 Y74.290 E37.68070
G1 X83.192 Y76.248 E37.81290
G1 X83.589 Y78.187 E37.94510
G1 X84.100 Y80.099 E38.07731
G1 X84.724 Y81.977 E38.20951
G1 X85.458 Y83.815 E38.34171
G1 X86.301 Y85.605 E38.47392
G1 X87.248 Y87.343 E38.60612
G1 X88.296 Y89.021 E38.73832
G1 X89.443 Y90.634 E38.87052
G1 X90.683 Y92.176 E39.00273
G1 X91.982 Y93.608 E39.13189
G1 X93.427 Y95.026 E39.26711
G1 X94.922 Y96.323 E39.39933
G1 X96.490 Y97.530 E39.53153
G1 X98.128 Y98.641 E39.66374
G1 X99.828 Y99.653 E39.79594
G1 X101.586 Y100.562 E39.92814
G1 X103.353 Y101.347 E40.05731
G1 X105.247 Y102.060 E40.19253
G1 X107.139 Y102.643 E40.32475
G1 X109.061 Y103.112 E40.45695
G1 X111.008 Y103.467 E40.58915
G1 X113.255 Y103.740 E40.74037
G1 X113.599 Y103.757 F7800.000
G1 E38.74037 F2400.00000
G92 E0
G1 X85.224 Y92.078 F7800.000
G1 E2.00000 F2400.00000
G1 X84.522 Y92.569 E2.05719 F1800.000
G1 E0.05719 F2400.00000
G92 E0
G1 X78.578 Y67.293 F7800.000
G1 E2.00000 F2400.00000
G1 X77.725 Y67.226 E2.05719 F1800.000
G1 X78.291 Y63.193 F7800.000
G1 X79.131 Y63.357 E2.11438 F1800.000
G1 E0.11438 F2400.00000
G92 E0
G1 X86.796 Y54.021 F7800.000
G1 E2.00000 F2400.00000
G1 X82.561 Y51.628 E2.68905 F1800.000
G1 E0.68905 F2400.00000
G92 E0
G1 X117.998 Y67.236 F7800.000
G1 E2.00000 F2400.00000
G1 X121.307 Y70.545 E2.31387 F1800.000
G1 X121.307 Y69.785 E2.36488
G1 X118.758 Y67.236 E2.60662
G1 X119.519 Y67.236 E2.65763
G1 X121.307 Y69.024 E2.82724
G1 X121.307 Y68.264 E2.87824
G1 X120.279 Y67.236 E2.97572
G1 X121.040 Y67.236 E3.02673
G1 X121.307 Y67.503 E3.05207
G1 X119.602 Y69.601 F7800.000
G1 X121.307 Y71.306 E3.21375 F1800.000
G1 X121.307 Y72.066 E3.26476
G1 X119.703 Y70.462 E3.41690
G1 X119.618 Y71.137 E3.46254
G1 X121.307 Y72.827 E3.62278
G1 X121.307 Y73.587 E3.67378
G1 X119.449 Y71.729 E3.85003
G1 X119.229 Y72.270 E3.88919
G1 X121.307 Y74.348 E4.08624
G1 X121.307 Y75.108 E4.13724
G1 X118.912 Y72.713 E4.36443
G1 X118.568 Y73.130 E4.40067
