; generated by Slic3r 1.2.9 on 2018-03-29 at 00:37:32

; external perimeters extrusion width = 0.30mm
; perimeters extrusion width = 0.40mm
; infill extrusion width = 0.40mm
; solid infill extrusion width = 0.40mm
; top infill extrusion width = 0.40mm

M107
M190 S65 ; set bed temperature
M104 S205 ; set temperature
G28 ; home all axes
G1 Z5 F5000 ; lift nozzle

M109 S205 ; wait for temperature to be reached
G21 ; set units to millimeters
G90 ; use absolute coordinates
M82 ; use absolute distances for extrusion
G92 E0
G1 Z0.300 F7800.000
G1 E-2.00000 F2400.00000
G92 E0
G1 X73.004 Y80.913 F7800.000
G1 E2.00000 F2400.00000
G1 X74.753 Y79.454 E2.15217 F1800.000
G1 X78.000 Y78.590 E2.37660
G1 X108.000 Y78.590 E4.38076
G1 X110.243 Y78.987 E4.53293
G1 X112.253 Y80.164 E4.68854 F1800.000
G1 X126.253 Y92.164 E5.92037
G1 X127.698 Y93.925 E6.07255
G1 X128.536 Y97.126 E6.29360
G1 X128.536 Y103.126 E6.69443
G1 X128.139 Y105.369 E6.84660
G1 X126.996 Y107.340 E6.99877
G1 X125.834 Y108.419 E7.10470
G1 X113.450 Y117.391 E8.12635
G1 X112.425 Y118.082 E8.20894
G1 X111.189 Y118.812 E8.30485
G1 X109.912 Y119.453 E8.40027
G1 X109.503 Y119.637 E8.43022
G1 X108.168 Y120.165 E8.52614
G1 X106.801 Y120.603 E8.62205
G1 X105.407 Y120.948 E8.71797
G1 X103.993 Y121.197 E8.81389
G1 X102.566 Y121.351 E8.90980
G1 X101.131 Y121.409 E9.00572
G1 X99.696 Y121.369 E9.10163
G1 X98.267 Y121.233 E9.19755
G1 X97.283 Y121.082 E9.26403
G1 X95.879 Y120.784 E9.35994
G1 X94.498 Y120.391 E9.45585
G1 X93.146 Y119.907 E9.55177
G1 X91.830 Y119.332 E9.64768
G1 X90.556 Y118.671 E9.74360
G1 X89.336 Y117.928 E9.83901
G1 X88.964 Y117.679 E9.86897
G1 X87.808 Y116.827 E9.96488
G1 X86.712 Y115.900 E10.06080
G1 X85.681 Y114.901 E10.15671
G1 X84.719 Y113.834 E10.25263
G1 X83.832 Y112.705 E10.34855
G1 X83.023 Y111.519 E10.44446
G1 X82.400 Y110.476 E10.52567
G1 X72.289 Y92.304 E11.91491
G1 X71.464 Y89.126 E12.13423
G1 X71.464 Y85.126 E12.40145
G1 X71.861 Y82.883 E12.55362
G1 X72.981 Y80.951 E12.70279
G1 E10.70279 F2400.00000
G92 E0
G1 X97.278 Y86.772 F7800.000
G1 E2.00000 F2400.00000
G1 X96.505 Y87.002 E2.05386 F1800.000
G1 X95.439 Y87.417 E2.13028
G1 X94.746 Y87.755 E2.18178
G1 X79.371 Y87.755 E3.20892
G1 X79.371 Y86.497 E3.29293
G1 X97.238 Y86.497 E4.48654
G1 X97.272 Y86.728 E4.50211
G1 X104.721 Y86.772 F7800.000
G1 X104.761 Y86.497 E4.52068 F1800.000
G1 X106.629 Y86.497 E4.64545
G1 X106.629 Y87.443 E4.70866
G1 X105.502 Y87.005 E4.78942
G1 X104.764 Y86.785 E4.84087
G1 X93.257 Y88.290 F7800.000
G1 X78.836 Y88.290 E5.80429 F1800.000
G1 X78.836 Y85.962 E5.95986
G1 X107.164 Y85.962 E7.85238
G1 X107.164 Y87.621 E7.96325
G1 X108.474 Y88.390 E8.06473
G1 X109.306 Y88.964 E8.13222
G1 X110.094 Y89.596 E8.19972
G1 X110.834 Y90.283 E8.26721
G1 X111.523 Y91.023 E8.33470
G1 X112.156 Y91.810 E8.40219
G1 X112.729 Y92.642 E8.46968
G1 X113.242 Y93.513 E8.53717
G1 X113.689 Y94.418 E8.60466
G1 X114.070 Y95.354 E8.67215
G1 X114.382 Y96.315 E8.73964
G1 X114.787 Y97.962 E8.85292
G1 X121.164 Y97.962 E9.27899
G1 X121.164 Y98.290 E9.30095
G1 X114.208 Y98.290 E9.76570
G1 X114.100 Y97.630 E9.81039
G1 X113.945 Y96.919 E9.85899
G1 X113.635 Y95.859 E9.93282
G1 X113.236 Y94.821 E10.00706
G1 X112.752 Y93.821 E10.08129
G1 X112.186 Y92.865 E10.15553
G1 X111.543 Y91.959 E10.22977
G1 X110.826 Y91.109 E10.30401
G1 X110.041 Y90.322 E10.37825
G1 X109.194 Y89.604 E10.45248
G1 X108.289 Y88.958 E10.52672
G1 X107.335 Y88.390 E10.60095
G1 X106.346 Y87.908 E10.67443
G1 X105.328 Y87.512 E10.74737
G1 X104.267 Y87.196 E10.82136
G1 X103.190 Y86.971 E10.89485
G1 X102.099 Y86.835 E10.96832
G1 X101.000 Y86.790 E11.04179
G1 X99.901 Y86.835 E11.11526
G1 X98.810 Y86.971 E11.18873
G1 X97.733 Y87.196 E11.26221
G1 X96.679 Y87.509 E11.33568
G1 X95.654 Y87.908 E11.40915
G1 X94.667 Y88.389 E11.48250
G1 X93.820 Y88.888 E11.54819
G1 X93.013 Y89.446 E11.61376
G1 X92.249 Y90.063 E11.67933
G1 X91.532 Y90.734 E11.74490
G1 X90.867 Y91.455 E11.81047
G1 X90.257 Y92.224 E11.87603
G1 X89.705 Y93.036 E11.94160
G1 X89.214 Y93.885 E12.00717
G1 X88.787 Y94.769 E12.07274
G1 X88.426 Y95.682 E12.13831
G1 X88.133 Y96.619 E12.20388
G1 X87.910 Y97.574 E12.26945
G1 X87.758 Y98.544 E12.33502
G1 X87.677 Y99.522 E12.40059
G1 X87.669 Y100.504 E12.46616
G1 X87.733 Y101.483 E12.53172
G1 X87.869 Y102.455 E12.59731
G1 X88.078 Y103.422 E12.66334
G1 X88.353 Y104.356 E12.72843
G1 X88.698 Y105.275 E12.79400
G1 X89.110 Y106.166 E12.85957
G1 X89.586 Y107.024 E12.92514
G1 X90.125 Y107.845 E12.99071
G1 X90.722 Y108.624 E13.05627
G1 X91.374 Y109.357 E13.12184
G1 X92.079 Y110.040 E13.18741
G1 X92.833 Y110.669 E13.25298
G1 X93.630 Y111.241 E13.31855
G1 X94.468 Y111.753 E13.38412
G1 X95.340 Y112.202 E13.44969
G1 X96.244 Y112.585 E13.51526
G1 X97.173 Y112.901 E13.58083
G1 X98.123 Y113.148 E13.64640
G1 X99.089 Y113.324 E13.71196
G1 X100.064 Y113.429 E13.77753
G1 X101.045 Y113.462 E13.84310
G1 X102.026 Y113.423 E13.90867
G1 X103.001 Y113.311 E13.97424
G1 X103.965 Y113.128 E14.03981
G1 X104.914 Y112.875 E14.10538
G1 X105.841 Y112.553 E14.17096
G1 X106.748 Y112.160 E14.23699
G1 X107.611 Y111.708 E14.30208
G1 X108.445 Y111.190 E14.36765
G1 X109.239 Y110.613 E14.43322
G1 X109.988 Y109.979 E14.49879
G1 X110.688 Y109.291 E14.56436
G1 X111.336 Y108.554 E14.62993
G1 X111.928 Y107.771 E14.69550
G1 X112.460 Y106.946 E14.76107
G1 X112.931 Y106.085 E14.82664
G1 X113.337 Y105.191 E14.89220
G1 X113.676 Y104.270 E14.95777
G1 X113.945 Y103.331 E15.02307
G1 X114.100 Y102.622 E15.07153
G1 X114.208 Y101.962 E15.11622
G1 X121.164 Y101.962 E15.58097
G1 X121.164 Y102.290 E15.60293
G1 X114.785 Y102.290 E16.02912
G1 X114.401 Y103.868 E16.13758
G1 X114.118 Y104.763 E16.20029
G1 X113.779 Y105.630 E16.26251
G1 X113.375 Y106.486 E16.32571
G1 X112.918 Y107.306 E16.38840
G1 X112.407 Y108.093 E16.45111
G1 X111.844 Y108.844 E16.51381
G1 X111.232 Y109.555 E16.57652
G1 X110.578 Y110.218 E16.63874
G1 X109.870 Y110.846 E16.70194
G1 X109.127 Y111.420 E16.76463
G1 X108.347 Y111.942 E16.82734
G1 X107.534 Y112.410 E16.89004
G1 X106.697 Y112.820 E16.95226
G1 X105.822 Y113.178 E17.01546
G1 X104.931 Y113.473 E17.07816
G1 X104.029 Y113.706 E17.14038
G1 X103.099 Y113.881 E17.20358
G1 X102.167 Y113.991 E17.26627
G1 X101.237 Y114.038 E17.32849
G1 X100.291 Y114.022 E17.39169
G1 X99.356 Y113.942 E17.45439
G1 X98.428 Y113.800 E17.51709
G1 X97.512 Y113.596 E17.57980
G1 X96.612 Y113.330 E17.64250
G1 X95.732 Y113.004 E17.70521
G1 X94.876 Y112.620 E17.76791
G1 X94.047 Y112.178 E17.83062
G1 X93.251 Y111.682 E17.89332
G1 X92.495 Y111.138 E17.95554
G1 X91.766 Y110.534 E18.01875
G1 X91.086 Y109.888 E18.08144
G1 X90.450 Y109.198 E18.14414
G1 X89.862 Y108.466 E18.20685
G1 X89.325 Y107.696 E18.26955
G1 X88.842 Y106.891 E18.33226
G1 X88.413 Y106.056 E18.39496
G1 X88.042 Y105.194 E18.45767
G1 X87.730 Y104.309 E18.52037
G1 X87.478 Y103.405 E18.58308
G1 X87.288 Y102.486 E18.64579
G1 X87.160 Y101.556 E18.70849
G1 X87.095 Y100.627 E18.77071
G1 X87.093 Y99.680 E18.83391
G1 X87.155 Y98.744 E18.89661
G1 X87.280 Y97.814 E18.95931
G1 X87.467 Y96.894 E19.02202
G1 X87.715 Y95.989 E19.08472
G1 X88.025 Y95.103 E19.14743
G1 X88.393 Y94.239 E19.21013
G1 X88.818 Y93.403 E19.27284
G1 X89.299 Y92.597 E19.33554
G1 X89.834 Y91.825 E19.39825
G1 X90.419 Y91.091 E19.46095
G1 X91.052 Y90.398 E19.52366
G1 X93.224 Y88.321 E19.72443
G1 X91.921 Y88.826 F7800.000
G1 X78.300 Y88.826 E20.63441 F1800.000
G1 X78.300 Y85.426 E20.86155
G1 X107.700 Y85.426 E22.82563
G1 X107.700 Y87.315 E22.95180
G1 X108.762 Y87.938 E23.03409
G1 X109.626 Y88.534 E23.10418
G1 X110.445 Y89.190 E23.17427
G1 X111.213 Y89.904 E23.24436
G1 X111.928 Y90.672 E23.31446
G1 X112.585 Y91.490 E23.38455
G1 X113.181 Y92.353 E23.45464
G1 X113.713 Y93.258 E23.52473
G1 X114.178 Y94.198 E23.59482
G1 X114.573 Y95.170 E23.66491
G1 X114.897 Y96.168 E23.73500
G1 X115.207 Y97.426 E23.82153
G1 X121.700 Y97.426 E24.25533
G1 X121.700 Y98.826 E24.34886
G1 X113.729 Y98.826 E24.88134
G1 X113.685 Y98.414 E24.90904
G1 X113.574 Y97.730 E24.95529
G1 X113.426 Y97.052 E25.00169
G1 X113.127 Y96.030 E25.07280
G1 X112.744 Y95.035 E25.14405
G1 X112.280 Y94.075 E25.21530
G1 X111.737 Y93.157 E25.28656
G1 X111.119 Y92.287 E25.35781
G1 X110.431 Y91.472 E25.42907
G1 X109.678 Y90.717 E25.50032
G1 X108.865 Y90.027 E25.57157
G1 X107.996 Y89.407 E25.64283
G1 X107.080 Y88.862 E25.71408
G1 X106.131 Y88.399 E25.78460
G1 X105.155 Y88.019 E25.85460
G1 X104.135 Y87.716 E25.92563
G1 X103.102 Y87.500 E25.99615
G1 X102.055 Y87.369 E26.06667
G1 X101.000 Y87.326 E26.13719
G1 X99.945 Y87.369 E26.20771
G1 X98.898 Y87.500 E26.27823
G1 X97.865 Y87.716 E26.34875
G1 X96.853 Y88.016 E26.41927
G1 X95.869 Y88.399 E26.48978
G1 X94.921 Y88.861 E26.56026
G1 X94.108 Y89.339 E26.62324
G1 X93.334 Y89.876 E26.68617
G1 X92.600 Y90.467 E26.74910
G1 X91.913 Y91.111 E26.81204
G1 X91.274 Y91.804 E26.87497
G1 X90.689 Y92.542 E26.93791
G1 X90.159 Y93.321 E27.00084
G1 X89.688 Y94.136 E27.06377
G1 X89.278 Y94.984 E27.12671
G1 X88.931 Y95.861 E27.18964
G1 X88.650 Y96.760 E27.25257
G1 X88.436 Y97.677 E27.31551
G1 X88.290 Y98.608 E27.37844
G1 X88.213 Y99.547 E27.44138
G1 X88.205 Y100.489 E27.50431
G1 X88.266 Y101.429 E27.56724
G1 X88.397 Y102.362 E27.63018
G1 X88.597 Y103.289 E27.69358
G1 X88.861 Y104.186 E27.75604
G1 X89.192 Y105.068 E27.81898
G1 X89.588 Y105.923 E27.88191
G1 X90.045 Y106.747 E27.94484
G1 X90.562 Y107.535 E28.00778
G1 X91.135 Y108.282 E28.07071
G1 X91.761 Y108.986 E28.13364
G1 X92.438 Y109.641 E28.19658
G1 X93.161 Y110.245 E28.25951
G1 X93.926 Y110.794 E28.32245
G1 X94.730 Y111.285 E28.38538
G1 X95.568 Y111.716 E28.44831
G1 X96.435 Y112.085 E28.51125
G1 X97.327 Y112.388 E28.57418
G1 X98.239 Y112.625 E28.63711
G1 X99.165 Y112.794 E28.70005
G1 X100.102 Y112.895 E28.76298
G1 X101.044 Y112.926 E28.82592
G1 X101.985 Y112.888 E28.88885
G1 X102.921 Y112.781 E28.95178
G1 X103.846 Y112.606 E29.01472
G1 X104.756 Y112.363 E29.07765
G1 X105.646 Y112.053 E29.14059
G1 X106.517 Y111.676 E29.20398
G1 X107.346 Y111.243 E29.26645
G1 X108.146 Y110.746 E29.32938
G1 X108.908 Y110.191 E29.39232
G1 X109.627 Y109.583 E29.45525
G1 X110.299 Y108.923 E29.51819
G1 X110.920 Y108.215 E29.58112
G1 X111.489 Y107.463 E29.64405
G1 X112.000 Y106.672 E29.70699
G1 X112.451 Y105.845 E29.76992
G1 X112.841 Y104.988 E29.83285
G1 X113.166 Y104.104 E29.89579
G1 X113.426 Y103.199 E29.95862
G1 X113.574 Y102.522 E30.00497
G1 X113.685 Y101.838 E30.05122
G1 X113.729 Y101.426 E30.07893
G1 X121.700 Y101.426 E30.61141
G1 X121.700 Y102.826 E30.70494
G1 X115.206 Y102.826 E31.13878
G1 X114.917 Y104.012 E31.22033
G1 X114.624 Y104.942 E31.28545
G1 X114.271 Y105.842 E31.35007
G1 X113.852 Y106.731 E31.41569
G1 X113.378 Y107.582 E31.48081
G1 X112.847 Y108.400 E31.54593
G1 X112.262 Y109.180 E31.61105
G1 X111.626 Y109.918 E31.67617
G1 X110.947 Y110.607 E31.74080
G1 X110.212 Y111.259 E31.80641
G1 X109.440 Y111.855 E31.87153
G1 X108.630 Y112.397 E31.93665
G1 X107.786 Y112.883 E32.00177
G1 X106.917 Y113.309 E32.06640
G1 X106.008 Y113.680 E32.13201
G1 X105.082 Y113.987 E32.19713
G1 X104.146 Y114.229 E32.26176
G1 X103.180 Y114.410 E32.32738
G1 X102.212 Y114.525 E32.39249
G1 X101.246 Y114.573 E32.45712
G1 X100.264 Y114.557 E32.52274
G1 X99.293 Y114.475 E32.58785
G1 X98.329 Y114.327 E32.65297
G1 X97.378 Y114.115 E32.71809
G1 X96.443 Y113.839 E32.78321
G1 X95.529 Y113.500 E32.84833
G1 X94.640 Y113.101 E32.91345
G1 X93.779 Y112.642 E32.97857
G1 X92.952 Y112.127 E33.04369
G1 X92.167 Y111.562 E33.10832
G1 X91.411 Y110.935 E33.17394
G1 X90.704 Y110.264 E33.23906
G1 X90.044 Y109.547 E33.30418
G1 X89.433 Y108.787 E33.36930
G1 X88.876 Y107.987 E33.43442
G1 X88.373 Y107.152 E33.49954
G1 X87.928 Y106.285 E33.56466
G1 X87.543 Y105.389 E33.62978
G1 X87.219 Y104.470 E33.69490
G1 X86.957 Y103.531 E33.76002
G1 X86.759 Y102.576 E33.82514
G1 X86.627 Y101.611 E33.89026
G1 X86.560 Y100.646 E33.95489
G1 X86.558 Y99.663 E34.02051
G1 X86.622 Y98.691 E34.08562
G1 X86.751 Y97.725 E34.15074
G1 X86.945 Y96.770 E34.21586
G1 X87.204 Y95.830 E34.28098
G1 X87.525 Y94.909 E34.34610
G1 X87.907 Y94.013 E34.41122
G1 X88.349 Y93.144 E34.47634
G1 X88.849 Y92.307 E34.54147
G1 X89.403 Y91.505 E34.60659
G1 X90.011 Y90.743 E34.67171
G1 X90.669 Y90.023 E34.73683
G1 X91.889 Y88.857 E34.84959
G1 X92.001 Y88.537 F7800.000
G1 X94.748 Y88.037 F7800.000
G1 X94.007 Y88.228 E34.90069 F1800.000
G1 X93.592 Y88.542 E34.93543
G1 X92.810 Y89.180 E35.00286
G1 X92.056 Y89.843 E35.06992
G1 X91.260 Y90.601 E35.14341
G1 X90.639 Y91.279 E35.20481
G1 X90.026 Y92.053 E35.27078
G1 X89.544 Y92.754 E35.32761
G1 X88.962 Y93.751 E35.40474
G1 X88.530 Y94.646 E35.47112
G1 X88.514 Y94.683 F7800.000
G1 X88.167 Y95.560 E35.53413 F1800.000
G1 X88.145 Y95.625 F7800.000
G1 X87.869 Y96.506 E35.59583 F1800.000
G1 X87.850 Y96.576 F7800.000
G1 X87.638 Y97.484 E35.65817 F1800.000
G1 X87.627 Y97.536 F7800.000
G1 X87.476 Y98.501 E35.72341 F1800.000
G1 X87.475 Y98.504 F7800.000
G1 X87.391 Y99.510 E35.79083 F1800.000
G1 X87.382 Y100.513 E35.85781
G1 X87.446 Y101.513 E35.92480
G1 X87.573 Y102.436 E35.98705
G1 X87.761 Y103.336 E36.04845
G1 X88.008 Y104.221 E36.10984
G1 X88.431 Y105.376 E36.19200
G1 X88.447 Y105.414 F7800.000
G1 X88.843 Y106.269 E36.25499 F1800.000
G1 X88.875 Y106.330 F7800.000
G1 X89.323 Y107.138 E36.31668 F1800.000
G1 X89.360 Y107.199 F7800.000
G1 X89.872 Y107.980 E36.37904 F1800.000
G1 X89.902 Y108.023 F7800.000
G1 X90.496 Y108.799 E36.44433 F1800.000
G1 X90.497 Y108.801 F7800.000
G1 X91.168 Y109.555 E36.51177 F1800.000
G1 X91.888 Y110.254 E36.57876
G1 X92.657 Y110.897 E36.64574
G1 X93.412 Y111.441 E36.70793
G1 X94.193 Y111.926 E36.76932
G1 X95.004 Y112.357 E36.83072
G1 X96.133 Y112.848 E36.91293
G1 X96.172 Y112.862 F7800.000
G1 X97.064 Y113.166 E36.97589 F1800.000
G1 X97.130 Y113.185 F7800.000
G1 X98.023 Y113.417 E37.03758 F1800.000
G1 X98.094 Y113.433 F7800.000
G1 X99.012 Y113.601 E37.09997 F1800.000
G1 X99.064 Y113.609 F7800.000
G1 X100.036 Y113.714 E37.16532 F1800.000
G1 X100.038 Y113.714 F7800.000
G1 X101.047 Y113.748 E37.23278 F1800.000
G1 X102.049 Y113.709 E37.29977
G1 X103.045 Y113.596 E37.36675
G1 X103.966 Y113.423 E37.42935
G1 X104.849 Y113.194 E37.49027
G1 X105.720 Y112.904 E37.55164
G1 X106.865 Y112.420 E37.63466
G1 X106.893 Y112.406 F7800.000
G1 X107.727 Y111.970 E37.69759 F1800.000
G1 X107.787 Y111.935 F7800.000
G1 X108.571 Y111.448 E37.75928 F1800.000
G1 X108.631 Y111.408 F7800.000
G1 X109.386 Y110.859 E37.82168 F1800.000
G1 X109.427 Y110.827 F7800.000
G1 X110.163 Y110.204 E37.88611 F1800.000
G1 X110.180 Y110.190 F7800.000
G1 X110.897 Y109.487 E37.95313 F1800.000
G1 X111.559 Y108.735 E38.02011
G1 X112.165 Y107.935 E38.08710
G1 X112.670 Y107.156 E38.14915
G1 X113.116 Y106.353 E38.21053
G1 X113.510 Y105.515 E38.27242
G1 X113.944 Y104.369 E38.35425
G1 X113.956 Y104.329 F7800.000
G1 X114.216 Y103.423 E38.41716 F1800.000
G1 X114.234 Y103.347 F7800.000
G1 X114.479 Y102.229 E38.49360 F1800.000
G1 E36.49360 F2400.00000
G92 E0
G1 X114.480 Y98.023 F7800.000
G1 E2.00000 F2400.00000
G1 X114.244 Y96.952 E2.07323 F1800.000
G1 X114.206 Y96.795 F7800.000
G1 X113.925 Y95.833 E2.14014 F1800.000
G1 X113.895 Y95.739 F7800.000
G1 X113.498 Y94.707 E2.21401 F1800.000
G1 X113.005 Y93.684 E2.28986
G1 X112.427 Y92.709 E2.36559
G1 X111.772 Y91.788 E2.44109
G1 X111.742 Y91.752 F7800.000
G1 X111.068 Y90.953 E2.51097 F1800.000
G1 X110.984 Y90.863 F7800.000
G1 X110.287 Y90.164 E2.57691 F1800.000
G1 X110.191 Y90.075 F7800.000
G1 X109.416 Y89.417 E2.64479 F1800.000
G1 X109.353 Y89.367 F7800.000
G1 X108.318 Y88.636 E2.72943 F1800.000
G1 X107.471 Y88.136 E2.79515
G1 X106.938 Y87.850 E2.83555
G1 X106.889 Y87.853 E2.83880
G1 X106.837 Y87.830 E2.84263
G1 X104.476 Y86.594 F7800.000
G1 X103.284 Y86.470 E3.01246 F1800.000
G1 X102.126 Y86.398 E3.17680
G1 X102.126 Y86.399 F7800.000
G1 X101.006 Y86.376 E3.25161 F1800.000
G1 X99.874 Y86.399 E3.32722
G1 X99.874 Y86.398 F7800.000
G1 X98.716 Y86.470 E3.49156 F1800.000
G1 X97.523 Y86.594 E3.66151
G1 X96.297 Y86.780 F7800.000
G1 X95.594 Y86.912 E3.70934 F1800.000
G1 X95.594 Y86.912 F7800.000
G1 X94.601 Y87.126 E3.85317 F1800.000
G1 X79.639 Y87.126 E5.97242
M104 S200 ; set temperature
M140 S60 ; wait for bed temperature to be reached
G1 Z0.500 F7800.000
