; generated by Slic3r 1.2.9 on 2018-03-28 at 15:36:53

; external perimeters extrusion width = 0.30mm
; perimeters extrusion width = 0.40mm
; infill extrusion width = 0.40mm
; solid infill extrusion width = 0.40mm
; top infill extrusion width = 0.40mm

M107
M190 S65 ; set bed temperature
M104 S205 ; set temperature
G28 ; home all axes
G1 Z5 F5000 ; lift nozzle

M109 S205 ; wait for temperature to be reached
G21 ; set units to millimeters
G90 ; use absolute coordinates
M82 ; use absolute distances for extrusion
G92 E0
G1 Z0.300 F7800.000
G1 E-2.00000 F2400.00000
G92 E0
G1 X91.504 Y76.787 F7800.000
G1 E2.00000 F2400.00000
G1 X93.253 Y75.328 E2.15217 F1800.000
G1 X96.500 Y74.464 E2.37660
G1 X103.500 Y74.464 E2.84424
G1 X105.743 Y74.861 E2.99641
G1 X107.713 Y76.004 E3.14858 F1800.000
G1 X109.172 Y77.753 E3.30075
G1 X110.036 Y81.000 E3.52518
G1 X110.036 Y119.000 E6.06379
G1 X109.639 Y121.243 E6.21596
G1 X108.496 Y123.213 E6.36813
G1 X106.747 Y124.672 E6.52030
G1 X103.500 Y125.536 E6.74473
G1 X96.500 Y125.536 E7.21237
G1 X94.257 Y125.139 E7.36454
G1 X92.287 Y123.996 E7.51671
G1 X90.828 Y122.247 E7.66888
G1 X89.964 Y119.000 E7.89331
G1 X89.964 Y81.000 E10.43192
G1 X90.361 Y78.757 E10.58409
G1 X91.481 Y76.825 E10.73325
G1 E8.73325 F2400.00000
G92 E0
G1 X101.488 Y116.494 F7800.000
G1 E2.00000 F2400.00000
G1 X101.242 Y116.821 E2.02735 F1800.000
G1 X100.902 Y117.098 E2.05664
G1 X100.528 Y117.274 E2.08425
G1 X100.107 Y117.354 E2.11285
G1 X99.680 Y117.327 E2.14144
G1 X99.273 Y117.195 E2.17003
G1 X98.912 Y116.966 E2.19862
G1 X98.619 Y116.654 E2.22721
G1 X98.413 Y116.279 E2.25580
G1 X98.306 Y115.864 E2.28439
G1 X98.306 Y115.436 E2.31299
G1 X98.413 Y115.021 E2.34158
G1 X98.619 Y114.646 E2.37017
G1 X98.912 Y114.334 E2.39876
G1 X99.273 Y114.105 E2.42735
G1 X99.680 Y113.973 E2.45594
G1 X100.093 Y113.947 E2.48356 F1800.000
G1 X100.526 Y114.026 E2.51301
G1 X100.915 Y114.208 E2.54169
G1 X101.245 Y114.481 E2.57028
G1 X101.496 Y114.827 E2.59888
G1 X101.654 Y115.225 E2.62747
G1 X101.707 Y115.650 E2.65606
G1 X101.654 Y116.075 E2.68465
G1 X101.504 Y116.452 E2.71178
G1 X101.629 Y116.758 F7800.000
G1 X100.107 Y85.704 F7800.000
G1 X99.680 Y85.677 E2.74037 F1800.000
G1 X99.273 Y85.545 E2.76896
G1 X98.912 Y85.316 E2.79755
G1 X98.619 Y85.004 E2.82614
G1 X98.413 Y84.629 E2.85474
G1 X98.306 Y84.214 E2.88333
G1 X98.306 Y83.786 E2.91192
G1 X98.413 Y83.371 E2.94051
G1 X98.619 Y82.996 E2.96910
G1 X98.912 Y82.684 E2.99769
G1 X99.273 Y82.455 E3.02629
G1 X99.680 Y82.323 E3.05488
G1 X100.093 Y82.297 E3.08250 F1800.000
G1 X100.526 Y82.376 E3.11194
G1 X100.915 Y82.558 E3.14063
G1 X101.245 Y82.831 E3.16922
G1 X101.496 Y83.177 E3.19781
G1 X101.654 Y83.575 E3.22640
G1 X101.707 Y84.000 E3.25499
G1 X101.654 Y84.425 E3.28358
G1 X101.496 Y84.823 E3.31218
G1 X101.245 Y85.169 E3.34077
G1 X100.915 Y85.442 E3.36936
G1 X100.528 Y85.624 E3.39795
G1 X100.151 Y85.696 E3.42354
G1 X99.963 Y85.967 F7800.000
G1 X102.129 Y85.828 F7800.000
G1 X102.129 Y113.822 E5.29373 F1800.000
G1 X101.493 Y113.297 E5.34882
G1 X100.856 Y112.997 E5.39591
G1 X100.156 Y112.870 E5.44344
G1 X99.478 Y112.912 E5.48881
G1 X98.813 Y113.128 E5.53548
G1 X98.223 Y113.502 E5.58216
G1 X97.871 Y113.877 E5.61653
G1 X97.871 Y85.773 E7.49409
G1 X98.223 Y86.148 E7.52846
G1 X98.813 Y86.522 E7.57513
G1 X99.478 Y86.738 E7.62181
G1 X100.175 Y86.782 E7.66848
G1 X100.861 Y86.651 E7.71515
G1 X101.493 Y86.353 E7.76183
G1 X102.094 Y85.856 E7.81390
G1 X102.664 Y81.836 F7800.000
G1 X102.664 Y118.164 E10.24086 F1800.000
G1 X100.271 Y118.164 E10.40074
G1 X100.244 Y117.873 E10.42027
G1 X100.694 Y117.787 E10.45093
G1 X101.189 Y117.555 E10.48742
G1 X101.631 Y117.196 E10.52547
G1 X101.959 Y116.758 E10.56202
G1 X102.177 Y116.209 E10.60148
G1 X102.247 Y115.650 E10.63911
G1 X102.177 Y115.091 E10.67674
G1 X101.969 Y114.567 E10.71437
G1 X101.638 Y114.112 E10.75201
G1 X101.204 Y113.753 E10.78964
G1 X100.691 Y113.511 E10.82753
G1 X100.124 Y113.408 E10.86601
G1 X99.579 Y113.443 E10.90251
G1 X99.043 Y113.617 E10.94014
G1 X98.568 Y113.918 E10.97777
G1 X98.182 Y114.329 E11.01541
G1 X97.911 Y114.823 E11.05304
G1 X97.770 Y115.368 E11.09067
G1 X97.770 Y115.932 E11.12830
G1 X97.911 Y116.477 E11.16594
G1 X98.182 Y116.971 E11.20357
G1 X98.568 Y117.382 E11.24120
G1 X99.043 Y117.683 E11.27883
G1 X99.689 Y117.893 E11.32421
G1 X99.646 Y118.164 E11.34255
G1 X97.336 Y118.164 E11.49691
G1 X97.336 Y81.836 E13.92387
G1 X98.817 Y81.836 E14.02284
G1 X98.884 Y82.067 E14.03896
G1 X98.568 Y82.268 E14.06404
G1 X98.182 Y82.679 E14.10167
G1 X97.911 Y83.173 E14.13930
G1 X97.770 Y83.718 E14.17693
G1 X97.770 Y84.282 E14.21457
G1 X97.911 Y84.827 E14.25220
G1 X98.182 Y85.321 E14.28983
G1 X98.568 Y85.732 E14.32746
G1 X99.043 Y86.033 E14.36510
G1 X99.579 Y86.207 E14.40273
G1 X100.141 Y86.243 E14.44036
G1 X100.694 Y86.137 E14.47799
G1 X101.204 Y85.897 E14.51563
G1 X101.638 Y85.538 E14.55326
G1 X101.969 Y85.083 E14.59089
G1 X102.177 Y84.559 E14.62852
G1 X102.247 Y84.000 E14.66615
G1 X102.177 Y83.441 E14.70379
G1 X101.969 Y82.917 E14.74142
G1 X101.638 Y82.462 E14.77905
G1 X100.881 Y81.836 E14.84466
G1 X102.619 Y81.836 E14.96077
G1 X103.200 Y81.300 F7800.000
G1 X103.200 Y118.700 E17.45929 F1800.000
G1 X96.800 Y118.700 E17.88684
G1 X96.800 Y81.300 E20.38536
G1 X103.155 Y81.300 E20.80991
G1 X103.050 Y81.560 F7800.000
G1 X100.953 Y82.263 F7800.000
G1 X100.635 Y82.061 E20.83507 F1800.000
G1 X100.376 Y81.939 E20.85423
G1 X100.376 Y81.939 F7800.000
G1 X100.054 Y81.799 E20.90393 F1800.000
G1 X99.552 Y81.819 E20.97514
G1 X99.111 Y81.889 E21.03830
G1 E19.03830 F2400.00000
G92 E0
G1 X101.807 Y86.905 F7800.000
G1 E2.00000 F2400.00000
G1 X101.545 Y86.643 E2.02537 F1800.000
G1 X101.017 Y86.891 E2.06524
G1 X101.807 Y87.681 E2.14164
G1 X101.807 Y88.456 E2.19469
G1 X100.398 Y87.047 E2.33105
G1 X99.653 Y87.078 E2.38200
G1 X101.807 Y89.232 E2.59034
G1 X101.807 Y90.008 E2.64339
G1 X98.649 Y86.849 E2.94893
G1 X98.193 Y87.169 E2.98702
G1 X101.807 Y90.783 E3.33665
G1 X101.807 Y91.559 E3.38971
G1 X98.193 Y87.945 E3.73935
G1 X98.193 Y88.720 E3.79240
G1 X101.807 Y92.335 E4.14204
G1 X101.807 Y93.110 E4.19509
G1 X98.193 Y89.496 E4.54473
G1 X98.193 Y90.272 E4.59779
G1 X101.807 Y93.886 E4.94743
G1 X101.807 Y94.661 E5.00048
G1 X98.193 Y91.047 E5.35012
G1 X98.193 Y91.823 E5.40317
G1 X101.807 Y95.437 E5.75281
G1 X101.807 Y96.213 E5.80587
G1 X98.193 Y92.598 E6.15550
G1 X98.193 Y93.374 E6.20856
G1 X101.807 Y96.988 E6.55820
G1 X101.807 Y97.764 E6.61125
G1 X98.193 Y94.150 E6.96089
G1 X98.193 Y94.925 E7.01395
G1 X101.807 Y98.539 E7.36358
G1 X101.807 Y99.315 E7.41664
G1 X98.193 Y95.701 E7.76628
G1 X98.193 Y96.476 E7.81933
G1 X101.807 Y100.091 E8.16897
G1 X101.807 Y100.866 E8.22203
G1 X98.193 Y97.252 E8.57166
G1 X98.193 Y98.028 E8.62472
G1 X101.807 Y101.642 E8.97436
G1 X101.807 Y102.418 E9.02741
G1 X98.193 Y98.803 E9.37705
G1 X98.193 Y99.579 E9.43011
G1 X101.807 Y103.193 E9.77974
G1 X101.807 Y103.969 E9.83280
G1 X98.193 Y100.354 E10.18244
G1 X98.193 Y101.130 E10.23549
G1 X101.807 Y104.744 E10.58513
G1 X101.807 Y105.520 E10.63819
G1 X98.193 Y101.906 E10.98782
G1 X98.193 Y102.681 E11.04088
G1 X101.807 Y106.296 E11.39052
G1 X101.807 Y107.071 E11.44357
G1 X98.193 Y103.457 E11.79321
G1 X98.193 Y104.233 E11.84626
G1 X101.807 Y107.847 E12.19590
G1 X101.807 Y108.622 E12.24896
G1 X98.193 Y105.008 E12.59860
G1 X98.193 Y105.784 E12.65165
G1 X101.807 Y109.398 E13.00129
G1 X101.807 Y110.174 E13.05434
G1 X98.193 Y106.559 E13.40398
G1 X98.193 Y107.335 E13.45704
G1 X101.807 Y110.949 E13.80667
G1 X101.807 Y111.725 E13.85973
G1 X98.193 Y108.111 E14.20937
G1 X98.193 Y108.886 E14.26242
G1 X101.807 Y112.500 E14.61206
G1 X101.330 Y112.799 E14.65056
G1 X98.193 Y109.662 E14.95404
G1 X98.193 Y110.437 E15.00710
G1 X100.302 Y112.547 E15.21116
G1 X99.571 Y112.591 E15.26128
G1 X98.193 Y111.213 E15.39459
G1 X98.193 Y111.989 E15.44764
G1 X98.973 Y112.769 E15.52314
G1 X98.455 Y113.026 E15.56273
G1 X98.193 Y112.764 E15.58805
G1 X97.619 Y116.483 F7800.000
G1 X97.667 Y116.721 E15.60429 F1800.000
G1 X97.964 Y117.130 E15.63802
G1 X102.231 Y117.249 F7800.000
G1 X102.382 Y116.458 E15.69188 F1800.000
M104 S200 ; set temperature
M140 S60 ; wait for bed temperature to be reached
G1 Z0.500 F7800.000
G1 E13.69188 F2400.00000
G92 E0
G1 X101.359 Y82.724 F7800.000
G1 E2.00000 F2400.00000
G1 X101.633 Y83.102 E2.01373 F900.000
G1 X101.805 Y83.536 E2.02746
G1 X101.864 Y84.000 E2.04119
G1 X101.805 Y84.464 E2.05492
G1 X101.633 Y84.898 E2.06865
G1 X101.359 Y85.276 E2.08238
G1 X100.999 Y85.574 E2.09611
G1 X100.576 Y85.773 E2.10984
G1 X100.117 Y85.860 E2.12357
G1 X99.651 Y85.831 E2.13730
G1 X99.206 Y85.686 E2.15103
G1 X98.812 Y85.436 E2.16476
G1 X98.492 Y85.096 E2.17849
G1 X98.287 Y84.722 E2.19104
G1 X98.151 Y84.239 E2.20577
G1 X98.151 Y83.766 E2.21966
G1 X98.267 Y83.314 E2.23339
G1 X98.492 Y82.904 E2.24712
G1 X98.812 Y82.564 E2.26085
G1 X99.206 Y82.314 E2.27458
G1 X99.651 Y82.169 E2.28831
G1 X100.077 Y82.142 E2.30085 F900.000
G1 X100.571 Y82.225 E2.31558
G1 X100.999 Y82.426 E2.32947
G1 X101.324 Y82.695 E2.34188
G1 X101.134 Y82.935 F7800.000
G1 X101.364 Y83.250 E2.35022 F900.000
G1 X101.507 Y83.613 E2.35855
G1 X101.556 Y84.000 E2.36689
G1 X101.507 Y84.387 E2.37523
G1 X101.364 Y84.750 E2.38357
G1 X101.134 Y85.065 E2.39191
G1 X100.834 Y85.314 E2.40025
G1 X100.481 Y85.480 E2.40859
G1 X100.098 Y85.553 E2.41692
G1 X99.708 Y85.529 E2.42526
G1 X99.337 Y85.408 E2.43360
G1 X99.008 Y85.199 E2.44194
G1 X98.741 Y84.915 E2.45028
G1 X98.571 Y84.605 E2.45783
G1 X98.456 Y84.197 E2.46690
G1 X98.456 Y83.805 E2.47527
G1 X98.553 Y83.427 E2.48361
G1 X98.741 Y83.085 E2.49195
G1 X99.008 Y82.801 E2.50029
G1 X99.337 Y82.592 E2.50863
G1 X99.708 Y82.471 E2.51697
G1 X100.061 Y82.449 E2.52451 F900.000
G1 X100.479 Y82.519 E2.53358
G1 X100.834 Y82.686 E2.54196
G1 X101.100 Y82.906 E2.54934
G1 X101.429 Y82.878 F7800.000
G1 E0.54934 F2400.00000
G92 E0
G1 X100.095 Y113.437 F7800.000
G1 E2.00000 F2400.00000
G1 X100.678 Y113.535 E2.01736 F900.000
G1 X101.190 Y113.775 E2.03399
G1 X101.618 Y114.130 E2.05034
G1 X101.945 Y114.580 E2.06670
G1 X102.150 Y115.098 E2.08305
G1 X102.220 Y115.650 E2.09941
G1 X102.150 Y116.202 E2.11576
G1 X101.962 Y116.678 E2.13081
G1 X101.620 Y117.172 E2.14844
G1 X101.149 Y117.543 E2.16608
G1 X100.686 Y117.761 E2.18113
G1 X100.139 Y117.866 E2.19748
G1 X99.584 Y117.831 E2.21383
G1 X99.097 Y117.673 E2.22888
G1 X98.591 Y117.367 E2.24624
G1 X98.204 Y116.955 E2.26287
G1 X97.957 Y116.506 E2.27792
G1 X97.797 Y115.938 E2.29528
G1 X97.797 Y115.372 E2.31191
G1 X97.936 Y114.833 E2.32826
G1 X98.204 Y114.345 E2.34461
G1 X98.585 Y113.939 E2.36097
G1 X99.055 Y113.641 E2.37732
G1 X99.584 Y113.469 E2.39368
G1 X100.050 Y113.440 E2.40740 F900.000
G1 X100.077 Y113.792 F7800.000
G1 X100.571 Y113.875 E2.42214 F900.000
G1 X100.999 Y114.076 E2.43602
G1 X101.359 Y114.374 E2.44975
G1 X101.633 Y114.752 E2.46348
G1 X101.805 Y115.186 E2.47721
G1 X101.864 Y115.650 E2.49094
G1 X101.805 Y116.114 E2.50467
G1 X101.648 Y116.510 E2.51722
G1 X101.360 Y116.927 E2.53211
G1 X100.962 Y117.241 E2.54700
G1 X100.576 Y117.423 E2.55954
G1 X100.117 Y117.510 E2.57327
G1 X99.651 Y117.481 E2.58700
G1 X99.245 Y117.349 E2.59954
G1 X98.816 Y117.090 E2.61428
G1 X98.492 Y116.746 E2.62816
G1 X98.287 Y116.372 E2.64070
G1 X98.151 Y115.889 E2.65544
G1 X98.151 Y115.416 E2.66932
G1 X98.267 Y114.964 E2.68305
G1 X98.492 Y114.554 E2.69678
G1 X98.812 Y114.214 E2.71051
G1 X99.206 Y113.964 E2.72424
G1 X99.651 Y113.819 E2.73797
G1 X100.032 Y113.795 E2.74919 F900.000
G1 X100.061 Y114.099 F7800.000
G1 X100.479 Y114.169 E2.75826 F900.000
G1 X100.834 Y114.336 E2.76664
G1 X101.134 Y114.585 E2.77498
G1 X101.364 Y114.900 E2.78332
G1 X101.507 Y115.263 E2.79165
G1 X101.556 Y115.650 E2.79999
G1 X101.507 Y116.037 E2.80833
G1 X101.377 Y116.365 E2.81588
G1 X101.135 Y116.716 E2.82499
G1 X100.800 Y116.980 E2.83409
G1 X100.481 Y117.130 E2.84164
G1 X100.098 Y117.203 E2.84998
G1 X99.708 Y117.179 E2.85832
G1 X99.373 Y117.070 E2.86587
G1 X99.009 Y116.850 E2.87494
G1 X98.741 Y116.565 E2.88331
G1 X98.571 Y116.255 E2.89086
G1 X98.456 Y115.847 E2.89993
G1 X98.456 Y115.455 E2.90831
G1 X98.553 Y115.077 E2.91665
G1 X98.741 Y114.735 E2.92499
G1 X99.008 Y114.451 E2.93332
G1 X99.337 Y114.242 E2.94166
G1 X99.708 Y114.121 E2.95000
G1 X100.016 Y114.102 E2.95659 F900.000
G1 X100.233 Y113.854 F7800.000
G1 E0.95659 F2400.00000
G92 E0
G1 X102.691 Y118.191 F7800.000
G1 E2.00000 F2400.00000
G1 X97.309 Y118.191 E2.15818 F3600.000
G1 X97.309 Y81.809 E3.22739
G1 X99.057 Y81.809 E3.27877
G1 X99.101 Y81.962 E3.28344
G1 X98.585 Y82.289 E3.30142
G1 X98.204 Y82.695 E3.31778
G1 X97.936 Y83.183 E3.33413
G1 X97.797 Y83.722 E3.35049
G1 X97.797 Y84.288 E3.36711
G1 X97.957 Y84.856 E3.38448
G1 X98.204 Y85.305 E3.39952
G1 X98.585 Y85.711 E3.41588
G1 X99.055 Y86.009 E3.43223
G1 X99.584 Y86.181 E3.44859
G1 X100.139 Y86.216 E3.46494
G1 X100.686 Y86.111 E3.48129
G1 X101.190 Y85.874 E3.49765
G1 X101.618 Y85.520 E3.51400
G1 X101.945 Y85.070 E3.53036
G1 X102.150 Y84.552 E3.54671
G1 X102.220 Y84.000 E3.56307
G1 X102.150 Y83.448 E3.57942
G1 X101.945 Y82.930 E3.59578
G1 X101.618 Y82.480 E3.61213
G1 X101.190 Y82.125 E3.62848
G1 X100.869 Y81.974 E3.63891
G1 X100.906 Y81.809 E3.64390
G1 X102.691 Y81.809 E3.69638
G1 X102.691 Y118.146 E4.76426
G1 X103.045 Y118.545 F7800.000
G1 X96.955 Y118.545 E4.94321 F3600.000
G1 X96.955 Y81.455 E6.03319
G1 X103.045 Y81.455 E6.21215
G1 X103.045 Y118.500 E7.30080
G1 X103.350 Y118.850 F7800.000
G1 X96.650 Y118.850 E7.44402 F1800.000
G1 X96.650 Y81.150 E8.24991
G1 X103.350 Y81.150 E8.39313
G1 X103.350 Y118.805 E9.19805
G1 X103.090 Y118.700 F7800.000
G1 X102.296 Y117.986 F7800.000
G1 X102.486 Y117.796 E9.20716 F1200.000
G1 X102.486 Y117.219 E9.22669
G1 X101.719 Y117.986 E9.26343
G1 X101.895 Y117.234 E9.28960
G1 X102.141 Y116.988 E9.30140
G1 X102.312 Y116.824 F7800.000
G1 X102.418 Y116.258 E9.31831 F1200.000
G1 X102.456 Y115.643 E9.33645
G1 X102.418 Y115.042 E9.35415
G1 X102.310 Y114.465 E9.37139
G1 X102.291 Y114.244 F7800.000
G1 X102.486 Y114.049 E9.37960 F1200.000
G1 X102.486 Y113.543 E9.39466
G1 X101.862 Y114.167 E9.42092
G1 X101.619 Y113.904 E9.43157
G1 X102.486 Y113.036 E9.46806
G1 X102.486 Y112.530 E9.48312
G1 X101.342 Y113.675 E9.53126
G1 X101.016 Y113.494 E9.54234
G1 X102.486 Y112.024 E9.60419
G1 X102.486 Y111.518 E9.61925
G1 X100.668 Y113.336 E9.69574
G1 X100.234 Y113.264 E9.70882
G1 X102.486 Y111.012 E9.80356
G1 X102.486 Y110.506 E9.81862
G1 X99.744 Y113.248 E9.93401
G1 X99.106 Y113.380 E9.95340
G1 X102.486 Y110.000 E10.09565
G1 X102.486 Y109.494 E10.11070
G1 X97.713 Y114.267 E10.31153
G1 X97.514 Y113.960 E10.32241
G1 X102.486 Y108.988 E10.53163
G1 X102.486 Y108.482 E10.54668
G1 X97.514 Y113.454 E10.75589
G1 X97.514 Y112.948 E10.77095
G1 X102.486 Y107.976 E10.98016
G1 X102.486 Y107.470 E10.99522
G1 X97.514 Y112.442 E11.20443
G1 X97.514 Y111.935 E11.21949
G1 X102.486 Y106.964 E11.42870
G1 X102.486 Y106.458 E11.44376
G1 X97.514 Y111.429 E11.65297
G1 X97.514 Y110.923 E11.66803
G1 X102.486 Y105.952 E11.87724
G1 X102.486 Y105.445 E11.89230
G1 X97.514 Y110.417 E12.10151
G1 X97.514 Y109.911 E12.11656
G1 X102.486 Y104.939 E12.32578
G1 X102.486 Y104.433 E12.34083
G1 X97.514 Y109.405 E12.55004
G1 X97.514 Y108.899 E12.56510
G1 X102.486 Y103.927 E12.77431
G1 X102.486 Y103.421 E12.78937
G1 X97.514 Y108.393 E12.99858
G1 X97.514 Y107.887 E13.01364
G1 X102.486 Y102.915 E13.22285
G1 X102.486 Y102.409 E13.23791
G1 X97.514 Y107.381 E13.44712
G1 X97.514 Y106.875 E13.46218
G1 X102.486 Y101.903 E13.67139
G1 X102.486 Y101.397 E13.68645
G1 X97.514 Y106.369 E13.89566
G1 X97.514 Y105.863 E13.91072
G1 X102.486 Y100.891 E14.11993
G1 X102.486 Y100.385 E14.13498
G1 X97.514 Y105.357 E14.34419
G1 X97.514 Y104.851 E14.35925
G1 X102.486 Y99.879 E14.56846
G1 X102.486 Y99.373 E14.58352
G1 X97.514 Y104.344 E14.79273
G1 X97.514 Y103.838 E14.80779
G1 X102.486 Y98.867 E15.01700
G1 X102.486 Y98.361 E15.03206
G1 X97.514 Y103.332 E15.24127
G1 X97.514 Y102.826 E15.25633
G1 X102.486 Y97.855 E15.46554
G1 X102.486 Y97.348 E15.48060
G1 X97.514 Y102.320 E15.68981
G1 X97.514 Y101.814 E15.70487
G1 X102.486 Y96.842 E15.91408
G1 X102.486 Y96.336 E15.92913
G1 X97.514 Y101.308 E16.13835
