; generated by Slic3r 1.2.9 on 2018-03-29 at 11:15:25

; external perimeters extrusion width = 0.30mm
; perimeters extrusion width = 0.40mm
; infill extrusion width = 0.40mm
; solid infill extrusion width = 0.40mm
; top infill extrusion width = 0.40mm

M107
M190 S65 ; set bed temperature
M104 S205 ; set temperature
G28 ; home all axes
G1 Z5 F5000 ; lift nozzle

M109 S205 ; wait for temperature to be reached
G21 ; set units to millimeters
G90 ; use absolute coordinates
M82 ; use absolute distances for extrusion
G92 E0
G1 Z0.300 F7800.000
G1 E-2.00000 F2400.00000
G92 E0
G1 X80.004 Y87.537 F7800.000
G1 E2.00000 F2400.00000
G1 X81.753 Y86.078 E2.15217 F1800.000
G1 X85.000 Y85.214 E2.37660
G1 X94.000 Y85.214 E2.97785
G1 X96.327 Y85.643 E3.13589
G1 X117.327 Y93.643 E4.63716 F1800.000
G1 X119.281 Y94.812 E4.78933
G1 X120.716 Y96.581 E4.94150
G1 X121.536 Y99.750 E5.16016
G1 X121.536 Y108.250 E5.72800
G1 X121.139 Y110.493 E5.88017
G1 X119.996 Y112.463 E6.03235
G1 X118.247 Y113.922 E6.18452
G1 X115.000 Y114.786 E6.40895
G1 X85.000 Y114.786 E8.41311
G1 X82.757 Y114.389 E8.56528
G1 X80.787 Y113.246 E8.71745
G1 X79.328 Y111.497 E8.86962
G1 X78.464 Y108.250 E9.09405
G1 X78.464 Y91.750 E10.19634
G1 X78.861 Y89.507 E10.34851
G1 X79.981 Y87.575 E10.49768
G1 E8.49768 F2400.00000
G92 E0
G1 X90.386 Y96.054 F7800.000
G1 E2.00000 F2400.00000
G1 X90.000 Y96.366 E2.03316 F1800.000
G1 X89.588 Y96.559 E2.06355
G1 X89.119 Y96.649 E2.09541
G1 X88.644 Y96.619 E2.12727
G1 X88.190 Y96.471 E2.15913
G1 X87.787 Y96.216 E2.19098
G1 X87.461 Y95.868 E2.22284
G1 X87.231 Y95.450 E2.25470
G1 X87.113 Y94.988 E2.28655
G1 X87.113 Y94.512 E2.31841
G1 X87.231 Y94.050 E2.35027
G1 X87.461 Y93.632 E2.38212
G1 X87.787 Y93.284 E2.41398
G1 X88.190 Y93.029 E2.44584
G1 X88.644 Y92.881 E2.47770
G1 X89.098 Y92.853 E2.50809 F1800.000
G1 X89.586 Y92.940 E2.54125
G1 X90.019 Y93.144 E2.57323
G1 X90.387 Y93.448 E2.60508
G1 X90.667 Y93.834 E2.63694
G1 X90.843 Y94.277 E2.66880
G1 X90.902 Y94.750 E2.70066
G1 X90.843 Y95.223 E2.73251
G1 X90.667 Y95.666 E2.76437
G1 X90.412 Y96.017 E2.79334
G1 X90.458 Y96.345 F7800.000
G1 X92.629 Y101.121 F7800.000
G1 X113.629 Y101.121 E4.19626 F1800.000
G1 X113.629 Y103.247 E4.33824
G1 X112.914 Y102.910 E4.39101
G1 X112.159 Y102.776 E4.44225
G1 X111.441 Y102.821 E4.49030
G1 X110.708 Y103.059 E4.54180
G1 X110.094 Y103.458 E4.59070
G1 X109.582 Y104.003 E4.64070
G1 X109.220 Y104.680 E4.69194
G1 X109.041 Y105.376 E4.73999
G1 X109.041 Y106.132 E4.79048
G1 X109.243 Y106.879 E4.84214
G1 X91.735 Y106.879 E6.01173
G1 X91.888 Y106.492 E6.03955
G1 X91.982 Y105.750 E6.08949
G1 X91.888 Y105.008 E6.13943
G1 X91.613 Y104.313 E6.18936
G1 X91.174 Y103.709 E6.23930
G1 X90.598 Y103.232 E6.28924
G1 X89.922 Y102.914 E6.33918
G1 X89.187 Y102.774 E6.38912
G1 X88.441 Y102.821 E6.43906
G1 X87.730 Y103.052 E6.48900
G1 X87.099 Y103.452 E6.53893
G1 X86.371 Y104.227 E6.60997
G1 X86.371 Y96.273 E7.14138
G1 X87.099 Y97.048 E7.21242
G1 X87.730 Y97.448 E7.26235
G1 X88.441 Y97.679 E7.31229
G1 X89.187 Y97.726 E7.36223
G1 X89.922 Y97.586 E7.41217
G1 X90.572 Y97.280 E7.46022
G1 X91.169 Y96.798 E7.51146
G1 X91.613 Y96.187 E7.56195
G1 X91.888 Y95.492 E7.61189
G1 X91.982 Y94.750 E7.66182
G1 X91.888 Y94.008 E7.71176
G1 X91.537 Y93.121 E7.77550
G1 X92.629 Y93.121 E7.84843
G1 X92.629 Y101.076 E8.37986
G1 X93.164 Y100.586 F7800.000
G1 X114.164 Y100.586 E9.78278 F1800.000
G1 X114.164 Y104.229 E10.02617
G1 X113.942 Y104.301 E10.04177
G1 X113.780 Y104.078 E10.06018
G1 X113.309 Y103.688 E10.10108
G1 X112.750 Y103.425 E10.14231
G1 X112.128 Y103.314 E10.18451
G1 X111.542 Y103.351 E10.22373
G1 X110.941 Y103.547 E10.26601
G1 X110.440 Y103.871 E10.30586
G1 X110.021 Y104.318 E10.34680
G1 X109.723 Y104.875 E10.38900
G1 X109.577 Y105.444 E10.42822
G1 X109.577 Y106.061 E10.46945
G1 X109.741 Y106.671 E10.51165
G1 X110.150 Y107.414 E10.56832
G1 X90.786 Y107.414 E11.86196
G1 X91.140 Y106.927 E11.90224
G1 X91.366 Y106.357 E11.94313
G1 X91.442 Y105.750 E11.98403
G1 X91.366 Y105.143 E12.02493
G1 X91.140 Y104.573 E12.06583
G1 X90.780 Y104.078 E12.10673
G1 X90.309 Y103.688 E12.14762
G1 X89.755 Y103.427 E12.18852
G1 X89.153 Y103.313 E12.22942
G1 X88.542 Y103.351 E12.27032
G1 X87.960 Y103.540 E12.31121
G1 X87.443 Y103.868 E12.35211
G1 X87.024 Y104.314 E12.39301
G1 X86.729 Y104.851 E12.43391
G1 X86.577 Y105.444 E12.47481
G1 X86.577 Y106.056 E12.51570
G1 X86.729 Y106.649 E12.55660
G1 X87.150 Y107.414 E12.61495
G1 X85.836 Y107.414 E12.70275
G1 X85.836 Y92.586 E13.69339
G1 X87.709 Y92.586 E13.81852
G1 X87.024 Y93.314 E13.88531
G1 X86.729 Y93.851 E13.92621
G1 X86.577 Y94.444 E13.96711
G1 X86.577 Y95.056 E14.00801
G1 X86.729 Y95.649 E14.04891
G1 X87.024 Y96.186 E14.08980
G1 X87.443 Y96.632 E14.13070
G1 X87.960 Y96.960 E14.17160
G1 X88.542 Y97.149 E14.21250
G1 X89.153 Y97.187 E14.25339
G1 X89.755 Y97.073 E14.29429
G1 X90.286 Y96.823 E14.33351
G1 X90.777 Y96.426 E14.37571
G1 X91.140 Y95.927 E14.41695
G1 X91.366 Y95.357 E14.45784
G1 X91.442 Y94.750 E14.49874
G1 X91.366 Y94.143 E14.53964
G1 X91.140 Y93.573 E14.58054
G1 X90.780 Y93.078 E14.62144
G1 X90.185 Y92.586 E14.67306
G1 X93.164 Y92.586 E14.87210
G1 X93.164 Y100.541 E15.40353
G1 X93.700 Y100.050 F7800.000
G1 X114.700 Y100.050 E16.80645 F1800.000
G1 X114.700 Y107.950 E17.33421
G1 X112.093 Y107.950 E17.50835
G1 X112.066 Y107.659 E17.52789
G1 X112.588 Y107.559 E17.56340
G1 X113.019 Y107.356 E17.59526
G1 X113.387 Y107.052 E17.62711
G1 X113.667 Y106.666 E17.65897
G1 X113.843 Y106.223 E17.69083
G1 X113.902 Y105.750 E17.72268
G1 X113.843 Y105.277 E17.75454
G1 X113.667 Y104.834 E17.78640
G1 X113.387 Y104.448 E17.81826
G1 X113.019 Y104.144 E17.85011
G1 X112.586 Y103.940 E17.88209
G1 X112.098 Y103.853 E17.91525
G1 X111.644 Y103.881 E17.94564
G1 X111.173 Y104.034 E17.97869
G1 X110.786 Y104.285 E18.00950
G1 X110.460 Y104.633 E18.04137
G1 X110.226 Y105.071 E18.07453
G1 X110.113 Y105.512 E18.10493
G1 X110.113 Y105.990 E18.13690
G1 X110.242 Y106.469 E18.17006
G1 X110.461 Y106.868 E18.20046
G1 X110.786 Y107.215 E18.23221
G1 X111.173 Y107.466 E18.26302
G1 X111.644 Y107.619 E18.29606
G1 X111.962 Y107.639 E18.31738
G1 X111.952 Y107.950 E18.33819
G1 X89.093 Y107.950 E19.86529
G1 X89.066 Y107.659 E19.88483
G1 X89.588 Y107.559 E19.92033
G1 X90.019 Y107.356 E19.95219
G1 X90.387 Y107.052 E19.98405
G1 X90.667 Y106.666 E20.01591
G1 X90.843 Y106.223 E20.04776
G1 X90.902 Y105.750 E20.07962
G1 X90.843 Y105.277 E20.11148
G1 X90.667 Y104.834 E20.14333
G1 X90.387 Y104.448 E20.17519
G1 X90.019 Y104.144 E20.20705
G1 X89.588 Y103.941 E20.23891
G1 X89.119 Y103.851 E20.27076
G1 X88.644 Y103.881 E20.30262
G1 X88.190 Y104.029 E20.33448
G1 X87.787 Y104.284 E20.36633
G1 X87.461 Y104.632 E20.39819
G1 X87.231 Y105.050 E20.43005
G1 X87.113 Y105.512 E20.46191
G1 X87.113 Y105.988 E20.49376
G1 X87.231 Y106.450 E20.52562
G1 X87.461 Y106.868 E20.55748
G1 X87.787 Y107.216 E20.58933
G1 X88.190 Y107.471 E20.62119
G1 X88.644 Y107.619 E20.65305
G1 X88.962 Y107.639 E20.67437
G1 X88.952 Y107.950 E20.69517
G1 X85.300 Y107.950 E20.93916
G1 X85.300 Y92.050 E22.00137
G1 X93.700 Y92.050 E22.56253
G1 X93.700 Y100.005 E23.09397
G1 X93.700 Y100.350 F7800.000
G1 X92.307 Y100.055 F7800.000
G1 X90.078 Y97.826 E23.30906 F1800.000
G1 X90.605 Y97.579 E23.34875
G1 X92.307 Y99.281 E23.51306
G1 X92.307 Y98.507 E23.56587
G1 X91.049 Y97.249 E23.68730
G1 X91.452 Y96.879 E23.72467
G1 X92.307 Y97.734 E23.80718
G1 X92.072 Y104.462 F7800.000
G1 X94.167 Y106.557 E24.00935 F1800.000
G1 X93.393 Y106.557 E24.06215
G1 X92.283 Y105.448 E24.16922
G1 X92.239 Y106.177 E24.21908
G1 X92.619 Y106.557 E24.25576
G1 E22.25576 F2400.00000
G92 E0
G1 X86.693 Y102.952 F7800.000
G1 E2.00000 F2400.00000
G1 X86.955 Y103.214 E2.02526 F1800.000
G1 X87.428 Y102.914 E2.06352
G1 X86.693 Y102.179 E2.13447
G1 X86.693 Y101.405 E2.18727
G1 X87.958 Y102.670 E2.30942
G1 X88.560 Y102.498 E2.35210
G1 X86.693 Y100.631 E2.53227
G1 X86.693 Y99.857 E2.58508
G1 X89.288 Y102.452 E2.83551
G1 X90.263 Y102.654 E2.90348
G1 X86.693 Y99.083 E3.24804
G1 X86.693 Y98.310 E3.30085
G1 X94.940 Y106.557 E4.09683
G1 X95.714 Y106.557 E4.14963
G1 X86.693 Y97.536 E5.02029
G1 X87.774 Y97.844 E5.09703
G1 X96.488 Y106.557 E5.93799
G1 X97.262 Y106.557 E5.99079
G1 X92.147 Y101.443 E6.48438
G1 X92.307 Y100.829 E6.52768
G1 X89.460 Y97.982 E6.80243
G1 X88.732 Y98.027 E6.85225
G1 X92.307 Y101.603 E7.19731
G1 X92.921 Y101.443 E7.24061
G1 X98.035 Y106.557 E7.73419
G1 X98.809 Y106.557 E7.78700
G1 X93.695 Y101.443 E8.28059
G1 X94.469 Y101.443 E8.33340
G1 X99.583 Y106.557 E8.82698
G1 X100.357 Y106.557 E8.87979
G1 X95.243 Y101.443 E9.37337
G1 X96.016 Y101.443 E9.42618
G1 X101.131 Y106.557 E9.91977
G1 X101.904 Y106.557 E9.97257
G1 X96.790 Y101.443 E10.46616
G1 X97.564 Y101.443 E10.51897
G1 X102.678 Y106.557 E11.01255
G1 X103.452 Y106.557 E11.06536
G1 X98.338 Y101.443 E11.55895
G1 X99.112 Y101.443 E11.61175
G1 X104.226 Y106.557 E12.10534
G1 X105.000 Y106.557 E12.15815
G1 X99.885 Y101.443 E12.65173
G1 X100.659 Y101.443 E12.70454
G1 X105.773 Y106.557 E13.19813
G1 X106.547 Y106.557 E13.25093
G1 X101.433 Y101.443 E13.74452
G1 X102.207 Y101.443 E13.79733
G1 X107.321 Y106.557 E14.29091
G1 X108.095 Y106.557 E14.34372
G1 X102.981 Y101.443 E14.83731
G1 X103.754 Y101.443 E14.89011
G1 X108.758 Y106.447 E15.37307
G1 X108.720 Y105.634 E15.42858
G1 X104.528 Y101.443 E15.83312
G1 X105.302 Y101.443 E15.88593
G1 X108.837 Y104.978 E16.22711
G1 X109.044 Y104.411 E16.26827
G1 X106.076 Y101.443 E16.55478
G1 X106.850 Y101.443 E16.60759
G1 X109.314 Y103.907 E16.84542
G1 X109.679 Y103.498 E16.88282
G1 X107.623 Y101.443 E17.08121
G1 X108.397 Y101.443 E17.13402
G1 X110.086 Y103.131 E17.29699
G1 X110.555 Y102.827 E17.33516
G1 X109.171 Y101.443 E17.46873
G1 X109.945 Y101.443 E17.52153
G1 X111.120 Y102.618 E17.63494
G1 X111.761 Y102.485 E17.67962
G1 X110.719 Y101.443 E17.78022
G1 X111.492 Y101.443 E17.83303
G1 X112.545 Y102.496 E17.93463
G1 X113.307 Y102.484 E17.98664
G1 X112.266 Y101.443 E18.08712
G1 X113.040 Y101.443 E18.13992
G1 X113.307 Y101.710 E18.16572
G1 X114.142 Y104.518 F7800.000
G1 X114.267 Y105.189 E18.21134 F1800.000
G1 X114.302 Y105.734 E18.24779
G1 X114.273 Y106.226 E18.28072
G1 X114.286 Y106.228 F7800.000
G1 X114.009 Y107.682 E18.49037 F1800.000
G1 X113.836 Y107.666 F7800.000
G1 X113.409 Y107.625 E18.51905 F1800.000
G1 X113.321 Y107.583 E18.52556
G1 X113.019 Y107.668 E18.54654
G1 E16.54654 F2400.00000
G92 E0
G1 X92.074 Y96.528 F7800.000
G1 E2.00000 F2400.00000
G1 X92.252 Y95.599 E2.06315 F1800.000
G1 X92.306 Y94.757 E2.11953
G1 X92.255 Y93.928 E2.17501
G1 X92.154 Y93.389 E2.21164
G1 X90.058 Y92.849 F7800.000
G1 X89.698 Y92.620 E2.24014 F1800.000
G1 X89.385 Y92.474 E2.26320
G1 X89.105 Y92.451 E2.28199
G1 X88.584 Y92.467 E2.31682
G1 X88.403 Y92.493 E2.32898
G1 X88.038 Y92.726 E2.35792
G1 X87.712 Y92.996 E2.38620
G1 X86.509 Y92.853 F7800.000
G1 X86.303 Y93.655 E2.50346 F1800.000
G1 X86.261 Y93.965 E2.54776
G1 X86.261 Y93.965 F7800.000
G1 X86.206 Y94.410 E2.57770 F1800.000
G1 X86.206 Y95.090 E2.62312
G1 X86.261 Y95.534 E2.65300
G1 X86.403 Y95.790 E2.67256
G1 X86.732 Y96.243 E2.70994
G1 X86.732 Y104.257 F7800.000
G1 X86.403 Y104.710 E2.74733 F1800.000
G1 X86.261 Y104.966 E2.76689
G1 X86.208 Y105.384 E2.79503
G1 X86.208 Y106.116 E2.84392
G1 X86.294 Y106.796 E2.88970
G1 X86.381 Y107.147 E2.91385
M104 S200 ; set temperature
M140 S60 ; wait for bed temperature to be reached
G1 Z0.500 F7800.000
G1 E0.91385 F2400.00000
G92 E0
G1 X110.372 Y105.105 F7800.000
G1 E2.00000 F2400.00000
G1 X110.583 Y104.721 E2.00938 F900.000
G1 X110.884 Y104.401 E2.01877
G1 X111.254 Y104.165 E2.02815
G1 X111.672 Y104.030 E2.03753
G1 X112.054 Y104.006 E2.04573 F900.000
G1 X112.539 Y104.084 E2.05622
G1 X112.938 Y104.271 E2.06565
G1 X113.278 Y104.553 E2.07508
G1 X113.555 Y104.958 E2.08558
G1 X113.696 Y105.314 E2.09377
G1 X113.751 Y105.750 E2.10315
G1 X113.696 Y106.186 E2.11254
G1 X113.535 Y106.594 E2.12192
G1 X113.277 Y106.949 E2.13131
G1 X112.938 Y107.229 E2.14069
G1 X112.541 Y107.415 E2.15007
G1 X112.110 Y107.498 E2.15946
G1 X111.672 Y107.470 E2.16884
G1 X111.307 Y107.352 E2.17703
G1 X110.885 Y107.101 E2.18753
G1 X110.583 Y106.779 E2.19696
G1 X110.399 Y106.443 E2.20515
G1 X110.263 Y105.972 E2.21565
G1 X110.263 Y105.531 E2.22508
G1 X110.361 Y105.149 E2.23350
G1 X110.195 Y104.863 F7800.000
G1 E0.23350 F2400.00000
G92 E0
G1 X90.804 Y95.742 F7800.000
G1 E2.00000 F2400.00000
G1 X90.501 Y96.159 E2.01517 F900.000
G1 X90.103 Y96.488 E2.03033
G1 X89.636 Y96.708 E2.04550
G1 X89.129 Y96.805 E2.06067
G1 X88.614 Y96.772 E2.07583
G1 X88.181 Y96.632 E2.08923
G1 X87.692 Y96.341 E2.10593
G1 X87.334 Y95.960 E2.12129
G1 X87.115 Y95.561 E2.13469
G1 X86.957 Y95.015 E2.15138
G1 X86.957 Y94.492 E2.16675
G1 X87.086 Y93.992 E2.18192
G1 X87.334 Y93.540 E2.19708
G1 X87.688 Y93.164 E2.21225
G1 X88.123 Y92.887 E2.22742
G1 X88.614 Y92.728 E2.24258
G1 X89.069 Y92.699 E2.25598 F900.000
G1 X89.630 Y92.789 E2.27267
G1 X90.103 Y93.012 E2.28804
G1 X90.501 Y93.341 E2.30321
G1 X90.804 Y93.758 E2.31838
G1 X90.994 Y94.238 E2.33354
G1 X91.059 Y94.750 E2.34871
G1 X90.994 Y95.262 E2.36388
G1 X90.821 Y95.700 E2.37772
G1 X90.535 Y95.594 F7800.000
G1 X90.277 Y95.949 E2.38710 F900.000
G1 X89.938 Y96.229 E2.39649
G1 X89.541 Y96.415 E2.40587
G1 X89.110 Y96.498 E2.41525
G1 X88.672 Y96.470 E2.42464
G1 X88.307 Y96.352 E2.43283
G1 X87.885 Y96.101 E2.44332
G1 X87.583 Y95.779 E2.45276
G1 X87.399 Y95.443 E2.46095
G1 X87.263 Y94.972 E2.47144
G1 X87.263 Y94.531 E2.48087
G1 X87.372 Y94.105 E2.49026
G1 X87.583 Y93.721 E2.49964
G1 X87.884 Y93.401 E2.50902
G1 X88.254 Y93.165 E2.51841
G1 X88.672 Y93.030 E2.52779
G1 X89.054 Y93.006 E2.53598 F900.000
G1 X89.539 Y93.084 E2.54648
G1 X89.938 Y93.271 E2.55591
G1 X90.277 Y93.551 E2.56529
G1 X90.535 Y93.906 E2.57468
G1 X90.696 Y94.314 E2.58406
G1 X90.751 Y94.750 E2.59344
G1 X90.696 Y95.186 E2.60283
G1 X90.551 Y95.552 E2.61125
G1 X90.679 Y95.857 F7800.000
G1 X93.191 Y100.559 F7800.000
G1 X114.191 Y100.559 E3.22839 F3600.000
G1 X114.191 Y104.457 E3.34295
G1 X114.042 Y104.503 E3.34754
G1 X113.770 Y104.104 E3.36172
G1 X113.294 Y103.711 E3.37987
G1 X112.735 Y103.448 E3.39801
G1 X112.086 Y103.344 E3.41733
G1 X111.547 Y103.378 E3.43320
G1 X110.972 Y103.565 E3.45099
G1 X110.461 Y103.889 E3.46878
G1 X110.046 Y104.330 E3.48657
G1 X109.754 Y104.861 E3.50436
G1 X109.604 Y105.447 E3.52215
G1 X109.604 Y106.065 E3.54030
G1 X109.786 Y106.696 E3.55962
G1 X110.046 Y107.170 E3.57549
G1 X110.301 Y107.441 E3.58644
G1 X90.733 Y107.441 E4.16151
G1 X91.116 Y106.913 E4.18069
G1 X91.339 Y106.351 E4.19848
G1 X91.415 Y105.750 E4.21627
G1 X91.339 Y105.149 E4.23406
G1 X91.116 Y104.587 E4.25185
G1 X90.761 Y104.097 E4.26964
G1 X90.294 Y103.711 E4.28743
G1 X89.735 Y103.448 E4.30558
G1 X89.086 Y103.344 E4.32490
G1 X88.547 Y103.378 E4.34077
G1 X87.972 Y103.565 E4.35856
G1 X87.461 Y103.889 E4.37635
G1 X87.046 Y104.330 E4.39414
G1 X86.754 Y104.861 E4.41193
G1 X86.604 Y105.447 E4.42972
G1 X86.604 Y106.053 E4.44751
G1 X86.754 Y106.639 E4.46530
G1 X87.046 Y107.170 E4.48309
G1 X87.301 Y107.441 E4.49405
G1 X85.809 Y107.441 E4.53791
G1 X85.809 Y92.559 E4.97528
G1 X87.696 Y92.559 E5.03074
G1 X87.740 Y92.712 E5.03542
G1 X87.461 Y92.889 E5.04516
G1 X87.046 Y93.330 E5.06295
G1 X86.754 Y93.861 E5.08074
G1 X86.604 Y94.447 E5.09853
G1 X86.604 Y95.065 E5.11668
G1 X86.786 Y95.696 E5.13600
G1 X87.046 Y96.170 E5.15186
G1 X87.469 Y96.620 E5.17001
G1 X88.034 Y96.956 E5.18933
G1 X88.547 Y97.122 E5.20520
G1 X89.152 Y97.160 E5.22299
G1 X89.746 Y97.047 E5.24078
G1 X90.294 Y96.789 E5.25857
G1 X90.761 Y96.403 E5.27636
G1 X91.116 Y95.913 E5.29415
G1 X91.339 Y95.351 E5.31194
G1 X91.415 Y94.750 E5.32973
G1 X91.339 Y94.149 E5.34752
G1 X91.116 Y93.587 E5.36531
G1 X90.761 Y93.097 E5.38311
G1 X90.110 Y92.559 E5.40791
G1 X93.191 Y92.559 E5.49846
G1 X93.191 Y100.514 E5.73224
G1 E3.73224 F2400.00000
G92 E0
G1 X113.733 Y107.441 F7800.000
G1 E2.00000 F2400.00000
G1 X114.045 Y107.012 E2.01559 F900.000
G1 X114.191 Y107.060 E2.02012
G1 X114.191 Y107.441 E2.03134
G1 X113.778 Y107.441 E2.04349
G1 E0.04349 F2400.00000
G92 E0
G1 X93.545 Y100.205 F7800.000
G1 E2.00000 F2400.00000
G1 X114.545 Y100.205 E2.61714 F3600.000
